(G-CODE GENERATED BY FLATCAM v8.991 - www.flatcam.org - Version Date: 2019/12/27)

(Name: 1.top01)
(Type: G-code from Geometry)
(Units: MM)

(Created on Friday, 28 November 2025 at 20:54)

(TOOL DIAMETER: 0.15 mm)
(Feedrate: 120.0 mm/min)
(Feedrate_Z: 60.0 mm/min)
(Feedrate rapids 1500.0 mm/min)

(Z_Cut: -0.038 mm)
(Z_Move: 2.0 mm)
(Z Toolchange: 15.0 mm)
(X,Y Toolchange: 0.0000, 0.0000 mm)
(Z Start: None mm)
(Z End: 15.0 mm)
(Steps per circle: 64)
(Preprocessor Geometry: default)

(X range:    0.4255 ...   51.2245  mm)
(Y range:    0.4255 ...   30.4745  mm)

(Spindle Speed: 10000 RPM)
G21
G90
G94




G01 F120.00
G00 Z2.0000

M03 S10000
G00 X2.5103 Y0.9261
G01 F60.00
G01 Z-0.0380
G01 F120.00
G01 X2.7450 Y0.9261
G01 X2.7450 Y1.2250
G01 X2.7200 Y1.2250
G01 X2.7126 Y1.2254
G01 X2.7054 Y1.2264
G01 X2.6982 Y1.2282
G01 X2.6913 Y1.2307
G01 X2.6846 Y1.2339
G01 X2.6783 Y1.2376
G01 X2.6724 Y1.2420
G01 X2.6670 Y1.2470
G01 X2.6620 Y1.2524
G01 X2.6576 Y1.2583
G01 X2.6539 Y1.2646
G01 X2.6507 Y1.2713
G01 X2.6482 Y1.2782
G01 X2.6464 Y1.2854
G01 X2.6454 Y1.2926
G01 X2.6450 Y1.3000
G01 X2.6450 Y1.3250
G01 X2.2950 Y1.3250
G01 X2.2950 Y1.2562
G01 X2.3000 Y1.2100
G01 X2.3431 Y1.0942
G01 X2.4164 Y0.9964
G01 X2.5103 Y0.9261
G00 Z2.0000
G00 X2.7200 Y2.3250
G01 F60.00
G01 Z-0.0380
G01 F120.00
G01 X3.4200 Y2.3250
G01 X3.4274 Y2.3254
G01 X3.4346 Y2.3264
G01 X3.4418 Y2.3282
G01 X3.4487 Y2.3307
G01 X3.4554 Y2.3339
G01 X3.4617 Y2.3376
G01 X3.4676 Y2.3420
G01 X3.4730 Y2.3470
G01 X3.4780 Y2.3524
G01 X3.4824 Y2.3583
G01 X3.4861 Y2.3646
G01 X3.4893 Y2.3713
G01 X3.4918 Y2.3782
G01 X3.4936 Y2.3854
G01 X3.4946 Y2.3926
G01 X3.4950 Y2.4000
G01 X3.4950 Y3.1000
G01 X3.4946 Y3.1074
G01 X3.4936 Y3.1146
G01 X3.4918 Y3.1218
G01 X3.4893 Y3.1287
G01 X3.4861 Y3.1354
G01 X3.4824 Y3.1417
G01 X3.4780 Y3.1476
G01 X3.4730 Y3.1530
G01 X3.4676 Y3.1580
G01 X3.4617 Y3.1624
G01 X3.4554 Y3.1661
G01 X3.4487 Y3.1693
G01 X3.4418 Y3.1718
G01 X3.4346 Y3.1736
G01 X3.4274 Y3.1746
G01 X3.4200 Y3.1750
G01 X2.7200 Y3.1750
G01 X2.7126 Y3.1746
G01 X2.7054 Y3.1736
G01 X2.6982 Y3.1718
G01 X2.6913 Y3.1693
G01 X2.6846 Y3.1661
G01 X2.6783 Y3.1624
G01 X2.6724 Y3.1580
G01 X2.6670 Y3.1530
G01 X2.6620 Y3.1476
G01 X2.6576 Y3.1417
G01 X2.6539 Y3.1354
G01 X2.6507 Y3.1287
G01 X2.6482 Y3.1218
G01 X2.6464 Y3.1146
G01 X2.6454 Y3.1074
G01 X2.6450 Y3.1000
G01 X2.6450 Y2.4000
G01 X2.6454 Y2.3926
G01 X2.6464 Y2.3854
G01 X2.6482 Y2.3782
G01 X2.6507 Y2.3713
G01 X2.6539 Y2.3646
G01 X2.6576 Y2.3583
G01 X2.6620 Y2.3524
G01 X2.6670 Y2.3470
G01 X2.6724 Y2.3420
G01 X2.6783 Y2.3376
G01 X2.6846 Y2.3339
G01 X2.6913 Y2.3307
G01 X2.6982 Y2.3282
G01 X2.7054 Y2.3264
G01 X2.7126 Y2.3254
G01 X2.7200 Y2.3250
G00 Z2.0000
G00 X4.5500 Y1.2250
G01 F60.00
G01 Z-0.0380
G01 F120.00
G01 X5.2500 Y1.2250
G01 X5.2574 Y1.2254
G01 X5.2646 Y1.2264
G01 X5.2718 Y1.2282
G01 X5.2787 Y1.2307
G01 X5.2854 Y1.2339
G01 X5.2917 Y1.2376
G01 X5.2976 Y1.2420
G01 X5.3030 Y1.2470
G01 X5.3080 Y1.2524
G01 X5.3124 Y1.2583
G01 X5.3161 Y1.2646
G01 X5.3193 Y1.2713
G01 X5.3218 Y1.2782
G01 X5.3236 Y1.2854
G01 X5.3246 Y1.2926
G01 X5.3250 Y1.3000
G01 X5.3250 Y1.3499
G01 X5.4500 Y1.3499
G01 X5.4757 Y1.3511
G01 X5.4831 Y1.3518
G01 X5.5049 Y1.3550
G01 X5.5121 Y1.3565
G01 X5.5336 Y1.3618
G01 X5.5406 Y1.3640
G01 X5.5614 Y1.3714
G01 X5.5682 Y1.3742
G01 X5.5882 Y1.3837
G01 X5.5947 Y1.3871
G01 X5.6136 Y1.3985
G01 X5.6197 Y1.4026
G01 X5.6375 Y1.4157
G01 X5.6432 Y1.4204
G01 X5.6622 Y1.4378
G01 X6.6743 Y2.4499
G01 X7.7950 Y2.4499
G01 X7.7950 Y2.4000
G01 X7.7954 Y2.3926
G01 X7.7964 Y2.3854
G01 X7.7982 Y2.3782
G01 X7.8007 Y2.3713
G01 X7.8039 Y2.3646
G01 X7.8076 Y2.3583
G01 X7.8120 Y2.3524
G01 X7.8170 Y2.3470
G01 X7.8224 Y2.3420
G01 X7.8283 Y2.3376
G01 X7.8346 Y2.3339
G01 X7.8413 Y2.3307
G01 X7.8482 Y2.3282
G01 X7.8554 Y2.3264
G01 X7.8626 Y2.3254
G01 X7.8700 Y2.3250
G01 X8.5700 Y2.3250
G01 X8.5774 Y2.3254
G01 X8.5846 Y2.3264
G01 X8.5918 Y2.3282
G01 X8.5987 Y2.3307
G01 X8.6054 Y2.3339
G01 X8.6117 Y2.3376
G01 X8.6176 Y2.3420
G01 X8.6230 Y2.3470
G01 X8.6280 Y2.3524
G01 X8.6324 Y2.3583
G01 X8.6361 Y2.3646
G01 X8.6393 Y2.3713
G01 X8.6418 Y2.3782
G01 X8.6436 Y2.3854
G01 X8.6446 Y2.3926
G01 X8.6450 Y2.4000
G01 X8.6450 Y3.1000
G01 X8.6446 Y3.1074
G01 X8.6436 Y3.1146
G01 X8.6418 Y3.1218
G01 X8.6393 Y3.1287
G01 X8.6361 Y3.1354
G01 X8.6324 Y3.1417
G01 X8.6280 Y3.1476
G01 X8.6230 Y3.1530
G01 X8.6176 Y3.1580
G01 X8.6117 Y3.1624
G01 X8.6054 Y3.1661
G01 X8.5987 Y3.1693
G01 X8.5918 Y3.1718
G01 X8.5846 Y3.1736
G01 X8.5774 Y3.1746
G01 X8.5700 Y3.1750
G01 X7.8700 Y3.1750
G01 X7.8626 Y3.1746
G01 X7.8554 Y3.1736
G01 X7.8482 Y3.1718
G01 X7.8413 Y3.1693
G01 X7.8346 Y3.1661
G01 X7.8283 Y3.1624
G01 X7.8224 Y3.1580
G01 X7.8170 Y3.1530
G01 X7.8120 Y3.1476
G01 X7.8076 Y3.1417
G01 X7.8039 Y3.1354
G01 X7.8007 Y3.1287
G01 X7.7982 Y3.1218
G01 X7.7964 Y3.1146
G01 X7.7954 Y3.1074
G01 X7.7950 Y3.1000
G01 X7.7950 Y3.0501
G01 X6.5500 Y3.0501
G01 X6.5243 Y3.0489
G01 X6.5169 Y3.0482
G01 X6.4951 Y3.0450
G01 X6.4879 Y3.0435
G01 X6.4664 Y3.0382
G01 X6.4594 Y3.0360
G01 X6.4386 Y3.0286
G01 X6.4318 Y3.0258
G01 X6.4118 Y3.0163
G01 X6.4053 Y3.0129
G01 X6.3864 Y3.0015
G01 X6.3803 Y2.9974
G01 X6.3625 Y2.9843
G01 X6.3568 Y2.9796
G01 X6.3378 Y2.9622
G01 X5.3257 Y1.9501
G01 X5.3250 Y1.9501
G01 X5.3250 Y2.0000
G01 X5.3246 Y2.0074
G01 X5.3236 Y2.0146
G01 X5.3218 Y2.0218
G01 X5.3193 Y2.0287
G01 X5.3161 Y2.0354
G01 X5.3124 Y2.0417
G01 X5.3080 Y2.0476
G01 X5.3030 Y2.0530
G01 X5.2976 Y2.0580
G01 X5.2917 Y2.0624
G01 X5.2854 Y2.0661
G01 X5.2787 Y2.0693
G01 X5.2718 Y2.0718
G01 X5.2646 Y2.0736
G01 X5.2574 Y2.0746
G01 X5.2500 Y2.0750
G01 X4.5500 Y2.0750
G01 X4.5426 Y2.0746
G01 X4.5354 Y2.0736
G01 X4.5282 Y2.0718
G01 X4.5213 Y2.0693
G01 X4.5146 Y2.0661
G01 X4.5083 Y2.0624
G01 X4.5024 Y2.0580
G01 X4.4970 Y2.0530
G01 X4.4920 Y2.0476
G01 X4.4876 Y2.0417
G01 X4.4839 Y2.0354
G01 X4.4807 Y2.0287
G01 X4.4782 Y2.0218
G01 X4.4764 Y2.0146
G01 X4.4754 Y2.0074
G01 X4.4750 Y2.0000
G01 X4.4750 Y1.3000
G01 X4.4754 Y1.2926
G01 X4.4764 Y1.2854
G01 X4.4782 Y1.2782
G01 X4.4807 Y1.2713
G01 X4.4839 Y1.2646
G01 X4.4876 Y1.2583
G01 X4.4920 Y1.2524
G01 X4.4970 Y1.2470
G01 X4.5024 Y1.2420
G01 X4.5083 Y1.2376
G01 X4.5146 Y1.2339
G01 X4.5213 Y1.2307
G01 X4.5282 Y1.2282
G01 X4.5354 Y1.2264
G01 X4.5426 Y1.2254
G01 X4.5500 Y1.2250
G00 Z2.0000
G00 X7.6603 Y0.9261
G01 F60.00
G01 Z-0.0380
G01 F120.00
G01 X7.8950 Y0.9261
G01 X7.8950 Y1.2250
G01 X7.8700 Y1.2250
G01 X7.8626 Y1.2254
G01 X7.8554 Y1.2264
G01 X7.8482 Y1.2282
G01 X7.8413 Y1.2307
G01 X7.8346 Y1.2339
G01 X7.8283 Y1.2376
G01 X7.8224 Y1.2420
G01 X7.8170 Y1.2470
G01 X7.8120 Y1.2524
G01 X7.8076 Y1.2583
G01 X7.8039 Y1.2646
G01 X7.8007 Y1.2713
G01 X7.7982 Y1.2782
G01 X7.7964 Y1.2854
G01 X7.7954 Y1.2926
G01 X7.7950 Y1.3000
G01 X7.7950 Y1.3250
G01 X7.4450 Y1.3250
G01 X7.4450 Y1.2562
G01 X7.4500 Y1.2100
G01 X7.4931 Y1.0942
G01 X7.5664 Y0.9964
G01 X7.6603 Y0.9261
G00 Z2.0000
G00 X9.7000 Y1.2250
G01 F60.00
G01 Z-0.0380
G01 F120.00
G01 X10.4000 Y1.2250
G01 X10.4074 Y1.2254
G01 X10.4146 Y1.2264
G01 X10.4218 Y1.2282
G01 X10.4287 Y1.2307
G01 X10.4354 Y1.2339
G01 X10.4417 Y1.2376
G01 X10.4476 Y1.2420
G01 X10.4530 Y1.2470
G01 X10.4580 Y1.2524
G01 X10.4624 Y1.2583
G01 X10.4661 Y1.2646
G01 X10.4693 Y1.2713
G01 X10.4718 Y1.2782
G01 X10.4736 Y1.2854
G01 X10.4746 Y1.2926
G01 X10.4750 Y1.3000
G01 X10.4750 Y1.3499
G01 X10.5500 Y1.3499
G01 X10.5757 Y1.3511
G01 X10.5831 Y1.3518
G01 X10.6049 Y1.3550
G01 X10.6121 Y1.3565
G01 X10.6336 Y1.3618
G01 X10.6406 Y1.3640
G01 X10.6614 Y1.3714
G01 X10.6682 Y1.3742
G01 X10.6882 Y1.3837
G01 X10.6947 Y1.3871
G01 X10.7136 Y1.3985
G01 X10.7197 Y1.4026
G01 X10.7375 Y1.4157
G01 X10.7432 Y1.4204
G01 X10.7595 Y1.4353
G01 X11.7743 Y2.4499
G01 X12.8950 Y2.4499
G01 X12.8950 Y2.4000
G01 X12.8954 Y2.3926
G01 X12.8964 Y2.3854
G01 X12.8982 Y2.3782
G01 X12.9007 Y2.3713
G01 X12.9039 Y2.3646
G01 X12.9076 Y2.3583
G01 X12.9120 Y2.3524
G01 X12.9170 Y2.3470
G01 X12.9224 Y2.3420
G01 X12.9283 Y2.3376
G01 X12.9346 Y2.3339
G01 X12.9413 Y2.3307
G01 X12.9482 Y2.3282
G01 X12.9554 Y2.3264
G01 X12.9626 Y2.3254
G01 X12.9700 Y2.3250
G01 X13.6700 Y2.3250
G01 X13.6774 Y2.3254
G01 X13.6846 Y2.3264
G01 X13.6918 Y2.3282
G01 X13.6987 Y2.3307
G01 X13.7054 Y2.3339
G01 X13.7117 Y2.3376
G01 X13.7176 Y2.3420
G01 X13.7230 Y2.3470
G01 X13.7280 Y2.3524
G01 X13.7324 Y2.3583
G01 X13.7361 Y2.3646
G01 X13.7393 Y2.3713
G01 X13.7418 Y2.3782
G01 X13.7436 Y2.3854
G01 X13.7446 Y2.3926
G01 X13.7450 Y2.4000
G01 X13.7450 Y3.1000
G01 X13.7446 Y3.1074
G01 X13.7436 Y3.1146
G01 X13.7418 Y3.1218
G01 X13.7393 Y3.1287
G01 X13.7361 Y3.1354
G01 X13.7324 Y3.1417
G01 X13.7280 Y3.1476
G01 X13.7230 Y3.1530
G01 X13.7176 Y3.1580
G01 X13.7117 Y3.1624
G01 X13.7054 Y3.1661
G01 X13.6987 Y3.1693
G01 X13.6918 Y3.1718
G01 X13.6846 Y3.1736
G01 X13.6774 Y3.1746
G01 X13.6700 Y3.1750
G01 X12.9700 Y3.1750
G01 X12.9626 Y3.1746
G01 X12.9554 Y3.1736
G01 X12.9482 Y3.1718
G01 X12.9413 Y3.1693
G01 X12.9346 Y3.1661
G01 X12.9283 Y3.1624
G01 X12.9224 Y3.1580
G01 X12.9170 Y3.1530
G01 X12.9120 Y3.1476
G01 X12.9076 Y3.1417
G01 X12.9039 Y3.1354
G01 X12.9007 Y3.1287
G01 X12.8982 Y3.1218
G01 X12.8964 Y3.1146
G01 X12.8954 Y3.1074
G01 X12.8950 Y3.1000
G01 X12.8950 Y3.0501
G01 X11.6500 Y3.0501
G01 X11.6243 Y3.0489
G01 X11.6169 Y3.0482
G01 X11.5951 Y3.0450
G01 X11.5879 Y3.0435
G01 X11.5664 Y3.0382
G01 X11.5594 Y3.0360
G01 X11.5386 Y3.0286
G01 X11.5318 Y3.0258
G01 X11.5118 Y3.0163
G01 X11.5053 Y3.0129
G01 X11.4864 Y3.0015
G01 X11.4803 Y2.9974
G01 X11.4625 Y2.9843
G01 X11.4568 Y2.9796
G01 X11.4378 Y2.9622
G01 X10.4750 Y1.9994
G01 X10.4746 Y2.0074
G01 X10.4736 Y2.0146
G01 X10.4718 Y2.0218
G01 X10.4693 Y2.0287
G01 X10.4661 Y2.0354
G01 X10.4624 Y2.0417
G01 X10.4580 Y2.0476
G01 X10.4530 Y2.0530
G01 X10.4476 Y2.0580
G01 X10.4417 Y2.0624
G01 X10.4354 Y2.0661
G01 X10.4287 Y2.0693
G01 X10.4218 Y2.0718
G01 X10.4146 Y2.0736
G01 X10.4074 Y2.0746
G01 X10.4000 Y2.0750
G01 X9.7000 Y2.0750
G01 X9.6926 Y2.0746
G01 X9.6854 Y2.0736
G01 X9.6782 Y2.0718
G01 X9.6713 Y2.0693
G01 X9.6646 Y2.0661
G01 X9.6583 Y2.0624
G01 X9.6524 Y2.0580
G01 X9.6470 Y2.0530
G01 X9.6420 Y2.0476
G01 X9.6376 Y2.0417
G01 X9.6339 Y2.0354
G01 X9.6307 Y2.0287
G01 X9.6282 Y2.0218
G01 X9.6264 Y2.0146
G01 X9.6254 Y2.0074
G01 X9.6250 Y2.0000
G01 X9.6250 Y1.3000
G01 X9.6254 Y1.2926
G01 X9.6264 Y1.2854
G01 X9.6282 Y1.2782
G01 X9.6307 Y1.2713
G01 X9.6339 Y1.2646
G01 X9.6376 Y1.2583
G01 X9.6420 Y1.2524
G01 X9.6470 Y1.2470
G01 X9.6524 Y1.2420
G01 X9.6583 Y1.2376
G01 X9.6646 Y1.2339
G01 X9.6713 Y1.2307
G01 X9.6782 Y1.2282
G01 X9.6854 Y1.2264
G01 X9.6926 Y1.2254
G01 X9.7000 Y1.2250
G00 Z2.0000
G00 X12.7603 Y0.9261
G01 F60.00
G01 Z-0.0380
G01 F120.00
G01 X12.9950 Y0.9261
G01 X12.9950 Y1.2250
G01 X12.9700 Y1.2250
G01 X12.9626 Y1.2254
G01 X12.9554 Y1.2264
G01 X12.9482 Y1.2282
G01 X12.9413 Y1.2307
G01 X12.9346 Y1.2339
G01 X12.9283 Y1.2376
G01 X12.9224 Y1.2420
G01 X12.9170 Y1.2470
G01 X12.9120 Y1.2524
G01 X12.9076 Y1.2583
G01 X12.9039 Y1.2646
G01 X12.9007 Y1.2713
G01 X12.8982 Y1.2782
G01 X12.8964 Y1.2854
G01 X12.8954 Y1.2926
G01 X12.8950 Y1.3000
G01 X12.8950 Y1.3250
G01 X12.5450 Y1.3250
G01 X12.5450 Y1.2562
G01 X12.5500 Y1.2100
G01 X12.5931 Y1.0942
G01 X12.6664 Y0.9964
G01 X12.7603 Y0.9261
G00 Z2.0000
G00 X14.8000 Y1.2250
G01 F60.00
G01 Z-0.0380
G01 F120.00
G01 X15.5000 Y1.2250
G01 X15.5074 Y1.2254
G01 X15.5146 Y1.2264
G01 X15.5218 Y1.2282
G01 X15.5287 Y1.2307
G01 X15.5354 Y1.2339
G01 X15.5417 Y1.2376
G01 X15.5476 Y1.2420
G01 X15.5530 Y1.2470
G01 X15.5580 Y1.2524
G01 X15.5624 Y1.2583
G01 X15.5661 Y1.2646
G01 X15.5693 Y1.2713
G01 X15.5718 Y1.2782
G01 X15.5736 Y1.2854
G01 X15.5746 Y1.2926
G01 X15.5750 Y1.3000
G01 X15.5750 Y1.3499
G01 X16.0000 Y1.3499
G01 X16.0257 Y1.3511
G01 X16.0331 Y1.3518
G01 X16.0549 Y1.3550
G01 X16.0621 Y1.3565
G01 X16.0836 Y1.3618
G01 X16.0906 Y1.3640
G01 X16.1114 Y1.3714
G01 X16.1182 Y1.3742
G01 X16.1382 Y1.3837
G01 X16.1447 Y1.3871
G01 X16.1636 Y1.3985
G01 X16.1697 Y1.4026
G01 X16.1875 Y1.4157
G01 X16.1932 Y1.4204
G01 X16.2122 Y1.4378
G01 X17.2243 Y2.4499
G01 X17.9950 Y2.4499
G01 X17.9950 Y2.4000
G01 X17.9954 Y2.3926
G01 X17.9964 Y2.3854
G01 X17.9982 Y2.3782
G01 X18.0007 Y2.3713
G01 X18.0039 Y2.3646
G01 X18.0076 Y2.3583
G01 X18.0120 Y2.3524
G01 X18.0170 Y2.3470
G01 X18.0224 Y2.3420
G01 X18.0283 Y2.3376
G01 X18.0346 Y2.3339
G01 X18.0413 Y2.3307
G01 X18.0482 Y2.3282
G01 X18.0554 Y2.3264
G01 X18.0626 Y2.3254
G01 X18.0700 Y2.3250
G01 X18.7700 Y2.3250
G01 X18.7774 Y2.3254
G01 X18.7846 Y2.3264
G01 X18.7918 Y2.3282
G01 X18.7987 Y2.3307
G01 X18.8054 Y2.3339
G01 X18.8117 Y2.3376
G01 X18.8176 Y2.3420
G01 X18.8230 Y2.3470
G01 X18.8280 Y2.3524
G01 X18.8324 Y2.3583
G01 X18.8361 Y2.3646
G01 X18.8393 Y2.3713
G01 X18.8418 Y2.3782
G01 X18.8436 Y2.3854
G01 X18.8446 Y2.3926
G01 X18.8450 Y2.4000
G01 X18.8450 Y3.1000
G01 X18.8446 Y3.1074
G01 X18.8436 Y3.1146
G01 X18.8418 Y3.1218
G01 X18.8393 Y3.1287
G01 X18.8361 Y3.1354
G01 X18.8324 Y3.1417
G01 X18.8280 Y3.1476
G01 X18.8230 Y3.1530
G01 X18.8176 Y3.1580
G01 X18.8117 Y3.1624
G01 X18.8054 Y3.1661
G01 X18.7987 Y3.1693
G01 X18.7918 Y3.1718
G01 X18.7846 Y3.1736
G01 X18.7774 Y3.1746
G01 X18.7700 Y3.1750
G01 X18.0700 Y3.1750
G01 X18.0626 Y3.1746
G01 X18.0554 Y3.1736
G01 X18.0482 Y3.1718
G01 X18.0413 Y3.1693
G01 X18.0346 Y3.1661
G01 X18.0283 Y3.1624
G01 X18.0224 Y3.1580
G01 X18.0170 Y3.1530
G01 X18.0120 Y3.1476
G01 X18.0076 Y3.1417
G01 X18.0039 Y3.1354
G01 X18.0007 Y3.1287
G01 X17.9982 Y3.1218
G01 X17.9964 Y3.1146
G01 X17.9954 Y3.1074
G01 X17.9950 Y3.1000
G01 X17.9950 Y3.0501
G01 X17.1000 Y3.0501
G01 X17.0743 Y3.0489
G01 X17.0669 Y3.0482
G01 X17.0451 Y3.0450
G01 X17.0379 Y3.0435
G01 X17.0164 Y3.0382
G01 X17.0094 Y3.0360
G01 X16.9886 Y3.0286
G01 X16.9818 Y3.0258
G01 X16.9618 Y3.0163
G01 X16.9553 Y3.0129
G01 X16.9364 Y3.0015
G01 X16.9303 Y2.9974
G01 X16.9125 Y2.9843
G01 X16.9068 Y2.9796
G01 X16.8878 Y2.9622
G01 X15.8757 Y1.9501
G01 X15.5750 Y1.9501
G01 X15.5750 Y2.0000
G01 X15.5746 Y2.0074
G01 X15.5736 Y2.0146
G01 X15.5718 Y2.0218
G01 X15.5693 Y2.0287
G01 X15.5661 Y2.0354
G01 X15.5624 Y2.0417
G01 X15.5580 Y2.0476
G01 X15.5530 Y2.0530
G01 X15.5476 Y2.0580
G01 X15.5417 Y2.0624
G01 X15.5354 Y2.0661
G01 X15.5287 Y2.0693
G01 X15.5218 Y2.0718
G01 X15.5146 Y2.0736
G01 X15.5074 Y2.0746
G01 X15.5000 Y2.0750
G01 X14.8000 Y2.0750
G01 X14.7926 Y2.0746
G01 X14.7854 Y2.0736
G01 X14.7782 Y2.0718
G01 X14.7713 Y2.0693
G01 X14.7646 Y2.0661
G01 X14.7583 Y2.0624
G01 X14.7524 Y2.0580
G01 X14.7470 Y2.0530
G01 X14.7420 Y2.0476
G01 X14.7376 Y2.0417
G01 X14.7339 Y2.0354
G01 X14.7307 Y2.0287
G01 X14.7282 Y2.0218
G01 X14.7264 Y2.0146
G01 X14.7254 Y2.0074
G01 X14.7250 Y2.0000
G01 X14.7250 Y1.3000
G01 X14.7254 Y1.2926
G01 X14.7264 Y1.2854
G01 X14.7282 Y1.2782
G01 X14.7307 Y1.2713
G01 X14.7339 Y1.2646
G01 X14.7376 Y1.2583
G01 X14.7420 Y1.2524
G01 X14.7470 Y1.2470
G01 X14.7524 Y1.2420
G01 X14.7583 Y1.2376
G01 X14.7646 Y1.2339
G01 X14.7713 Y1.2307
G01 X14.7782 Y1.2282
G01 X14.7854 Y1.2264
G01 X14.7926 Y1.2254
G01 X14.8000 Y1.2250
G00 Z2.0000
G00 X17.8603 Y0.9261
G01 F60.00
G01 Z-0.0380
G01 F120.00
G01 X18.0950 Y0.9261
G01 X18.0950 Y1.2250
G01 X18.0700 Y1.2250
G01 X18.0626 Y1.2254
G01 X18.0554 Y1.2264
G01 X18.0482 Y1.2282
G01 X18.0413 Y1.2307
G01 X18.0346 Y1.2339
G01 X18.0283 Y1.2376
G01 X18.0224 Y1.2420
G01 X18.0170 Y1.2470
G01 X18.0120 Y1.2524
G01 X18.0076 Y1.2583
G01 X18.0039 Y1.2646
G01 X18.0007 Y1.2713
G01 X17.9982 Y1.2782
G01 X17.9964 Y1.2854
G01 X17.9954 Y1.2926
G01 X17.9950 Y1.3000
G01 X17.9950 Y1.3250
G01 X17.6450 Y1.3250
G01 X17.6450 Y1.2562
G01 X17.6500 Y1.2100
G01 X17.6931 Y1.0942
G01 X17.7664 Y0.9964
G01 X17.8603 Y0.9261
G00 Z2.0000
G00 X19.9000 Y1.2250
G01 F60.00
G01 Z-0.0380
G01 F120.00
G01 X20.6000 Y1.2250
G01 X20.6074 Y1.2254
G01 X20.6146 Y1.2264
G01 X20.6218 Y1.2282
G01 X20.6287 Y1.2307
G01 X20.6354 Y1.2339
G01 X20.6417 Y1.2376
G01 X20.6476 Y1.2420
G01 X20.6530 Y1.2470
G01 X20.6580 Y1.2524
G01 X20.6624 Y1.2583
G01 X20.6661 Y1.2646
G01 X20.6693 Y1.2713
G01 X20.6718 Y1.2782
G01 X20.6736 Y1.2854
G01 X20.6746 Y1.2926
G01 X20.6750 Y1.3000
G01 X20.6750 Y1.3499
G01 X21.0500 Y1.3499
G01 X21.0757 Y1.3511
G01 X21.0831 Y1.3518
G01 X21.1049 Y1.3550
G01 X21.1121 Y1.3565
G01 X21.1336 Y1.3618
G01 X21.1406 Y1.3640
G01 X21.1614 Y1.3714
G01 X21.1682 Y1.3742
G01 X21.1882 Y1.3837
G01 X21.1947 Y1.3871
G01 X21.2136 Y1.3985
G01 X21.2197 Y1.4026
G01 X21.2375 Y1.4157
G01 X21.2432 Y1.4204
G01 X21.2622 Y1.4378
G01 X22.2743 Y2.4499
G01 X22.9450 Y2.4499
G01 X22.9450 Y2.4000
G01 X22.9454 Y2.3926
G01 X22.9464 Y2.3854
G01 X22.9482 Y2.3782
G01 X22.9507 Y2.3713
G01 X22.9539 Y2.3646
G01 X22.9576 Y2.3583
G01 X22.9620 Y2.3524
G01 X22.9670 Y2.3470
G01 X22.9724 Y2.3420
G01 X22.9783 Y2.3376
G01 X22.9846 Y2.3339
G01 X22.9913 Y2.3307
G01 X22.9982 Y2.3282
G01 X23.0054 Y2.3264
G01 X23.0126 Y2.3254
G01 X23.0200 Y2.3250
G01 X23.7200 Y2.3250
G01 X23.7274 Y2.3254
G01 X23.7346 Y2.3264
G01 X23.7418 Y2.3282
G01 X23.7487 Y2.3307
G01 X23.7554 Y2.3339
G01 X23.7617 Y2.3376
G01 X23.7676 Y2.3420
G01 X23.7730 Y2.3470
G01 X23.7780 Y2.3524
G01 X23.7824 Y2.3583
G01 X23.7861 Y2.3646
G01 X23.7893 Y2.3713
G01 X23.7918 Y2.3782
G01 X23.7936 Y2.3854
G01 X23.7946 Y2.3926
G01 X23.7950 Y2.4000
G01 X23.7950 Y3.1000
G01 X23.7946 Y3.1074
G01 X23.7936 Y3.1146
G01 X23.7918 Y3.1218
G01 X23.7893 Y3.1287
G01 X23.7861 Y3.1354
G01 X23.7824 Y3.1417
G01 X23.7780 Y3.1476
G01 X23.7730 Y3.1530
G01 X23.7676 Y3.1580
G01 X23.7617 Y3.1624
G01 X23.7554 Y3.1661
G01 X23.7487 Y3.1693
G01 X23.7418 Y3.1718
G01 X23.7346 Y3.1736
G01 X23.7274 Y3.1746
G01 X23.7200 Y3.1750
G01 X23.0200 Y3.1750
G01 X23.0126 Y3.1746
G01 X23.0054 Y3.1736
G01 X22.9982 Y3.1718
G01 X22.9913 Y3.1693
G01 X22.9846 Y3.1661
G01 X22.9783 Y3.1624
G01 X22.9724 Y3.1580
G01 X22.9670 Y3.1530
G01 X22.9620 Y3.1476
G01 X22.9576 Y3.1417
G01 X22.9539 Y3.1354
G01 X22.9507 Y3.1287
G01 X22.9482 Y3.1218
G01 X22.9464 Y3.1146
G01 X22.9454 Y3.1074
G01 X22.9450 Y3.1000
G01 X22.9450 Y3.0501
G01 X22.1463 Y3.0500
G01 X22.1243 Y3.0489
G01 X22.1169 Y3.0482
G01 X22.0951 Y3.0450
G01 X22.0879 Y3.0435
G01 X22.0664 Y3.0382
G01 X22.0594 Y3.0360
G01 X22.0386 Y3.0286
G01 X22.0318 Y3.0258
G01 X22.0118 Y3.0163
G01 X22.0053 Y3.0129
G01 X21.9864 Y3.0015
G01 X21.9803 Y2.9974
G01 X21.9625 Y2.9843
G01 X21.9568 Y2.9796
G01 X21.9378 Y2.9622
G01 X20.9257 Y1.9501
G01 X20.6750 Y1.9501
G01 X20.6750 Y2.0000
G01 X20.6746 Y2.0074
G01 X20.6736 Y2.0146
G01 X20.6718 Y2.0218
G01 X20.6693 Y2.0287
G01 X20.6661 Y2.0354
G01 X20.6624 Y2.0417
G01 X20.6580 Y2.0476
G01 X20.6530 Y2.0530
G01 X20.6476 Y2.0580
G01 X20.6417 Y2.0624
G01 X20.6354 Y2.0661
G01 X20.6287 Y2.0693
G01 X20.6218 Y2.0718
G01 X20.6146 Y2.0736
G01 X20.6074 Y2.0746
G01 X20.6000 Y2.0750
G01 X19.9000 Y2.0750
G01 X19.8926 Y2.0746
G01 X19.8854 Y2.0736
G01 X19.8782 Y2.0718
G01 X19.8713 Y2.0693
G01 X19.8646 Y2.0661
G01 X19.8583 Y2.0624
G01 X19.8524 Y2.0580
G01 X19.8470 Y2.0530
G01 X19.8420 Y2.0476
G01 X19.8376 Y2.0417
G01 X19.8339 Y2.0354
G01 X19.8307 Y2.0287
G01 X19.8282 Y2.0218
G01 X19.8264 Y2.0146
G01 X19.8254 Y2.0074
G01 X19.8250 Y2.0000
G01 X19.8250 Y1.3000
G01 X19.8254 Y1.2926
G01 X19.8264 Y1.2854
G01 X19.8282 Y1.2782
G01 X19.8307 Y1.2713
G01 X19.8339 Y1.2646
G01 X19.8376 Y1.2583
G01 X19.8420 Y1.2524
G01 X19.8470 Y1.2470
G01 X19.8524 Y1.2420
G01 X19.8583 Y1.2376
G01 X19.8646 Y1.2339
G01 X19.8713 Y1.2307
G01 X19.8782 Y1.2282
G01 X19.8854 Y1.2264
G01 X19.8926 Y1.2254
G01 X19.9000 Y1.2250
G00 Z2.0000
G00 X22.8103 Y0.9261
G01 F60.00
G01 Z-0.0380
G01 F120.00
G01 X23.0450 Y0.9261
G01 X23.0450 Y1.2250
G01 X23.0200 Y1.2250
G01 X23.0126 Y1.2254
G01 X23.0054 Y1.2264
G01 X22.9982 Y1.2282
G01 X22.9913 Y1.2307
G01 X22.9846 Y1.2339
G01 X22.9783 Y1.2376
G01 X22.9724 Y1.2420
G01 X22.9670 Y1.2470
G01 X22.9620 Y1.2524
G01 X22.9576 Y1.2583
G01 X22.9539 Y1.2646
G01 X22.9507 Y1.2713
G01 X22.9482 Y1.2782
G01 X22.9464 Y1.2854
G01 X22.9454 Y1.2926
G01 X22.9450 Y1.3000
G01 X22.9450 Y1.3250
G01 X22.5950 Y1.3250
G01 X22.5950 Y1.2562
G01 X22.6000 Y1.2100
G01 X22.6431 Y1.0942
G01 X22.7164 Y0.9964
G01 X22.8103 Y0.9261
G00 Z2.0000
G00 X24.8500 Y1.2250
G01 F60.00
G01 Z-0.0380
G01 F120.00
G01 X25.5500 Y1.2250
G01 X25.5574 Y1.2254
G01 X25.5646 Y1.2264
G01 X25.5718 Y1.2282
G01 X25.5787 Y1.2307
G01 X25.5854 Y1.2339
G01 X25.5917 Y1.2376
G01 X25.5976 Y1.2420
G01 X25.6030 Y1.2470
G01 X25.6080 Y1.2524
G01 X25.6124 Y1.2583
G01 X25.6161 Y1.2646
G01 X25.6193 Y1.2713
G01 X25.6218 Y1.2782
G01 X25.6236 Y1.2854
G01 X25.6246 Y1.2926
G01 X25.6250 Y1.3000
G01 X25.6250 Y1.3499
G01 X26.1000 Y1.3499
G01 X26.1257 Y1.3511
G01 X26.1331 Y1.3518
G01 X26.1549 Y1.3550
G01 X26.1621 Y1.3565
G01 X26.1836 Y1.3618
G01 X26.1906 Y1.3640
G01 X26.2114 Y1.3714
G01 X26.2182 Y1.3742
G01 X26.2382 Y1.3837
G01 X26.2447 Y1.3871
G01 X26.2636 Y1.3985
G01 X26.2697 Y1.4026
G01 X26.2875 Y1.4157
G01 X26.2932 Y1.4204
G01 X26.3122 Y1.4378
G01 X27.3243 Y2.4499
G01 X27.9450 Y2.4499
G01 X27.9450 Y2.4000
G01 X27.9454 Y2.3926
G01 X27.9464 Y2.3854
G01 X27.9482 Y2.3782
G01 X27.9507 Y2.3713
G01 X27.9539 Y2.3646
G01 X27.9576 Y2.3583
G01 X27.9620 Y2.3524
G01 X27.9670 Y2.3470
G01 X27.9724 Y2.3420
G01 X27.9783 Y2.3376
G01 X27.9846 Y2.3339
G01 X27.9913 Y2.3307
G01 X27.9982 Y2.3282
G01 X28.0054 Y2.3264
G01 X28.0126 Y2.3254
G01 X28.0200 Y2.3250
G01 X28.7200 Y2.3250
G01 X28.7274 Y2.3254
G01 X28.7346 Y2.3264
G01 X28.7418 Y2.3282
G01 X28.7487 Y2.3307
G01 X28.7554 Y2.3339
G01 X28.7617 Y2.3376
G01 X28.7676 Y2.3420
G01 X28.7730 Y2.3470
G01 X28.7780 Y2.3524
G01 X28.7824 Y2.3583
G01 X28.7861 Y2.3646
G01 X28.7893 Y2.3713
G01 X28.7918 Y2.3782
G01 X28.7936 Y2.3854
G01 X28.7946 Y2.3926
G01 X28.7950 Y2.4000
G01 X28.7950 Y3.1000
G01 X28.7946 Y3.1074
G01 X28.7936 Y3.1146
G01 X28.7918 Y3.1218
G01 X28.7893 Y3.1287
G01 X28.7861 Y3.1354
G01 X28.7824 Y3.1417
G01 X28.7780 Y3.1476
G01 X28.7730 Y3.1530
G01 X28.7676 Y3.1580
G01 X28.7617 Y3.1624
G01 X28.7554 Y3.1661
G01 X28.7487 Y3.1693
G01 X28.7418 Y3.1718
G01 X28.7346 Y3.1736
G01 X28.7274 Y3.1746
G01 X28.7200 Y3.1750
G01 X28.0200 Y3.1750
G01 X28.0126 Y3.1746
G01 X28.0054 Y3.1736
G01 X27.9982 Y3.1718
G01 X27.9913 Y3.1693
G01 X27.9846 Y3.1661
G01 X27.9783 Y3.1624
G01 X27.9724 Y3.1580
G01 X27.9670 Y3.1530
G01 X27.9620 Y3.1476
G01 X27.9576 Y3.1417
G01 X27.9539 Y3.1354
G01 X27.9507 Y3.1287
G01 X27.9482 Y3.1218
G01 X27.9464 Y3.1146
G01 X27.9454 Y3.1074
G01 X27.9450 Y3.1000
G01 X27.9450 Y3.0501
G01 X27.1963 Y3.0500
G01 X27.1743 Y3.0489
G01 X27.1669 Y3.0482
G01 X27.1451 Y3.0450
G01 X27.1379 Y3.0435
G01 X27.1164 Y3.0382
G01 X27.1094 Y3.0360
G01 X27.0886 Y3.0286
G01 X27.0818 Y3.0258
G01 X27.0618 Y3.0163
G01 X27.0553 Y3.0129
G01 X27.0364 Y3.0015
G01 X27.0303 Y2.9974
G01 X27.0125 Y2.9843
G01 X27.0068 Y2.9796
G01 X26.9878 Y2.9622
G01 X25.9757 Y1.9501
G01 X25.6250 Y1.9501
G01 X25.6250 Y2.0000
G01 X25.6246 Y2.0074
G01 X25.6236 Y2.0146
G01 X25.6218 Y2.0218
G01 X25.6193 Y2.0287
G01 X25.6161 Y2.0354
G01 X25.6124 Y2.0417
G01 X25.6080 Y2.0476
G01 X25.6030 Y2.0530
G01 X25.5976 Y2.0580
G01 X25.5917 Y2.0624
G01 X25.5854 Y2.0661
G01 X25.5787 Y2.0693
G01 X25.5718 Y2.0718
G01 X25.5646 Y2.0736
G01 X25.5574 Y2.0746
G01 X25.5500 Y2.0750
G01 X24.8500 Y2.0750
G01 X24.8426 Y2.0746
G01 X24.8354 Y2.0736
G01 X24.8282 Y2.0718
G01 X24.8213 Y2.0693
G01 X24.8146 Y2.0661
G01 X24.8083 Y2.0624
G01 X24.8024 Y2.0580
G01 X24.7970 Y2.0530
G01 X24.7920 Y2.0476
G01 X24.7876 Y2.0417
G01 X24.7839 Y2.0354
G01 X24.7807 Y2.0287
G01 X24.7782 Y2.0218
G01 X24.7764 Y2.0146
G01 X24.7754 Y2.0074
G01 X24.7750 Y2.0000
G01 X24.7750 Y1.3000
G01 X24.7754 Y1.2926
G01 X24.7764 Y1.2854
G01 X24.7782 Y1.2782
G01 X24.7807 Y1.2713
G01 X24.7839 Y1.2646
G01 X24.7876 Y1.2583
G01 X24.7920 Y1.2524
G01 X24.7970 Y1.2470
G01 X24.8024 Y1.2420
G01 X24.8083 Y1.2376
G01 X24.8146 Y1.2339
G01 X24.8213 Y1.2307
G01 X24.8282 Y1.2282
G01 X24.8354 Y1.2264
G01 X24.8426 Y1.2254
G01 X24.8500 Y1.2250
G00 Z2.0000
G00 X27.8103 Y0.9261
G01 F60.00
G01 Z-0.0380
G01 F120.00
G01 X28.0450 Y0.9261
G01 X28.0450 Y1.2250
G01 X28.0200 Y1.2250
G01 X28.0126 Y1.2254
G01 X28.0054 Y1.2264
G01 X27.9982 Y1.2282
G01 X27.9913 Y1.2307
G01 X27.9846 Y1.2339
G01 X27.9783 Y1.2376
G01 X27.9724 Y1.2420
G01 X27.9670 Y1.2470
G01 X27.9620 Y1.2524
G01 X27.9576 Y1.2583
G01 X27.9539 Y1.2646
G01 X27.9507 Y1.2713
G01 X27.9482 Y1.2782
G01 X27.9464 Y1.2854
G01 X27.9454 Y1.2926
G01 X27.9450 Y1.3000
G01 X27.9450 Y1.3250
G01 X27.5950 Y1.3250
G01 X27.5950 Y1.2562
G01 X27.6000 Y1.2100
G01 X27.6431 Y1.0942
G01 X27.7164 Y0.9964
G01 X27.8103 Y0.9261
G00 Z2.0000
G00 X29.8500 Y1.2250
G01 F60.00
G01 Z-0.0380
G01 F120.00
G01 X30.5500 Y1.2250
G01 X30.5574 Y1.2254
G01 X30.5646 Y1.2264
G01 X30.5718 Y1.2282
G01 X30.5787 Y1.2307
G01 X30.5854 Y1.2339
G01 X30.5917 Y1.2376
G01 X30.5976 Y1.2420
G01 X30.6030 Y1.2470
G01 X30.6080 Y1.2524
G01 X30.6124 Y1.2583
G01 X30.6161 Y1.2646
G01 X30.6193 Y1.2713
G01 X30.6218 Y1.2782
G01 X30.6236 Y1.2854
G01 X30.6246 Y1.2926
G01 X30.6250 Y1.3000
G01 X30.6250 Y1.3499
G01 X30.7000 Y1.3499
G01 X30.7257 Y1.3511
G01 X30.7331 Y1.3518
G01 X30.7549 Y1.3550
G01 X30.7621 Y1.3565
G01 X30.7836 Y1.3618
G01 X30.7906 Y1.3640
G01 X30.8114 Y1.3714
G01 X30.8182 Y1.3742
G01 X30.8382 Y1.3837
G01 X30.8447 Y1.3871
G01 X30.8636 Y1.3985
G01 X30.8697 Y1.4026
G01 X30.8875 Y1.4157
G01 X30.8932 Y1.4204
G01 X30.9095 Y1.4353
G01 X31.9243 Y2.4499
G01 X32.7950 Y2.4499
G01 X32.7950 Y2.4000
G01 X32.7954 Y2.3926
G01 X32.7964 Y2.3854
G01 X32.7982 Y2.3782
G01 X32.8007 Y2.3713
G01 X32.8039 Y2.3646
G01 X32.8076 Y2.3583
G01 X32.8120 Y2.3524
G01 X32.8170 Y2.3470
G01 X32.8224 Y2.3420
G01 X32.8283 Y2.3376
G01 X32.8346 Y2.3339
G01 X32.8413 Y2.3307
G01 X32.8482 Y2.3282
G01 X32.8554 Y2.3264
G01 X32.8626 Y2.3254
G01 X32.8700 Y2.3250
G01 X33.5700 Y2.3250
G01 X33.5774 Y2.3254
G01 X33.5846 Y2.3264
G01 X33.5918 Y2.3282
G01 X33.5987 Y2.3307
G01 X33.6054 Y2.3339
G01 X33.6117 Y2.3376
G01 X33.6176 Y2.3420
G01 X33.6230 Y2.3470
G01 X33.6280 Y2.3524
G01 X33.6324 Y2.3583
G01 X33.6361 Y2.3646
G01 X33.6393 Y2.3713
G01 X33.6418 Y2.3782
G01 X33.6436 Y2.3854
G01 X33.6446 Y2.3926
G01 X33.6450 Y2.4000
G01 X33.6450 Y3.1000
G01 X33.6446 Y3.1074
G01 X33.6436 Y3.1146
G01 X33.6418 Y3.1218
G01 X33.6393 Y3.1287
G01 X33.6361 Y3.1354
G01 X33.6324 Y3.1417
G01 X33.6280 Y3.1476
G01 X33.6230 Y3.1530
G01 X33.6176 Y3.1580
G01 X33.6117 Y3.1624
G01 X33.6054 Y3.1661
G01 X33.5987 Y3.1693
G01 X33.5918 Y3.1718
G01 X33.5846 Y3.1736
G01 X33.5774 Y3.1746
G01 X33.5700 Y3.1750
G01 X32.8700 Y3.1750
G01 X32.8626 Y3.1746
G01 X32.8554 Y3.1736
G01 X32.8482 Y3.1718
G01 X32.8413 Y3.1693
G01 X32.8346 Y3.1661
G01 X32.8283 Y3.1624
G01 X32.8224 Y3.1580
G01 X32.8170 Y3.1530
G01 X32.8120 Y3.1476
G01 X32.8076 Y3.1417
G01 X32.8039 Y3.1354
G01 X32.8007 Y3.1287
G01 X32.7982 Y3.1218
G01 X32.7964 Y3.1146
G01 X32.7954 Y3.1074
G01 X32.7950 Y3.1000
G01 X32.7950 Y3.0501
G01 X31.7963 Y3.0500
G01 X31.7743 Y3.0489
G01 X31.7669 Y3.0482
G01 X31.7451 Y3.0450
G01 X31.7379 Y3.0435
G01 X31.7164 Y3.0382
G01 X31.7094 Y3.0360
G01 X31.6886 Y3.0286
G01 X31.6818 Y3.0258
G01 X31.6618 Y3.0163
G01 X31.6553 Y3.0129
G01 X31.6364 Y3.0015
G01 X31.6303 Y2.9974
G01 X31.6125 Y2.9843
G01 X31.6068 Y2.9796
G01 X31.5878 Y2.9622
G01 X30.6250 Y1.9994
G01 X30.6246 Y2.0074
G01 X30.6236 Y2.0146
G01 X30.6218 Y2.0218
G01 X30.6193 Y2.0287
G01 X30.6161 Y2.0354
G01 X30.6124 Y2.0417
G01 X30.6080 Y2.0476
G01 X30.6030 Y2.0530
G01 X30.5976 Y2.0580
G01 X30.5917 Y2.0624
G01 X30.5854 Y2.0661
G01 X30.5787 Y2.0693
G01 X30.5718 Y2.0718
G01 X30.5646 Y2.0736
G01 X30.5574 Y2.0746
G01 X30.5500 Y2.0750
G01 X29.8500 Y2.0750
G01 X29.8426 Y2.0746
G01 X29.8354 Y2.0736
G01 X29.8282 Y2.0718
G01 X29.8213 Y2.0693
G01 X29.8146 Y2.0661
G01 X29.8083 Y2.0624
G01 X29.8024 Y2.0580
G01 X29.7970 Y2.0530
G01 X29.7920 Y2.0476
G01 X29.7876 Y2.0417
G01 X29.7839 Y2.0354
G01 X29.7807 Y2.0287
G01 X29.7782 Y2.0218
G01 X29.7764 Y2.0146
G01 X29.7754 Y2.0074
G01 X29.7750 Y2.0000
G01 X29.7750 Y1.3000
G01 X29.7754 Y1.2926
G01 X29.7764 Y1.2854
G01 X29.7782 Y1.2782
G01 X29.7807 Y1.2713
G01 X29.7839 Y1.2646
G01 X29.7876 Y1.2583
G01 X29.7920 Y1.2524
G01 X29.7970 Y1.2470
G01 X29.8024 Y1.2420
G01 X29.8083 Y1.2376
G01 X29.8146 Y1.2339
G01 X29.8213 Y1.2307
G01 X29.8282 Y1.2282
G01 X29.8354 Y1.2264
G01 X29.8426 Y1.2254
G01 X29.8500 Y1.2250
G00 Z2.0000
G00 X32.6603 Y0.9261
G01 F60.00
G01 Z-0.0380
G01 F120.00
G01 X32.8950 Y0.9261
G01 X32.8950 Y1.2250
G01 X32.8700 Y1.2250
G01 X32.8626 Y1.2254
G01 X32.8554 Y1.2264
G01 X32.8482 Y1.2282
G01 X32.8413 Y1.2307
G01 X32.8346 Y1.2339
G01 X32.8283 Y1.2376
G01 X32.8224 Y1.2420
G01 X32.8170 Y1.2470
G01 X32.8120 Y1.2524
G01 X32.8076 Y1.2583
G01 X32.8039 Y1.2646
G01 X32.8007 Y1.2713
G01 X32.7982 Y1.2782
G01 X32.7964 Y1.2854
G01 X32.7954 Y1.2926
G01 X32.7950 Y1.3000
G01 X32.7950 Y1.3250
G01 X32.4450 Y1.3250
G01 X32.4450 Y1.2562
G01 X32.4500 Y1.2100
G01 X32.4931 Y1.0942
G01 X32.5664 Y0.9964
G01 X32.6603 Y0.9261
G00 Z2.0000
G00 X34.7000 Y1.2250
G01 F60.00
G01 Z-0.0380
G01 F120.00
G01 X35.4000 Y1.2250
G01 X35.4074 Y1.2254
G01 X35.4146 Y1.2264
G01 X35.4218 Y1.2282
G01 X35.4287 Y1.2307
G01 X35.4354 Y1.2339
G01 X35.4417 Y1.2376
G01 X35.4476 Y1.2420
G01 X35.4530 Y1.2470
G01 X35.4580 Y1.2524
G01 X35.4624 Y1.2583
G01 X35.4661 Y1.2646
G01 X35.4693 Y1.2713
G01 X35.4718 Y1.2782
G01 X35.4736 Y1.2854
G01 X35.4746 Y1.2926
G01 X35.4750 Y1.3000
G01 X35.4750 Y1.3499
G01 X35.6500 Y1.3499
G01 X35.6757 Y1.3511
G01 X35.6831 Y1.3518
G01 X35.7049 Y1.3550
G01 X35.7121 Y1.3565
G01 X35.7336 Y1.3618
G01 X35.7406 Y1.3640
G01 X35.7614 Y1.3714
G01 X35.7682 Y1.3742
G01 X35.7882 Y1.3837
G01 X35.7947 Y1.3871
G01 X35.8136 Y1.3985
G01 X35.8197 Y1.4026
G01 X35.8375 Y1.4157
G01 X35.8432 Y1.4204
G01 X35.8622 Y1.4378
G01 X36.8743 Y2.4499
G01 X37.4950 Y2.4499
G01 X37.4950 Y2.4000
G01 X37.4954 Y2.3926
G01 X37.4964 Y2.3854
G01 X37.4982 Y2.3782
G01 X37.5007 Y2.3713
G01 X37.5039 Y2.3646
G01 X37.5076 Y2.3583
G01 X37.5120 Y2.3524
G01 X37.5170 Y2.3470
G01 X37.5224 Y2.3420
G01 X37.5283 Y2.3376
G01 X37.5346 Y2.3339
G01 X37.5413 Y2.3307
G01 X37.5482 Y2.3282
G01 X37.5554 Y2.3264
G01 X37.5626 Y2.3254
G01 X37.5700 Y2.3250
G01 X38.2700 Y2.3250
G01 X38.2774 Y2.3254
G01 X38.2846 Y2.3264
G01 X38.2918 Y2.3282
G01 X38.2987 Y2.3307
G01 X38.3054 Y2.3339
G01 X38.3117 Y2.3376
G01 X38.3176 Y2.3420
G01 X38.3230 Y2.3470
G01 X38.3280 Y2.3524
G01 X38.3324 Y2.3583
G01 X38.3361 Y2.3646
G01 X38.3393 Y2.3713
G01 X38.3418 Y2.3782
G01 X38.3436 Y2.3854
G01 X38.3446 Y2.3926
G01 X38.3450 Y2.4000
G01 X38.3450 Y3.1000
G01 X38.3446 Y3.1074
G01 X38.3436 Y3.1146
G01 X38.3418 Y3.1218
G01 X38.3393 Y3.1287
G01 X38.3361 Y3.1354
G01 X38.3324 Y3.1417
G01 X38.3280 Y3.1476
G01 X38.3230 Y3.1530
G01 X38.3176 Y3.1580
G01 X38.3117 Y3.1624
G01 X38.3054 Y3.1661
G01 X38.2987 Y3.1693
G01 X38.2918 Y3.1718
G01 X38.2846 Y3.1736
G01 X38.2774 Y3.1746
G01 X38.2700 Y3.1750
G01 X37.5700 Y3.1750
G01 X37.5626 Y3.1746
G01 X37.5554 Y3.1736
G01 X37.5482 Y3.1718
G01 X37.5413 Y3.1693
G01 X37.5346 Y3.1661
G01 X37.5283 Y3.1624
G01 X37.5224 Y3.1580
G01 X37.5170 Y3.1530
G01 X37.5120 Y3.1476
G01 X37.5076 Y3.1417
G01 X37.5039 Y3.1354
G01 X37.5007 Y3.1287
G01 X37.4982 Y3.1218
G01 X37.4964 Y3.1146
G01 X37.4954 Y3.1074
G01 X37.4950 Y3.1000
G01 X37.4950 Y3.0501
G01 X36.7500 Y3.0501
G01 X36.7243 Y3.0489
G01 X36.7169 Y3.0482
G01 X36.6951 Y3.0450
G01 X36.6879 Y3.0435
G01 X36.6664 Y3.0382
G01 X36.6594 Y3.0360
G01 X36.6386 Y3.0286
G01 X36.6318 Y3.0258
G01 X36.6118 Y3.0163
G01 X36.6053 Y3.0129
G01 X36.5864 Y3.0015
G01 X36.5803 Y2.9974
G01 X36.5625 Y2.9843
G01 X36.5568 Y2.9796
G01 X36.5378 Y2.9622
G01 X35.5257 Y1.9501
G01 X35.4750 Y1.9501
G01 X35.4750 Y2.0000
G01 X35.4746 Y2.0074
G01 X35.4736 Y2.0146
G01 X35.4718 Y2.0218
G01 X35.4693 Y2.0287
G01 X35.4661 Y2.0354
G01 X35.4624 Y2.0417
G01 X35.4580 Y2.0476
G01 X35.4530 Y2.0530
G01 X35.4476 Y2.0580
G01 X35.4417 Y2.0624
G01 X35.4354 Y2.0661
G01 X35.4287 Y2.0693
G01 X35.4218 Y2.0718
G01 X35.4146 Y2.0736
G01 X35.4074 Y2.0746
G01 X35.4000 Y2.0750
G01 X34.7000 Y2.0750
G01 X34.6926 Y2.0746
G01 X34.6854 Y2.0736
G01 X34.6782 Y2.0718
G01 X34.6713 Y2.0693
G01 X34.6646 Y2.0661
G01 X34.6583 Y2.0624
G01 X34.6524 Y2.0580
G01 X34.6470 Y2.0530
G01 X34.6420 Y2.0476
G01 X34.6376 Y2.0417
G01 X34.6339 Y2.0354
G01 X34.6307 Y2.0287
G01 X34.6282 Y2.0218
G01 X34.6264 Y2.0146
G01 X34.6254 Y2.0074
G01 X34.6250 Y2.0000
G01 X34.6250 Y1.3000
G01 X34.6254 Y1.2926
G01 X34.6264 Y1.2854
G01 X34.6282 Y1.2782
G01 X34.6307 Y1.2713
G01 X34.6339 Y1.2646
G01 X34.6376 Y1.2583
G01 X34.6420 Y1.2524
G01 X34.6470 Y1.2470
G01 X34.6524 Y1.2420
G01 X34.6583 Y1.2376
G01 X34.6646 Y1.2339
G01 X34.6713 Y1.2307
G01 X34.6782 Y1.2282
G01 X34.6854 Y1.2264
G01 X34.6926 Y1.2254
G01 X34.7000 Y1.2250
G00 Z2.0000
G00 X37.3603 Y0.9261
G01 F60.00
G01 Z-0.0380
G01 F120.00
G01 X37.5950 Y0.9261
G01 X37.5950 Y1.2250
G01 X37.5700 Y1.2250
G01 X37.5626 Y1.2254
G01 X37.5554 Y1.2264
G01 X37.5482 Y1.2282
G01 X37.5413 Y1.2307
G01 X37.5346 Y1.2339
G01 X37.5283 Y1.2376
G01 X37.5224 Y1.2420
G01 X37.5170 Y1.2470
G01 X37.5120 Y1.2524
G01 X37.5076 Y1.2583
G01 X37.5039 Y1.2646
G01 X37.5007 Y1.2713
G01 X37.4982 Y1.2782
G01 X37.4964 Y1.2854
G01 X37.4954 Y1.2926
G01 X37.4950 Y1.3000
G01 X37.4950 Y1.3250
G01 X37.1450 Y1.3250
G01 X37.1450 Y1.2562
G01 X37.1500 Y1.2100
G01 X37.1931 Y1.0942
G01 X37.2664 Y0.9964
G01 X37.3603 Y0.9261
G00 Z2.0000
G00 X39.4000 Y1.2250
G01 F60.00
G01 Z-0.0380
G01 F120.00
G01 X40.1000 Y1.2250
G01 X40.1074 Y1.2254
G01 X40.1146 Y1.2264
G01 X40.1218 Y1.2282
G01 X40.1287 Y1.2307
G01 X40.1354 Y1.2339
G01 X40.1417 Y1.2376
G01 X40.1476 Y1.2420
G01 X40.1530 Y1.2470
G01 X40.1580 Y1.2524
G01 X40.1624 Y1.2583
G01 X40.1661 Y1.2646
G01 X40.1706 Y1.2749
G01 X41.8037 Y1.2749
G01 X41.8331 Y1.2764
G01 X41.8404 Y1.2771
G01 X41.8696 Y1.2814
G01 X41.8768 Y1.2829
G01 X41.9054 Y1.2900
G01 X41.9124 Y1.2922
G01 X41.9401 Y1.3021
G01 X41.9469 Y1.3049
G01 X41.9736 Y1.3175
G01 X41.9800 Y1.3210
G01 X42.0053 Y1.3361
G01 X42.0114 Y1.3402
G01 X42.0351 Y1.3577
G01 X42.0408 Y1.3624
G01 X42.0626 Y1.3822
G01 X42.4115 Y1.7310
G01 X42.4408 Y1.7380
G01 X42.4478 Y1.7401
G01 X42.4709 Y1.7484
G01 X42.4777 Y1.7512
G01 X42.4999 Y1.7617
G01 X42.5064 Y1.7652
G01 X42.5275 Y1.7778
G01 X42.5336 Y1.7819
G01 X42.5533 Y1.7965
G01 X42.5590 Y1.8012
G01 X42.5771 Y1.8177
G01 X42.5823 Y1.8229
G01 X42.5988 Y1.8410
G01 X42.6035 Y1.8467
G01 X42.6181 Y1.8664
G01 X42.6222 Y1.8725
G01 X42.6348 Y1.8936
G01 X42.6383 Y1.9001
G01 X42.6488 Y1.9223
G01 X42.6516 Y1.9291
G01 X42.6599 Y1.9522
G01 X42.6620 Y1.9592
G01 X42.6679 Y1.9830
G01 X42.6694 Y1.9902
G01 X42.6730 Y2.0145
G01 X42.6737 Y2.0218
G01 X42.6749 Y2.0463
G01 X42.6750 Y2.7500
G01 X42.6737 Y2.7782
G01 X42.6730 Y2.7855
G01 X42.6694 Y2.8098
G01 X42.6679 Y2.8170
G01 X42.6620 Y2.8408
G01 X42.6599 Y2.8478
G01 X42.6516 Y2.8709
G01 X42.6488 Y2.8777
G01 X42.6383 Y2.8999
G01 X42.6348 Y2.9064
G01 X42.6222 Y2.9275
G01 X42.6181 Y2.9336
G01 X42.6035 Y2.9533
G01 X42.5988 Y2.9590
G01 X42.5823 Y2.9771
G01 X42.5771 Y2.9823
G01 X42.5590 Y2.9988
G01 X42.5533 Y3.0035
G01 X42.5336 Y3.0181
G01 X42.5275 Y3.0222
G01 X42.5064 Y3.0348
G01 X42.4999 Y3.0383
G01 X42.4777 Y3.0488
G01 X42.4709 Y3.0516
G01 X42.4478 Y3.0599
G01 X42.4408 Y3.0620
G01 X42.4170 Y3.0679
G01 X42.4098 Y3.0694
G01 X42.3855 Y3.0730
G01 X42.3782 Y3.0737
G01 X42.3500 Y3.0750
G01 X41.4463 Y3.0749
G01 X41.4218 Y3.0737
G01 X41.4145 Y3.0730
G01 X41.3902 Y3.0694
G01 X41.3830 Y3.0679
G01 X41.3592 Y3.0620
G01 X41.3522 Y3.0599
G01 X41.3291 Y3.0516
G01 X41.3223 Y3.0488
G01 X41.3001 Y3.0383
G01 X41.2936 Y3.0348
G01 X41.2725 Y3.0222
G01 X41.2664 Y3.0181
G01 X41.2467 Y3.0035
G01 X41.2410 Y2.9988
G01 X41.2229 Y2.9823
G01 X41.2177 Y2.9771
G01 X41.2012 Y2.9590
G01 X41.1965 Y2.9533
G01 X41.1819 Y2.9336
G01 X41.1778 Y2.9275
G01 X41.1652 Y2.9064
G01 X41.1617 Y2.8999
G01 X41.1512 Y2.8777
G01 X41.1484 Y2.8709
G01 X41.1401 Y2.8478
G01 X41.1380 Y2.8408
G01 X41.1321 Y2.8170
G01 X41.1306 Y2.8098
G01 X41.1270 Y2.7855
G01 X41.1263 Y2.7782
G01 X41.1250 Y2.7500
G01 X41.1250 Y2.0500
G01 X41.1261 Y2.0251
G01 X40.1706 Y2.0252
G01 X40.1661 Y2.0354
G01 X40.1624 Y2.0417
G01 X40.1580 Y2.0476
G01 X40.1530 Y2.0530
G01 X40.1476 Y2.0580
G01 X40.1417 Y2.0624
G01 X40.1354 Y2.0661
G01 X40.1287 Y2.0693
G01 X40.1218 Y2.0718
G01 X40.1146 Y2.0736
G01 X40.1074 Y2.0746
G01 X40.1000 Y2.0750
G01 X39.4000 Y2.0750
G01 X39.3926 Y2.0746
G01 X39.3854 Y2.0736
G01 X39.3782 Y2.0718
G01 X39.3713 Y2.0693
G01 X39.3646 Y2.0661
G01 X39.3583 Y2.0624
G01 X39.3524 Y2.0580
G01 X39.3470 Y2.0530
G01 X39.3420 Y2.0476
G01 X39.3376 Y2.0417
G01 X39.3339 Y2.0354
G01 X39.3307 Y2.0287
G01 X39.3282 Y2.0218
G01 X39.3264 Y2.0146
G01 X39.3254 Y2.0074
G01 X39.3250 Y2.0000
G01 X39.3250 Y1.3000
G01 X39.3254 Y1.2926
G01 X39.3264 Y1.2854
G01 X39.3282 Y1.2782
G01 X39.3307 Y1.2713
G01 X39.3339 Y1.2646
G01 X39.3376 Y1.2583
G01 X39.3420 Y1.2524
G01 X39.3470 Y1.2470
G01 X39.3524 Y1.2420
G01 X39.3583 Y1.2376
G01 X39.3646 Y1.2339
G01 X39.3713 Y1.2307
G01 X39.3782 Y1.2282
G01 X39.3854 Y1.2264
G01 X39.3926 Y1.2254
G01 X39.4000 Y1.2250
G00 Z2.0000
G00 X46.4250 Y3.8750
G01 F60.00
G01 Z-0.0380
G01 F120.00
G01 X46.0750 Y3.8750
G01 X46.0750 Y3.5538
G01 X46.0843 Y3.4631
G01 X46.1341 Y3.3128
G01 X46.2169 Y3.1785
G01 X46.3285 Y3.0669
G01 X46.4628 Y2.9841
G01 X46.6131 Y2.9343
G01 X46.7038 Y2.9250
G01 X47.1750 Y2.9250
G01 X47.1750 Y3.2750
G01 X46.7500 Y3.2750
G01 X46.7218 Y3.2763
G01 X46.7145 Y3.2770
G01 X46.6902 Y3.2806
G01 X46.6830 Y3.2821
G01 X46.6592 Y3.2880
G01 X46.6522 Y3.2901
G01 X46.6291 Y3.2984
G01 X46.6223 Y3.3012
G01 X46.6001 Y3.3117
G01 X46.5936 Y3.3152
G01 X46.5725 Y3.3278
G01 X46.5664 Y3.3319
G01 X46.5467 Y3.3465
G01 X46.5410 Y3.3512
G01 X46.5229 Y3.3677
G01 X46.5177 Y3.3729
G01 X46.5012 Y3.3910
G01 X46.4965 Y3.3967
G01 X46.4819 Y3.4164
G01 X46.4778 Y3.4225
G01 X46.4652 Y3.4436
G01 X46.4617 Y3.4501
G01 X46.4512 Y3.4723
G01 X46.4484 Y3.4791
G01 X46.4401 Y3.5022
G01 X46.4380 Y3.5092
G01 X46.4321 Y3.5330
G01 X46.4306 Y3.5402
G01 X46.4270 Y3.5645
G01 X46.4263 Y3.5718
G01 X46.4250 Y3.6000
G01 X46.4250 Y3.8750
G00 Z2.0000
G00 X47.8250 Y3.2750
G01 F60.00
G01 Z-0.0380
G01 F120.00
G01 X47.8250 Y2.9250
G01 X48.2962 Y2.9250
G01 X48.3869 Y2.9343
G01 X48.5372 Y2.9841
G01 X48.6715 Y3.0669
G01 X48.7831 Y3.1785
G01 X48.8659 Y3.3128
G01 X48.9157 Y3.4631
G01 X48.9250 Y3.5538
G01 X48.9250 Y3.8750
G01 X48.5750 Y3.8750
G01 X48.5749 Y3.5963
G01 X48.5737 Y3.5718
G01 X48.5730 Y3.5645
G01 X48.5694 Y3.5402
G01 X48.5679 Y3.5330
G01 X48.5620 Y3.5092
G01 X48.5599 Y3.5022
G01 X48.5516 Y3.4791
G01 X48.5488 Y3.4723
G01 X48.5383 Y3.4501
G01 X48.5348 Y3.4436
G01 X48.5222 Y3.4225
G01 X48.5181 Y3.4164
G01 X48.5035 Y3.3967
G01 X48.4988 Y3.3910
G01 X48.4823 Y3.3729
G01 X48.4771 Y3.3677
G01 X48.4590 Y3.3512
G01 X48.4533 Y3.3465
G01 X48.4336 Y3.3319
G01 X48.4275 Y3.3278
G01 X48.4064 Y3.3152
G01 X48.3999 Y3.3117
G01 X48.3777 Y3.3012
G01 X48.3709 Y3.2984
G01 X48.3478 Y3.2901
G01 X48.3408 Y3.2880
G01 X48.3170 Y3.2821
G01 X48.3098 Y3.2806
G01 X48.2855 Y3.2770
G01 X48.2782 Y3.2763
G01 X48.2500 Y3.2750
G01 X47.8250 Y3.2750
G00 Z2.0000
G00 X47.3500 Y5.7750
G01 F60.00
G01 Z-0.0380
G01 F120.00
G01 X47.6537 Y5.7751
G01 X47.7370 Y5.7792
G01 X47.7443 Y5.7799
G01 X47.8268 Y5.7921
G01 X47.8341 Y5.7936
G01 X47.9150 Y5.8138
G01 X47.9220 Y5.8160
G01 X48.0005 Y5.8441
G01 X48.0073 Y5.8469
G01 X48.0828 Y5.8826
G01 X48.0892 Y5.8860
G01 X48.1608 Y5.9289
G01 X48.1669 Y5.9330
G01 X48.2339 Y5.9827
G01 X48.2396 Y5.9874
G01 X48.3014 Y6.0434
G01 X48.3066 Y6.0486
G01 X48.3626 Y6.1104
G01 X48.3673 Y6.1161
G01 X48.4170 Y6.1831
G01 X48.4211 Y6.1892
G01 X48.4640 Y6.2608
G01 X48.4674 Y6.2672
G01 X48.5031 Y6.3427
G01 X48.5059 Y6.3495
G01 X48.5340 Y6.4280
G01 X48.5362 Y6.4350
G01 X48.5564 Y6.5159
G01 X48.5579 Y6.5232
G01 X48.5701 Y6.6057
G01 X48.5708 Y6.6130
G01 X48.5749 Y6.6963
G01 X48.5749 Y6.7037
G01 X48.5708 Y6.7870
G01 X48.5701 Y6.7943
G01 X48.5579 Y6.8768
G01 X48.5564 Y6.8841
G01 X48.5362 Y6.9650
G01 X48.5340 Y6.9720
G01 X48.5059 Y7.0505
G01 X48.5031 Y7.0573
G01 X48.4674 Y7.1328
G01 X48.4640 Y7.1392
G01 X48.4211 Y7.2108
G01 X48.4170 Y7.2169
G01 X48.3673 Y7.2839
G01 X48.3626 Y7.2896
G01 X48.3066 Y7.3514
G01 X48.3014 Y7.3566
G01 X48.2396 Y7.4126
G01 X48.2339 Y7.4173
G01 X48.1669 Y7.4670
G01 X48.1608 Y7.4711
G01 X48.0892 Y7.5140
G01 X48.0828 Y7.5174
G01 X48.0073 Y7.5531
G01 X48.0005 Y7.5559
G01 X47.9220 Y7.5840
G01 X47.9150 Y7.5862
G01 X47.8341 Y7.6064
G01 X47.8268 Y7.6079
G01 X47.7443 Y7.6201
G01 X47.7370 Y7.6208
G01 X47.6500 Y7.6250
G01 X47.3463 Y7.6249
G01 X47.2630 Y7.6208
G01 X47.2557 Y7.6201
G01 X47.1732 Y7.6079
G01 X47.1659 Y7.6064
G01 X47.0850 Y7.5862
G01 X47.0780 Y7.5840
G01 X46.9995 Y7.5559
G01 X46.9927 Y7.5531
G01 X46.9172 Y7.5174
G01 X46.9108 Y7.5140
G01 X46.8392 Y7.4711
G01 X46.8331 Y7.4670
G01 X46.7661 Y7.4173
G01 X46.7604 Y7.4126
G01 X46.6986 Y7.3566
G01 X46.6934 Y7.3514
G01 X46.6374 Y7.2896
G01 X46.6327 Y7.2839
G01 X46.5830 Y7.2169
G01 X46.5789 Y7.2108
G01 X46.5360 Y7.1392
G01 X46.5326 Y7.1328
G01 X46.4969 Y7.0573
G01 X46.4941 Y7.0505
G01 X46.4660 Y6.9720
G01 X46.4638 Y6.9650
G01 X46.4436 Y6.8841
G01 X46.4421 Y6.8768
G01 X46.4299 Y6.7943
G01 X46.4292 Y6.7870
G01 X46.4251 Y6.7037
G01 X46.4251 Y6.6963
G01 X46.4292 Y6.6130
G01 X46.4299 Y6.6057
G01 X46.4421 Y6.5232
G01 X46.4436 Y6.5159
G01 X46.4638 Y6.4350
G01 X46.4660 Y6.4280
G01 X46.4941 Y6.3495
G01 X46.4969 Y6.3427
G01 X46.5326 Y6.2672
G01 X46.5360 Y6.2608
G01 X46.5789 Y6.1892
G01 X46.5830 Y6.1831
G01 X46.6327 Y6.1161
G01 X46.6374 Y6.1104
G01 X46.6934 Y6.0486
G01 X46.6986 Y6.0434
G01 X46.7604 Y5.9874
G01 X46.7661 Y5.9827
G01 X46.8331 Y5.9330
G01 X46.8392 Y5.9289
G01 X46.9108 Y5.8860
G01 X46.9172 Y5.8826
G01 X46.9927 Y5.8469
G01 X46.9995 Y5.8441
G01 X47.0780 Y5.8160
G01 X47.0850 Y5.8138
G01 X47.1659 Y5.7936
G01 X47.1732 Y5.7921
G01 X47.2557 Y5.7799
G01 X47.2630 Y5.7792
G01 X47.3500 Y5.7750
G00 Z2.0000
G00 X46.0745 Y6.8004
G01 F60.00
G01 Z-0.0380
G01 F120.00
G01 X46.0745 Y6.5996
G01 X46.1059 Y6.4013
G01 X46.1679 Y6.2104
G01 X46.2591 Y6.0315
G01 X46.3771 Y5.8691
G01 X46.5121 Y5.7341
G01 X46.5169 Y5.7288
G01 X46.5212 Y5.7231
G01 X46.5249 Y5.7170
G01 X46.5584 Y5.6557
G01 X46.5615 Y5.6492
G01 X46.5640 Y5.6425
G01 X46.5658 Y5.6357
G01 X46.5670 Y5.6286
G01 X46.5675 Y5.6215
G01 X46.5674 Y5.6144
G01 X46.5624 Y5.5447
G01 X46.5615 Y5.5376
G01 X46.5600 Y5.5306
G01 X46.5578 Y5.5238
G01 X46.5550 Y5.5172
G01 X46.5516 Y5.5110
G01 X46.5476 Y5.5051
G01 X46.5057 Y5.4491
G01 X46.5004 Y5.4428
G01 X46.4945 Y5.4371
G01 X46.4879 Y5.4321
G01 X46.4787 Y5.4258
G01 X46.3285 Y5.3331
G01 X46.2169 Y5.2215
G01 X46.1341 Y5.0872
G01 X46.0843 Y4.9369
G01 X46.0750 Y4.8462
G01 X46.0750 Y4.5250
G01 X46.4250 Y4.5250
G01 X46.4250 Y4.8000
G01 X46.4263 Y4.8282
G01 X46.4270 Y4.8355
G01 X46.4306 Y4.8598
G01 X46.4321 Y4.8670
G01 X46.4380 Y4.8908
G01 X46.4401 Y4.8978
G01 X46.4484 Y4.9209
G01 X46.4512 Y4.9277
G01 X46.4617 Y4.9499
G01 X46.4652 Y4.9564
G01 X46.4778 Y4.9775
G01 X46.4819 Y4.9836
G01 X46.4965 Y5.0033
G01 X46.5012 Y5.0090
G01 X46.5177 Y5.0271
G01 X46.5229 Y5.0323
G01 X46.5410 Y5.0488
G01 X46.5467 Y5.0535
G01 X46.5664 Y5.0681
G01 X46.5725 Y5.0722
G01 X46.5936 Y5.0848
G01 X46.6001 Y5.0883
G01 X46.6223 Y5.0988
G01 X46.6291 Y5.1016
G01 X46.6522 Y5.1099
G01 X46.6592 Y5.1120
G01 X46.6830 Y5.1179
G01 X46.6902 Y5.1194
G01 X46.7145 Y5.1230
G01 X46.7218 Y5.1237
G01 X46.7500 Y5.1250
G01 X48.2500 Y5.1250
G01 X48.2782 Y5.1237
G01 X48.2855 Y5.1230
G01 X48.3098 Y5.1194
G01 X48.3170 Y5.1179
G01 X48.3408 Y5.1120
G01 X48.3478 Y5.1099
G01 X48.3709 Y5.1016
G01 X48.3777 Y5.0988
G01 X48.3999 Y5.0883
G01 X48.4064 Y5.0848
G01 X48.4275 Y5.0722
G01 X48.4336 Y5.0681
G01 X48.4533 Y5.0535
G01 X48.4590 Y5.0488
G01 X48.4771 Y5.0323
G01 X48.4823 Y5.0271
G01 X48.4988 Y5.0090
G01 X48.5035 Y5.0033
G01 X48.5181 Y4.9836
G01 X48.5222 Y4.9775
G01 X48.5348 Y4.9564
G01 X48.5383 Y4.9499
G01 X48.5488 Y4.9277
G01 X48.5516 Y4.9209
G01 X48.5599 Y4.8978
G01 X48.5620 Y4.8908
G01 X48.5679 Y4.8670
G01 X48.5694 Y4.8598
G01 X48.5730 Y4.8355
G01 X48.5737 Y4.8282
G01 X48.5750 Y4.8000
G01 X48.5750 Y4.5250
G01 X48.9250 Y4.5250
G01 X48.9250 Y4.8462
G01 X48.9157 Y4.9369
G01 X48.8659 Y5.0872
G01 X48.7831 Y5.2215
G01 X48.6715 Y5.3331
G01 X48.5241 Y5.4240
G01 X48.5183 Y5.4280
G01 X48.5128 Y5.4326
G01 X48.5078 Y5.4377
G01 X48.4610 Y5.4896
G01 X48.4565 Y5.4951
G01 X48.4525 Y5.5011
G01 X48.4492 Y5.5074
G01 X48.4464 Y5.5139
G01 X48.4442 Y5.5207
G01 X48.4428 Y5.5277
G01 X48.4315 Y5.5967
G01 X48.4307 Y5.6038
G01 X48.4306 Y5.6109
G01 X48.4311 Y5.6180
G01 X48.4324 Y5.6251
G01 X48.4343 Y5.6319
G01 X48.4368 Y5.6386
G01 X48.4646 Y5.7027
G01 X48.4683 Y5.7101
G01 X48.4728 Y5.7170
G01 X48.4780 Y5.7234
G01 X48.4879 Y5.7340
G01 X48.6229 Y5.8691
G01 X48.7409 Y6.0315
G01 X48.8321 Y6.2104
G01 X48.8941 Y6.4013
G01 X48.9255 Y6.5996
G01 X48.9255 Y6.8004
G01 X48.8941 Y6.9987
G01 X48.8321 Y7.1896
G01 X48.7409 Y7.3685
G01 X48.6229 Y7.5309
G01 X48.4809 Y7.6729
G01 X48.3185 Y7.7909
G01 X48.1396 Y7.8821
G01 X47.9487 Y7.9441
G01 X47.7504 Y7.9755
G01 X47.2496 Y7.9755
G01 X47.0513 Y7.9441
G01 X46.8604 Y7.8821
G01 X46.6815 Y7.7909
G01 X46.5191 Y7.6729
G01 X46.3771 Y7.5309
G01 X46.2591 Y7.3685
G01 X46.1679 Y7.1896
G01 X46.1059 Y6.9987
G01 X46.0745 Y6.8004
G00 Z2.0000
G00 X41.2040 Y10.1556
G01 F60.00
G01 Z-0.0380
G01 F120.00
G01 X41.4636 Y9.8960
G01 X41.4688 Y9.9031
G01 X41.5706 Y10.1030
G01 X41.6399 Y10.3163
G01 X41.6750 Y10.5379
G01 X41.6750 Y10.7622
G01 X41.6399 Y10.9837
G01 X41.5706 Y11.1970
G01 X41.4688 Y11.3969
G01 X41.4636 Y11.4040
G01 X41.2040 Y11.1444
G01 X41.2417 Y11.0648
G01 X41.2445 Y11.0580
G01 X41.2776 Y10.9656
G01 X41.2797 Y10.9585
G01 X41.3035 Y10.8633
G01 X41.3050 Y10.8561
G01 X41.3194 Y10.7590
G01 X41.3201 Y10.7517
G01 X41.3249 Y10.6537
G01 X41.3249 Y10.6463
G01 X41.3201 Y10.5483
G01 X41.3194 Y10.5410
G01 X41.3050 Y10.4439
G01 X41.3035 Y10.4367
G01 X41.2797 Y10.3415
G01 X41.2776 Y10.3344
G01 X41.2445 Y10.2420
G01 X41.2417 Y10.2352
G01 X41.2040 Y10.1556
G00 Z2.0000
G00 X39.7556 Y9.6960
G01 F60.00
G01 Z-0.0380
G01 F120.00
G01 X39.4960 Y9.4364
G01 X39.5031 Y9.4312
G01 X39.7030 Y9.3294
G01 X39.9163 Y9.2601
G01 X40.1379 Y9.2250
G01 X40.3621 Y9.2250
G01 X40.5837 Y9.2601
G01 X40.7970 Y9.3294
G01 X40.9969 Y9.4312
G01 X41.0040 Y9.4364
G01 X40.7444 Y9.6960
G01 X40.6648 Y9.6583
G01 X40.6580 Y9.6555
G01 X40.5656 Y9.6224
G01 X40.5585 Y9.6203
G01 X40.4633 Y9.5965
G01 X40.4561 Y9.5950
G01 X40.3590 Y9.5806
G01 X40.3517 Y9.5799
G01 X40.2537 Y9.5751
G01 X40.2463 Y9.5751
G01 X40.1483 Y9.5799
G01 X40.1410 Y9.5806
G01 X40.0439 Y9.5950
G01 X40.0367 Y9.5965
G01 X39.9415 Y9.6203
G01 X39.9344 Y9.6224
G01 X39.8420 Y9.6555
G01 X39.8352 Y9.6583
G01 X39.7556 Y9.6960
G00 Z2.0000
G00 X38.8250 Y10.7622
G01 F60.00
G01 Z-0.0380
G01 F120.00
G01 X38.8250 Y10.5379
G01 X38.8601 Y10.3163
G01 X38.9294 Y10.1030
G01 X39.0312 Y9.9031
G01 X39.0364 Y9.8960
G01 X39.2960 Y10.1556
G01 X39.2583 Y10.2352
G01 X39.2555 Y10.2420
G01 X39.2224 Y10.3344
G01 X39.2203 Y10.3415
G01 X39.1965 Y10.4367
G01 X39.1950 Y10.4439
G01 X39.1806 Y10.5410
G01 X39.1799 Y10.5483
G01 X39.1751 Y10.6463
G01 X39.1751 Y10.6537
G01 X39.1799 Y10.7517
G01 X39.1806 Y10.7590
G01 X39.1950 Y10.8561
G01 X39.1965 Y10.8633
G01 X39.2203 Y10.9585
G01 X39.2224 Y10.9656
G01 X39.2555 Y11.0580
G01 X39.2583 Y11.0648
G01 X39.2960 Y11.1444
G01 X39.0364 Y11.4040
G01 X39.0312 Y11.3969
G01 X38.9294 Y11.1970
G01 X38.8601 Y10.9837
G01 X38.8250 Y10.7622
G00 Z2.0000
G00 X39.7556 Y11.6040
G01 F60.00
G01 Z-0.0380
G01 F120.00
G01 X39.8352 Y11.6417
G01 X39.8420 Y11.6445
G01 X39.9344 Y11.6776
G01 X39.9415 Y11.6797
G01 X40.0367 Y11.7035
G01 X40.0439 Y11.7050
G01 X40.1410 Y11.7194
G01 X40.1483 Y11.7201
G01 X40.2463 Y11.7249
G01 X40.2537 Y11.7249
G01 X40.3517 Y11.7201
G01 X40.3590 Y11.7194
G01 X40.4561 Y11.7050
G01 X40.4633 Y11.7035
G01 X40.5585 Y11.6797
G01 X40.5656 Y11.6776
G01 X40.6580 Y11.6445
G01 X40.6648 Y11.6417
G01 X40.7444 Y11.6040
G01 X41.0040 Y11.8636
G01 X40.9969 Y11.8688
G01 X40.7970 Y11.9706
G01 X40.5837 Y12.0399
G01 X40.3621 Y12.0750
G01 X40.1379 Y12.0750
G01 X39.9163 Y12.0399
G01 X39.7030 Y11.9706
G01 X39.5031 Y11.8688
G01 X39.4960 Y11.8636
G01 X39.7556 Y11.6040
G00 Z2.0000
G00 X41.8000 Y13.8875
G01 F60.00
G01 Z-0.0380
G01 F120.00
G01 X41.7999 Y13.8713
G01 X41.7987 Y13.8468
G01 X41.7980 Y13.8395
G01 X41.7944 Y13.8152
G01 X41.7929 Y13.8080
G01 X41.7870 Y13.7842
G01 X41.7849 Y13.7772
G01 X41.7766 Y13.7541
G01 X41.7738 Y13.7473
G01 X41.7633 Y13.7251
G01 X41.7598 Y13.7186
G01 X41.7472 Y13.6975
G01 X41.7431 Y13.6914
G01 X41.7285 Y13.6717
G01 X41.7238 Y13.6660
G01 X41.7073 Y13.6479
G01 X41.7021 Y13.6427
G01 X41.6840 Y13.6262
G01 X41.6783 Y13.6215
G01 X41.6586 Y13.6069
G01 X41.6525 Y13.6028
G01 X41.6314 Y13.5902
G01 X41.6249 Y13.5867
G01 X41.6027 Y13.5762
G01 X41.5959 Y13.5734
G01 X41.5728 Y13.5651
G01 X41.5658 Y13.5630
G01 X41.5420 Y13.5571
G01 X41.5348 Y13.5556
G01 X41.5105 Y13.5520
G01 X41.5032 Y13.5513
G01 X41.4787 Y13.5501
G01 X41.3250 Y13.5500
G01 X41.3250 Y13.2000
G01 X41.5212 Y13.2000
G01 X41.6119 Y13.2093
G01 X41.7622 Y13.2591
G01 X41.8965 Y13.3419
G01 X42.0081 Y13.4535
G01 X42.0909 Y13.5878
G01 X42.1407 Y13.7381
G01 X42.1500 Y13.8288
G01 X42.1500 Y13.8875
G01 X41.8000 Y13.8875
G00 Z2.0000
G00 X42.8445 Y17.7949
G01 F60.00
G01 Z-0.0380
G01 F120.00
G01 X42.8445 Y17.6051
G01 X42.8742 Y17.4177
G01 X42.9328 Y17.2373
G01 X43.0190 Y17.0682
G01 X43.1305 Y16.9147
G01 X43.2647 Y16.7805
G01 X43.4182 Y16.6690
G01 X43.5872 Y16.5828
G01 X43.7677 Y16.5242
G01 X43.9551 Y16.4945
G01 X44.1449 Y16.4945
G01 X44.3323 Y16.5242
G01 X44.5128 Y16.5828
G01 X44.6818 Y16.6690
G01 X44.8353 Y16.7805
G01 X44.9695 Y16.9147
G01 X45.0810 Y17.0682
G01 X45.1672 Y17.2372
G01 X45.2258 Y17.4177
G01 X45.2555 Y17.6051
G01 X45.2555 Y17.7949
G01 X45.2258 Y17.9823
G01 X45.1672 Y18.1628
G01 X45.0810 Y18.3318
G01 X44.9695 Y18.4853
G01 X44.8353 Y18.6195
G01 X44.6818 Y18.7310
G01 X44.5127 Y18.8172
G01 X44.3323 Y18.8758
G01 X44.1449 Y18.9055
G01 X43.9551 Y18.9055
G01 X43.7677 Y18.8758
G01 X43.5872 Y18.8172
G01 X43.4182 Y18.7310
G01 X43.2647 Y18.6195
G01 X43.1305 Y18.4853
G01 X43.0190 Y18.3318
G01 X42.9328 Y18.1628
G01 X42.8742 Y17.9823
G01 X42.8445 Y17.7949
G00 Z2.0000
G00 X44.9049 Y17.7037
G01 F60.00
G01 Z-0.0380
G01 F120.00
G01 X44.9012 Y17.7801
G01 X44.9004 Y17.7875
G01 X44.8892 Y17.8632
G01 X44.8878 Y17.8704
G01 X44.8692 Y17.9446
G01 X44.8670 Y17.9517
G01 X44.8412 Y18.0238
G01 X44.8384 Y18.0306
G01 X44.8057 Y18.0998
G01 X44.8022 Y18.1062
G01 X44.7629 Y18.1719
G01 X44.7588 Y18.1780
G01 X44.7132 Y18.2395
G01 X44.7085 Y18.2452
G01 X44.6571 Y18.3019
G01 X44.6519 Y18.3071
G01 X44.5952 Y18.3585
G01 X44.5895 Y18.3632
G01 X44.5280 Y18.4088
G01 X44.5219 Y18.4129
G01 X44.4562 Y18.4522
G01 X44.4498 Y18.4557
G01 X44.3806 Y18.4884
G01 X44.3738 Y18.4912
G01 X44.3017 Y18.5170
G01 X44.2946 Y18.5192
G01 X44.2204 Y18.5378
G01 X44.2132 Y18.5392
G01 X44.1375 Y18.5504
G01 X44.1301 Y18.5512
G01 X44.0537 Y18.5549
G01 X44.0463 Y18.5549
G01 X43.9699 Y18.5512
G01 X43.9625 Y18.5504
G01 X43.8868 Y18.5392
G01 X43.8796 Y18.5378
G01 X43.8054 Y18.5192
G01 X43.7983 Y18.5170
G01 X43.7262 Y18.4912
G01 X43.7194 Y18.4884
G01 X43.6502 Y18.4557
G01 X43.6438 Y18.4522
G01 X43.5781 Y18.4129
G01 X43.5720 Y18.4088
G01 X43.5105 Y18.3632
G01 X43.5048 Y18.3585
G01 X43.4481 Y18.3071
G01 X43.4429 Y18.3019
G01 X43.3915 Y18.2452
G01 X43.3868 Y18.2395
G01 X43.3412 Y18.1780
G01 X43.3371 Y18.1719
G01 X43.2978 Y18.1062
G01 X43.2943 Y18.0998
G01 X43.2616 Y18.0306
G01 X43.2588 Y18.0238
G01 X43.2330 Y17.9517
G01 X43.2308 Y17.9446
G01 X43.2122 Y17.8704
G01 X43.2108 Y17.8632
G01 X43.1996 Y17.7875
G01 X43.1988 Y17.7801
G01 X43.1951 Y17.7037
G01 X43.1951 Y17.6963
G01 X43.1988 Y17.6199
G01 X43.1996 Y17.6125
G01 X43.2108 Y17.5368
G01 X43.2122 Y17.5296
G01 X43.2308 Y17.4554
G01 X43.2330 Y17.4483
G01 X43.2588 Y17.3762
G01 X43.2616 Y17.3694
G01 X43.2943 Y17.3002
G01 X43.2978 Y17.2938
G01 X43.3371 Y17.2281
G01 X43.3412 Y17.2220
G01 X43.3868 Y17.1605
G01 X43.3915 Y17.1548
G01 X43.4429 Y17.0981
G01 X43.4481 Y17.0929
G01 X43.5048 Y17.0415
G01 X43.5105 Y17.0368
G01 X43.5720 Y16.9912
G01 X43.5781 Y16.9871
G01 X43.6438 Y16.9478
G01 X43.6502 Y16.9443
G01 X43.7194 Y16.9116
G01 X43.7262 Y16.9088
G01 X43.7983 Y16.8830
G01 X43.8054 Y16.8808
G01 X43.8796 Y16.8622
G01 X43.8868 Y16.8608
G01 X43.9625 Y16.8496
G01 X43.9699 Y16.8488
G01 X44.0463 Y16.8451
G01 X44.0537 Y16.8451
G01 X44.1301 Y16.8488
G01 X44.1375 Y16.8496
G01 X44.2132 Y16.8608
G01 X44.2204 Y16.8622
G01 X44.2946 Y16.8808
G01 X44.3017 Y16.8830
G01 X44.3738 Y16.9088
G01 X44.3806 Y16.9116
G01 X44.4498 Y16.9443
G01 X44.4562 Y16.9478
G01 X44.5219 Y16.9871
G01 X44.5280 Y16.9912
G01 X44.5895 Y17.0368
G01 X44.5952 Y17.0415
G01 X44.6519 Y17.0929
G01 X44.6571 Y17.0981
G01 X44.7085 Y17.1548
G01 X44.7132 Y17.1605
G01 X44.7588 Y17.2220
G01 X44.7629 Y17.2281
G01 X44.8022 Y17.2938
G01 X44.8057 Y17.3002
G01 X44.8384 Y17.3694
G01 X44.8412 Y17.3762
G01 X44.8670 Y17.4483
G01 X44.8692 Y17.4554
G01 X44.8878 Y17.5296
G01 X44.8892 Y17.5368
G01 X44.9004 Y17.6125
G01 X44.9012 Y17.6199
G01 X44.9049 Y17.6963
G01 X44.9049 Y17.7037
G00 Z2.0000
G00 X47.8445 Y16.0239
G01 F60.00
G01 Z-0.0380
G01 F120.00
G01 X47.8445 Y14.3762
G01 X47.8495 Y14.3299
G01 X47.8927 Y14.2140
G01 X47.9660 Y14.1160
G01 X48.0640 Y14.0427
G01 X48.1799 Y13.9995
G01 X48.2261 Y13.9945
G01 X49.8739 Y13.9945
G01 X49.9201 Y13.9995
G01 X50.0360 Y14.0427
G01 X50.1340 Y14.1160
G01 X50.2073 Y14.2140
G01 X50.2505 Y14.3299
G01 X50.2555 Y14.3761
G01 X50.2555 Y16.0239
G01 X50.2505 Y16.0701
G01 X50.2073 Y16.1860
G01 X50.1340 Y16.2840
G01 X50.0360 Y16.3573
G01 X49.9201 Y16.4005
G01 X49.8739 Y16.4055
G01 X48.2262 Y16.4055
G01 X48.1799 Y16.4005
G01 X48.0640 Y16.3573
G01 X47.9660 Y16.2840
G01 X47.8927 Y16.1860
G01 X47.8495 Y16.0701
G01 X47.8445 Y16.0239
G00 Z2.0000
G00 X48.2700 Y14.3450
G01 F60.00
G01 Z-0.0380
G01 F120.00
G01 X49.8300 Y14.3450
G01 X49.8374 Y14.3454
G01 X49.8446 Y14.3464
G01 X49.8518 Y14.3482
G01 X49.8587 Y14.3507
G01 X49.8654 Y14.3539
G01 X49.8717 Y14.3576
G01 X49.8776 Y14.3620
G01 X49.8830 Y14.3670
G01 X49.8880 Y14.3724
G01 X49.8924 Y14.3783
G01 X49.8961 Y14.3846
G01 X49.8993 Y14.3913
G01 X49.9018 Y14.3982
G01 X49.9036 Y14.4054
G01 X49.9046 Y14.4126
G01 X49.9050 Y14.4200
G01 X49.9050 Y15.9800
G01 X49.9046 Y15.9874
G01 X49.9036 Y15.9946
G01 X49.9018 Y16.0018
G01 X49.8993 Y16.0087
G01 X49.8961 Y16.0154
G01 X49.8924 Y16.0217
G01 X49.8880 Y16.0276
G01 X49.8830 Y16.0330
G01 X49.8776 Y16.0380
G01 X49.8717 Y16.0424
G01 X49.8654 Y16.0461
G01 X49.8587 Y16.0493
G01 X49.8518 Y16.0518
G01 X49.8446 Y16.0536
G01 X49.8374 Y16.0546
G01 X49.8300 Y16.0550
G01 X48.2700 Y16.0550
G01 X48.2626 Y16.0546
G01 X48.2554 Y16.0536
G01 X48.2482 Y16.0518
G01 X48.2413 Y16.0493
G01 X48.2346 Y16.0461
G01 X48.2283 Y16.0424
G01 X48.2224 Y16.0380
G01 X48.2170 Y16.0330
G01 X48.2120 Y16.0276
G01 X48.2076 Y16.0217
G01 X48.2039 Y16.0154
G01 X48.2007 Y16.0087
G01 X48.1982 Y16.0018
G01 X48.1964 Y15.9946
G01 X48.1954 Y15.9874
G01 X48.1950 Y15.9800
G01 X48.1950 Y14.4200
G01 X48.1954 Y14.4126
G01 X48.1964 Y14.4054
G01 X48.1982 Y14.3982
G01 X48.2007 Y14.3913
G01 X48.2039 Y14.3846
G01 X48.2076 Y14.3783
G01 X48.2120 Y14.3724
G01 X48.2170 Y14.3670
G01 X48.2224 Y14.3620
G01 X48.2283 Y14.3576
G01 X48.2346 Y14.3539
G01 X48.2413 Y14.3507
G01 X48.2482 Y14.3482
G01 X48.2554 Y14.3464
G01 X48.2626 Y14.3454
G01 X48.2700 Y14.3450
G00 Z2.0000
G00 X48.4586 Y19.1489
G01 F60.00
G01 Z-0.0380
G01 F120.00
G01 X48.5874 Y19.0833
G01 X48.7678 Y19.0247
G01 X48.9552 Y18.9950
G01 X49.1448 Y18.9950
G01 X49.3322 Y19.0247
G01 X49.5126 Y19.0833
G01 X49.6414 Y19.1489
G01 X49.3793 Y19.4111
G01 X49.3738 Y19.4088
G01 X49.3017 Y19.3830
G01 X49.2946 Y19.3808
G01 X49.2204 Y19.3622
G01 X49.2132 Y19.3608
G01 X49.1375 Y19.3496
G01 X49.1301 Y19.3488
G01 X49.0537 Y19.3451
G01 X49.0463 Y19.3451
G01 X48.9699 Y19.3488
G01 X48.9625 Y19.3496
G01 X48.8868 Y19.3608
G01 X48.8796 Y19.3622
G01 X48.8054 Y19.3808
G01 X48.7983 Y19.3830
G01 X48.7262 Y19.4088
G01 X48.7207 Y19.4111
G01 X48.4586 Y19.1489
G00 Z2.0000
G00 X45.6747 Y25.2127
G01 F60.00
G01 Z-0.0380
G01 F120.00
G01 X45.7082 Y25.1514
G01 X45.7119 Y25.1453
G01 X45.7162 Y25.1396
G01 X45.7210 Y25.1343
G01 X45.8335 Y25.0218
G01 X45.9164 Y24.8874
G01 X45.9662 Y24.7370
G01 X45.9755 Y24.6462
G01 X45.9755 Y23.8538
G01 X45.9662 Y23.7630
G01 X45.9164 Y23.6126
G01 X45.8335 Y23.4782
G01 X45.7460 Y23.3907
G01 X45.7407 Y23.3847
G01 X45.7360 Y23.3782
G01 X45.7075 Y23.3339
G01 X45.7037 Y23.3274
G01 X45.7007 Y23.3205
G01 X45.6983 Y23.3134
G01 X45.6966 Y23.3061
G01 X45.6957 Y23.2987
G01 X45.6908 Y23.2290
G01 X45.6906 Y23.2219
G01 X45.6911 Y23.2147
G01 X45.6923 Y23.2077
G01 X45.6941 Y23.2008
G01 X45.6966 Y23.1941
G01 X45.6997 Y23.1877
G01 X45.7332 Y23.1264
G01 X45.7369 Y23.1203
G01 X45.7412 Y23.1146
G01 X45.7460 Y23.1093
G01 X45.8335 Y23.0218
G01 X45.9164 Y22.8874
G01 X45.9662 Y22.7370
G01 X45.9755 Y22.6462
G01 X45.9755 Y21.8538
G01 X45.9662 Y21.7630
G01 X45.9149 Y21.6080
G01 X45.9112 Y21.5983
G01 X45.9008 Y21.5636
G01 X45.8989 Y21.5557
G01 X45.8979 Y21.5476
G01 X45.8977 Y21.5395
G01 X45.8985 Y21.5315
G01 X45.9084 Y21.4623
G01 X45.9098 Y21.4553
G01 X45.9118 Y21.4485
G01 X45.9144 Y21.4418
G01 X45.9177 Y21.4355
G01 X45.9216 Y21.4295
G01 X45.9260 Y21.4239
G01 X45.9717 Y21.3711
G01 X45.9766 Y21.3659
G01 X45.9820 Y21.3612
G01 X45.9879 Y21.3571
G01 X45.9940 Y21.3535
G01 X46.0005 Y21.3506
G01 X46.0073 Y21.3482
G01 X46.0743 Y21.3285
G01 X46.0812 Y21.3269
G01 X46.0883 Y21.3258
G01 X46.0954 Y21.3255
G01 X46.4085 Y21.3255
G01 X46.4165 Y21.3259
G01 X46.4429 Y21.3288
G01 X46.4501 Y21.3299
G01 X46.4573 Y21.3318
G01 X46.4642 Y21.3343
G01 X46.4708 Y21.3375
G01 X46.5321 Y21.3710
G01 X46.5382 Y21.3747
G01 X46.5439 Y21.3790
G01 X46.5492 Y21.3838
G01 X47.5013 Y22.3359
G01 X47.6037 Y22.4043
G01 X47.7176 Y22.4515
G01 X47.8384 Y22.4755
G01 X49.8585 Y22.4755
G01 X49.8665 Y22.4759
G01 X49.8929 Y22.4788
G01 X49.9001 Y22.4799
G01 X49.9073 Y22.4818
G01 X49.9142 Y22.4843
G01 X49.9208 Y22.4875
G01 X49.9821 Y22.5210
G01 X49.9882 Y22.5247
G01 X49.9939 Y22.5290
G01 X49.9992 Y22.5338
G01 X50.2162 Y22.7508
G01 X50.2216 Y22.7568
G01 X50.2382 Y22.7774
G01 X50.2425 Y22.7834
G01 X50.2463 Y22.7897
G01 X50.2494 Y22.7964
G01 X50.2518 Y22.8033
G01 X50.2715 Y22.8704
G01 X50.2731 Y22.8773
G01 X50.2742 Y22.8844
G01 X50.2745 Y22.8915
G01 X50.2745 Y22.9260
G01 X50.2737 Y22.9367
G01 X50.2687 Y22.9716
G01 X50.2671 Y22.9795
G01 X50.2647 Y22.9871
G01 X50.2611 Y22.9953
G01 X50.2596 Y23.0007
G01 X50.2570 Y23.0077
G01 X50.2536 Y23.0144
G01 X50.2496 Y23.0207
G01 X50.2450 Y23.0266
G01 X50.2312 Y23.0425
G01 X50.2198 Y23.0603
G01 X50.2157 Y23.0661
G01 X50.2110 Y23.0715
G01 X50.2058 Y23.0764
G01 X50.2002 Y23.0808
G01 X50.1942 Y23.0846
G01 X50.1889 Y23.0893
G01 X50.1831 Y23.0934
G01 X50.1769 Y23.0970
G01 X50.1704 Y23.0999
G01 X50.1637 Y23.1023
G01 X50.1435 Y23.1082
G01 X50.1250 Y23.1166
G01 X50.1250 Y23.4750
G01 X50.1537 Y23.4751
G01 X50.1782 Y23.4763
G01 X50.1855 Y23.4770
G01 X50.2098 Y23.4806
G01 X50.2170 Y23.4821
G01 X50.2408 Y23.4880
G01 X50.2478 Y23.4901
G01 X50.2709 Y23.4984
G01 X50.2777 Y23.5012
G01 X50.2999 Y23.5117
G01 X50.3064 Y23.5152
G01 X50.3275 Y23.5278
G01 X50.3336 Y23.5319
G01 X50.3533 Y23.5465
G01 X50.3590 Y23.5512
G01 X50.3771 Y23.5677
G01 X50.3823 Y23.5729
G01 X50.3988 Y23.5910
G01 X50.4035 Y23.5967
G01 X50.4181 Y23.6164
G01 X50.4222 Y23.6225
G01 X50.4348 Y23.6436
G01 X50.4383 Y23.6501
G01 X50.4488 Y23.6723
G01 X50.4516 Y23.6791
G01 X50.4599 Y23.7022
G01 X50.4620 Y23.7092
G01 X50.4679 Y23.7330
G01 X50.4694 Y23.7402
G01 X50.4730 Y23.7645
G01 X50.4737 Y23.7718
G01 X50.4750 Y23.8000
G01 X50.4750 Y24.7000
G01 X50.4737 Y24.7282
G01 X50.4730 Y24.7355
G01 X50.4694 Y24.7598
G01 X50.4679 Y24.7670
G01 X50.4620 Y24.7908
G01 X50.4599 Y24.7978
G01 X50.4516 Y24.8209
G01 X50.4488 Y24.8277
G01 X50.4383 Y24.8499
G01 X50.4348 Y24.8564
G01 X50.4222 Y24.8775
G01 X50.4181 Y24.8836
G01 X50.4035 Y24.9033
G01 X50.3988 Y24.9090
G01 X50.3823 Y24.9271
G01 X50.3771 Y24.9323
G01 X50.3590 Y24.9488
G01 X50.3533 Y24.9535
G01 X50.3336 Y24.9681
G01 X50.3275 Y24.9722
G01 X50.3064 Y24.9848
G01 X50.2999 Y24.9883
G01 X50.2777 Y24.9988
G01 X50.2709 Y25.0016
G01 X50.2478 Y25.0099
G01 X50.2408 Y25.0120
G01 X50.2170 Y25.0179
G01 X50.2098 Y25.0194
G01 X50.1855 Y25.0230
G01 X50.1782 Y25.0237
G01 X50.1500 Y25.0250
G01 X50.1250 Y25.0250
G01 X50.1250 Y25.2108
G01 X50.1794 Y25.2578
G01 X50.1846 Y25.2627
G01 X50.1893 Y25.2681
G01 X50.1934 Y25.2739
G01 X50.1970 Y25.2801
G01 X50.1999 Y25.2866
G01 X50.2023 Y25.2933
G01 X50.2220 Y25.3604
G01 X50.2236 Y25.3673
G01 X50.2247 Y25.3744
G01 X50.2250 Y25.3815
G01 X50.2250 Y25.8962
G01 X50.2350 Y25.9095
G01 X50.2466 Y25.9282
G01 X50.2564 Y25.9480
G01 X50.2642 Y25.9687
G01 X50.2699 Y25.9900
G01 X50.2713 Y25.9972
G01 X50.2742 Y26.0191
G01 X50.2750 Y26.0375
G01 X50.2750 Y27.2125
G01 X50.2742 Y27.2309
G01 X50.2713 Y27.2528
G01 X50.2699 Y27.2600
G01 X50.2642 Y27.2813
G01 X50.2564 Y27.3020
G01 X50.2501 Y27.3153
G01 X50.2391 Y27.3344
G01 X50.2350 Y27.3405
G01 X50.2215 Y27.3580
G01 X50.2064 Y27.3741
G01 X50.1955 Y27.3840
G01 X50.1780 Y27.3975
G01 X50.1593 Y27.4091
G01 X50.1528 Y27.4126
G01 X50.1327 Y27.4217
G01 X50.1118 Y27.4288
G01 X50.0903 Y27.4338
G01 X50.0684 Y27.4367
G01 X50.0500 Y27.4375
G01 X49.7463 Y27.4374
G01 X49.7316 Y27.4367
G01 X49.7097 Y27.4338
G01 X49.7025 Y27.4324
G01 X49.6812 Y27.4267
G01 X49.6605 Y27.4189
G01 X49.6472 Y27.4126
G01 X49.6407 Y27.4091
G01 X49.6220 Y27.3975
G01 X49.6045 Y27.3840
G01 X49.5884 Y27.3689
G01 X49.5738 Y27.3523
G01 X49.5609 Y27.3344
G01 X49.5499 Y27.3153
G01 X49.5436 Y27.3020
G01 X49.5358 Y27.2813
G01 X49.5301 Y27.2600
G01 X49.5265 Y27.2382
G01 X49.5258 Y27.2309
G01 X49.5250 Y27.2125
G01 X49.5250 Y26.9500
G01 X49.1750 Y26.9500
G01 X49.1750 Y27.1380
G01 X49.1746 Y27.1460
G01 X49.1733 Y27.1539
G01 X49.1621 Y27.2055
G01 X49.1601 Y27.2127
G01 X49.1575 Y27.2197
G01 X49.1541 Y27.2264
G01 X49.1501 Y27.2327
G01 X49.1455 Y27.2386
G01 X49.0997 Y27.2914
G01 X49.0948 Y27.2966
G01 X49.0894 Y27.3013
G01 X49.0836 Y27.3054
G01 X49.0774 Y27.3090
G01 X49.0709 Y27.3119
G01 X49.0642 Y27.3143
G01 X48.9971 Y27.3340
G01 X48.9902 Y27.3356
G01 X48.9831 Y27.3367
G01 X48.9760 Y27.3370
G01 X48.9245 Y27.3370
G01 X48.9138 Y27.3362
G01 X48.8789 Y27.3312
G01 X48.8710 Y27.3296
G01 X48.8634 Y27.3272
G01 X48.8552 Y27.3236
G01 X48.8498 Y27.3221
G01 X48.8428 Y27.3195
G01 X48.8361 Y27.3161
G01 X48.8298 Y27.3121
G01 X48.8239 Y27.3075
G01 X48.8080 Y27.2937
G01 X48.7902 Y27.2823
G01 X48.7844 Y27.2782
G01 X48.7790 Y27.2735
G01 X48.7741 Y27.2683
G01 X48.7697 Y27.2627
G01 X48.7659 Y27.2567
G01 X48.7612 Y27.2514
G01 X48.7571 Y27.2456
G01 X48.7535 Y27.2394
G01 X48.7506 Y27.2329
G01 X48.7482 Y27.2262
G01 X48.7423 Y27.2060
G01 X48.7335 Y27.1868
G01 X48.7309 Y27.1802
G01 X48.7289 Y27.1733
G01 X48.7275 Y27.1663
G01 X48.7268 Y27.1592
G01 X48.7268 Y27.1521
G01 X48.7258 Y27.1451
G01 X48.7255 Y27.1380
G01 X48.7255 Y25.9748
G01 X48.7234 Y25.9485
G01 X48.6824 Y25.8071
G01 X48.6532 Y25.7578
G01 X48.6501 Y25.7519
G01 X48.6475 Y25.7458
G01 X48.6454 Y25.7394
G01 X48.6282 Y25.6763
G01 X48.6267 Y25.6698
G01 X48.6258 Y25.6632
G01 X48.6255 Y25.6565
G01 X48.6255 Y25.4384
G01 X48.6033 Y25.3270
G01 X48.6022 Y25.3194
G01 X48.6019 Y25.3117
G01 X48.6024 Y25.2612
G01 X48.6028 Y25.2538
G01 X48.6039 Y25.2466
G01 X48.6058 Y25.2394
G01 X48.6083 Y25.2325
G01 X48.6115 Y25.2259
G01 X48.6450 Y25.1646
G01 X48.6487 Y25.1585
G01 X48.6530 Y25.1528
G01 X48.6596 Y25.1457
G01 X48.6677 Y25.1387
G01 X48.6960 Y25.1175
G01 X48.7027 Y25.1130
G01 X48.7098 Y25.1093
G01 X48.7182 Y25.1061
G01 X48.7230 Y25.1034
G01 X48.7298 Y25.1003
G01 X48.7369 Y25.0979
G01 X48.7442 Y25.0963
G01 X48.7517 Y25.0954
G01 X48.7727 Y25.0939
G01 X48.7933 Y25.0894
G01 X48.8003 Y25.0882
G01 X48.8074 Y25.0877
G01 X48.8146 Y25.0879
G01 X48.8216 Y25.0887
G01 X48.8286 Y25.0902
G01 X48.8356 Y25.0907
G01 X48.8427 Y25.0919
G01 X48.8495 Y25.0938
G01 X48.8562 Y25.0963
G01 X48.8627 Y25.0994
G01 X48.8811 Y25.1095
G01 X48.9009 Y25.1168
G01 X48.9074 Y25.1196
G01 X48.9137 Y25.1231
G01 X48.9196 Y25.1271
G01 X48.9251 Y25.1316
G01 X48.9301 Y25.1366
G01 X48.9358 Y25.1409
G01 X48.9411 Y25.1457
G01 X49.0285 Y25.2331
G01 X49.1628 Y25.3159
G01 X49.2345 Y25.3399
G01 X49.2752 Y25.3609
G01 X49.2810 Y25.3643
G01 X49.2865 Y25.3682
G01 X49.2916 Y25.3725
G01 X49.2963 Y25.3773
G01 X49.3006 Y25.3825
G01 X49.3424 Y25.4384
G01 X49.3464 Y25.4443
G01 X49.3498 Y25.4506
G01 X49.3527 Y25.4572
G01 X49.3548 Y25.4639
G01 X49.3563 Y25.4709
G01 X49.3572 Y25.4780
G01 X49.3622 Y25.5477
G01 X49.3623 Y25.5548
G01 X49.3618 Y25.5620
G01 X49.3607 Y25.5690
G01 X49.3588 Y25.5759
G01 X49.3563 Y25.5826
G01 X49.3532 Y25.5890
G01 X49.3197 Y25.6503
G01 X49.3160 Y25.6564
G01 X49.3117 Y25.6621
G01 X49.3069 Y25.6674
G01 X49.2920 Y25.6823
G01 X49.2181 Y25.8073
G01 X49.1771 Y25.9486
G01 X49.1750 Y25.9748
G01 X49.1750 Y26.3000
G01 X49.5250 Y26.3000
G01 X49.5250 Y26.0375
G01 X49.5258 Y26.0191
G01 X49.5287 Y25.9972
G01 X49.5301 Y25.9900
G01 X49.5337 Y25.9757
G01 X49.5408 Y25.9548
G01 X49.5499 Y25.9347
G01 X49.5534 Y25.9282
G01 X49.5650 Y25.9095
G01 X49.5750 Y25.8962
G01 X49.5750 Y25.6267
G01 X49.5206 Y25.5797
G01 X49.5154 Y25.5748
G01 X49.5107 Y25.5694
G01 X49.5066 Y25.5636
G01 X49.5030 Y25.5574
G01 X49.5001 Y25.5509
G01 X49.4977 Y25.5442
G01 X49.4780 Y25.4771
G01 X49.4764 Y25.4702
G01 X49.4753 Y25.4631
G01 X49.4750 Y25.4560
G01 X49.4750 Y25.0250
G01 X49.4500 Y25.0250
G01 X49.4218 Y25.0237
G01 X49.4145 Y25.0230
G01 X49.3902 Y25.0194
G01 X49.3830 Y25.0179
G01 X49.3592 Y25.0120
G01 X49.3522 Y25.0099
G01 X49.3291 Y25.0016
G01 X49.3223 Y24.9988
G01 X49.3001 Y24.9883
G01 X49.2936 Y24.9848
G01 X49.2725 Y24.9722
G01 X49.2664 Y24.9681
G01 X49.2467 Y24.9535
G01 X49.2410 Y24.9488
G01 X49.2229 Y24.9323
G01 X49.2177 Y24.9271
G01 X49.2012 Y24.9090
G01 X49.1965 Y24.9033
G01 X49.1819 Y24.8836
G01 X49.1778 Y24.8775
G01 X49.1652 Y24.8564
G01 X49.1617 Y24.8499
G01 X49.1512 Y24.8277
G01 X49.1484 Y24.8209
G01 X49.1401 Y24.7978
G01 X49.1380 Y24.7908
G01 X49.1321 Y24.7670
G01 X49.1306 Y24.7598
G01 X49.1270 Y24.7355
G01 X49.1263 Y24.7282
G01 X49.1250 Y24.7000
G01 X49.1250 Y23.8000
G01 X49.1263 Y23.7718
G01 X49.1270 Y23.7645
G01 X49.1306 Y23.7402
G01 X49.1321 Y23.7330
G01 X49.1380 Y23.7092
G01 X49.1401 Y23.7022
G01 X49.1484 Y23.6791
G01 X49.1512 Y23.6723
G01 X49.1617 Y23.6501
G01 X49.1652 Y23.6436
G01 X49.1778 Y23.6225
G01 X49.1819 Y23.6164
G01 X49.1965 Y23.5967
G01 X49.2012 Y23.5910
G01 X49.2177 Y23.5729
G01 X49.2229 Y23.5677
G01 X49.2410 Y23.5512
G01 X49.2467 Y23.5465
G01 X49.2664 Y23.5319
G01 X49.2725 Y23.5278
G01 X49.2936 Y23.5152
G01 X49.3001 Y23.5117
G01 X49.3223 Y23.5012
G01 X49.3291 Y23.4984
G01 X49.3522 Y23.4901
G01 X49.3592 Y23.4880
G01 X49.3830 Y23.4821
G01 X49.3902 Y23.4806
G01 X49.4145 Y23.4770
G01 X49.4218 Y23.4763
G01 X49.4463 Y23.4751
G01 X49.4750 Y23.4750
G01 X49.4750 Y23.1250
G01 X49.4038 Y23.1250
G01 X49.3131 Y23.1343
G01 X49.1628 Y23.1841
G01 X49.0285 Y23.2669
G01 X48.9411 Y23.3543
G01 X48.9351 Y23.3597
G01 X48.9286 Y23.3644
G01 X48.8842 Y23.3929
G01 X48.8777 Y23.3966
G01 X48.8709 Y23.3997
G01 X48.8638 Y23.4021
G01 X48.8565 Y23.4037
G01 X48.8490 Y23.4046
G01 X48.7793 Y23.4096
G01 X48.7722 Y23.4098
G01 X48.7651 Y23.4093
G01 X48.7581 Y23.4081
G01 X48.7512 Y23.4062
G01 X48.7445 Y23.4037
G01 X48.7381 Y23.4006
G01 X48.6767 Y23.3671
G01 X48.6706 Y23.3634
G01 X48.6649 Y23.3591
G01 X48.6596 Y23.3543
G01 X48.5718 Y23.2665
G01 X48.4374 Y23.1836
G01 X48.2870 Y23.1338
G01 X48.1962 Y23.1245
G01 X47.4038 Y23.1245
G01 X47.3130 Y23.1338
G01 X47.1626 Y23.1836
G01 X47.0282 Y23.2665
G01 X46.9165 Y23.3782
G01 X46.8336 Y23.5126
G01 X46.7838 Y23.6630
G01 X46.7745 Y23.7538
G01 X46.7745 Y24.7462
G01 X46.7838 Y24.8370
G01 X46.8336 Y24.9874
G01 X46.9165 Y25.1218
G01 X47.0282 Y25.2335
G01 X47.0921 Y25.2729
G01 X47.0998 Y25.2783
G01 X47.1239 Y25.2978
G01 X47.1297 Y25.3029
G01 X47.1349 Y25.3086
G01 X47.1394 Y25.3148
G01 X47.1433 Y25.3214
G01 X47.1757 Y25.3833
G01 X47.1787 Y25.3898
G01 X47.1811 Y25.3965
G01 X47.1828 Y25.4035
G01 X47.1959 Y25.4702
G01 X47.1968 Y25.4779
G01 X47.1966 Y25.4889
G01 X47.1976 Y25.5075
G01 X47.1976 Y25.5156
G01 X47.1968 Y25.5235
G01 X47.1951 Y25.5314
G01 X47.1925 Y25.5390
G01 X47.1880 Y25.5505
G01 X47.1849 Y25.5697
G01 X47.1829 Y25.5765
G01 X47.1802 Y25.5832
G01 X47.1770 Y25.5895
G01 X47.1731 Y25.5955
G01 X47.1676 Y25.6024
G01 X47.1640 Y25.6105
G01 X47.1605 Y25.6167
G01 X47.1564 Y25.6226
G01 X47.1517 Y25.6280
G01 X47.1466 Y25.6330
G01 X47.1310 Y25.6446
G01 X47.1180 Y25.6591
G01 X47.1126 Y25.6638
G01 X47.1068 Y25.6679
G01 X47.1006 Y25.6715
G01 X47.0941 Y25.6744
G01 X47.0857 Y25.6773
G01 X47.0784 Y25.6822
G01 X47.0720 Y25.6855
G01 X47.0654 Y25.6882
G01 X47.0586 Y25.6902
G01 X47.0516 Y25.6916
G01 X47.0322 Y25.6930
G01 X47.0134 Y25.6981
G01 X47.0064 Y25.6992
G01 X46.9992 Y25.6995
G01 X46.0502 Y25.6995
G01 X46.0419 Y25.6990
G01 X46.0336 Y25.6976
G01 X45.9800 Y25.6855
G01 X45.9727 Y25.6834
G01 X45.9656 Y25.6806
G01 X45.9588 Y25.6771
G01 X45.9524 Y25.6729
G01 X45.9465 Y25.6681
G01 X45.8945 Y25.6214
G01 X45.8895 Y25.6163
G01 X45.8849 Y25.6109
G01 X45.8808 Y25.6050
G01 X45.8335 Y25.5282
G01 X45.7210 Y25.4157
G01 X45.7157 Y25.4097
G01 X45.7110 Y25.4032
G01 X45.6825 Y25.3589
G01 X45.6787 Y25.3524
G01 X45.6757 Y25.3455
G01 X45.6733 Y25.3384
G01 X45.6716 Y25.3311
G01 X45.6707 Y25.3237
G01 X45.6658 Y25.2540
G01 X45.6656 Y25.2469
G01 X45.6661 Y25.2397
G01 X45.6673 Y25.2327
G01 X45.6691 Y25.2258
G01 X45.6716 Y25.2191
G01 X45.6747 Y25.2127
G00 Z2.0000
G00 X44.4000 Y25.6250
G01 F60.00
G01 Z-0.0380
G01 F120.00
G01 X45.3000 Y25.6250
G01 X45.3282 Y25.6263
G01 X45.3355 Y25.6270
G01 X45.3598 Y25.6306
G01 X45.3670 Y25.6321
G01 X45.3908 Y25.6380
G01 X45.3978 Y25.6401
G01 X45.4209 Y25.6484
G01 X45.4277 Y25.6512
G01 X45.4499 Y25.6617
G01 X45.4564 Y25.6652
G01 X45.4775 Y25.6778
G01 X45.4836 Y25.6819
G01 X45.5033 Y25.6965
G01 X45.5090 Y25.7012
G01 X45.5271 Y25.7177
G01 X45.5323 Y25.7229
G01 X45.5488 Y25.7410
G01 X45.5535 Y25.7467
G01 X45.5681 Y25.7664
G01 X45.5722 Y25.7725
G01 X45.5848 Y25.7936
G01 X45.5883 Y25.8001
G01 X45.5988 Y25.8223
G01 X45.6016 Y25.8291
G01 X45.6099 Y25.8522
G01 X45.6120 Y25.8592
G01 X45.6179 Y25.8830
G01 X45.6194 Y25.8902
G01 X45.6230 Y25.9145
G01 X45.6237 Y25.9218
G01 X45.6249 Y25.9463
G01 X45.6250 Y26.0499
G01 X47.6250 Y26.0499
G01 X47.6251 Y26.0338
G01 X47.6258 Y26.0191
G01 X47.6287 Y25.9972
G01 X47.6301 Y25.9900
G01 X47.6358 Y25.9687
G01 X47.6436 Y25.9480
G01 X47.6499 Y25.9347
G01 X47.6609 Y25.9156
G01 X47.6650 Y25.9095
G01 X47.6785 Y25.8920
G01 X47.6884 Y25.8811
G01 X47.7045 Y25.8660
G01 X47.7102 Y25.8613
G01 X47.7249 Y25.8506
G01 X47.7249 Y25.6140
G01 X47.6055 Y25.4945
G01 X47.5897 Y25.4773
G01 X47.5851 Y25.4716
G01 X47.5734 Y25.4558
G01 X47.5693 Y25.4497
G01 X47.5592 Y25.4329
G01 X47.5557 Y25.4264
G01 X47.5473 Y25.4086
G01 X47.5445 Y25.4018
G01 X47.5379 Y25.3834
G01 X47.5358 Y25.3763
G01 X47.5310 Y25.3573
G01 X47.5296 Y25.3500
G01 X47.5267 Y25.3306
G01 X47.5260 Y25.3233
G01 X47.5250 Y25.3037
G01 X47.5249 Y25.0250
G01 X47.4500 Y25.0250
G01 X47.4218 Y25.0237
G01 X47.4145 Y25.0230
G01 X47.3902 Y25.0194
G01 X47.3830 Y25.0179
G01 X47.3592 Y25.0120
G01 X47.3522 Y25.0099
G01 X47.3291 Y25.0016
G01 X47.3223 Y24.9988
G01 X47.3001 Y24.9883
G01 X47.2936 Y24.9848
G01 X47.2725 Y24.9722
G01 X47.2664 Y24.9681
G01 X47.2467 Y24.9535
G01 X47.2410 Y24.9488
G01 X47.2229 Y24.9323
G01 X47.2177 Y24.9271
G01 X47.2012 Y24.9090
G01 X47.1965 Y24.9033
G01 X47.1819 Y24.8836
G01 X47.1778 Y24.8775
G01 X47.1652 Y24.8564
G01 X47.1617 Y24.8499
G01 X47.1512 Y24.8277
G01 X47.1484 Y24.8209
G01 X47.1401 Y24.7978
G01 X47.1380 Y24.7908
G01 X47.1321 Y24.7670
G01 X47.1306 Y24.7598
G01 X47.1270 Y24.7355
G01 X47.1263 Y24.7282
G01 X47.1250 Y24.7000
G01 X47.1250 Y23.8000
G01 X47.1263 Y23.7718
G01 X47.1270 Y23.7645
G01 X47.1306 Y23.7402
G01 X47.1321 Y23.7330
G01 X47.1380 Y23.7092
G01 X47.1401 Y23.7022
G01 X47.1484 Y23.6791
G01 X47.1512 Y23.6723
G01 X47.1617 Y23.6501
G01 X47.1652 Y23.6436
G01 X47.1778 Y23.6225
G01 X47.1819 Y23.6164
G01 X47.1965 Y23.5967
G01 X47.2012 Y23.5910
G01 X47.2177 Y23.5729
G01 X47.2229 Y23.5677
G01 X47.2410 Y23.5512
G01 X47.2467 Y23.5465
G01 X47.2664 Y23.5319
G01 X47.2725 Y23.5278
G01 X47.2936 Y23.5152
G01 X47.3001 Y23.5117
G01 X47.3223 Y23.5012
G01 X47.3291 Y23.4984
G01 X47.3522 Y23.4901
G01 X47.3592 Y23.4880
G01 X47.3830 Y23.4821
G01 X47.3902 Y23.4806
G01 X47.4145 Y23.4770
G01 X47.4218 Y23.4763
G01 X47.4463 Y23.4751
G01 X48.1500 Y23.4750
G01 X48.1782 Y23.4763
G01 X48.1855 Y23.4770
G01 X48.2098 Y23.4806
G01 X48.2170 Y23.4821
G01 X48.2408 Y23.4880
G01 X48.2478 Y23.4901
G01 X48.2709 Y23.4984
G01 X48.2777 Y23.5012
G01 X48.2999 Y23.5117
G01 X48.3064 Y23.5152
G01 X48.3275 Y23.5278
G01 X48.3336 Y23.5319
G01 X48.3533 Y23.5465
G01 X48.3590 Y23.5512
G01 X48.3771 Y23.5677
G01 X48.3823 Y23.5729
G01 X48.3988 Y23.5910
G01 X48.4035 Y23.5967
G01 X48.4181 Y23.6164
G01 X48.4222 Y23.6225
G01 X48.4348 Y23.6436
G01 X48.4383 Y23.6501
G01 X48.4488 Y23.6723
G01 X48.4516 Y23.6791
G01 X48.4599 Y23.7022
G01 X48.4620 Y23.7092
G01 X48.4679 Y23.7330
G01 X48.4694 Y23.7402
G01 X48.4730 Y23.7645
G01 X48.4737 Y23.7718
G01 X48.4750 Y23.8000
G01 X48.4750 Y24.7000
G01 X48.4737 Y24.7282
G01 X48.4730 Y24.7355
G01 X48.4694 Y24.7598
G01 X48.4679 Y24.7670
G01 X48.4620 Y24.7908
G01 X48.4599 Y24.7978
G01 X48.4516 Y24.8209
G01 X48.4488 Y24.8277
G01 X48.4383 Y24.8499
G01 X48.4348 Y24.8564
G01 X48.4222 Y24.8775
G01 X48.4181 Y24.8836
G01 X48.4035 Y24.9033
G01 X48.3988 Y24.9090
G01 X48.3823 Y24.9271
G01 X48.3771 Y24.9323
G01 X48.3590 Y24.9488
G01 X48.3533 Y24.9535
G01 X48.3336 Y24.9681
G01 X48.3275 Y24.9722
G01 X48.3064 Y24.9848
G01 X48.2999 Y24.9883
G01 X48.2777 Y24.9988
G01 X48.2709 Y25.0016
G01 X48.2478 Y25.0099
G01 X48.2408 Y25.0120
G01 X48.2170 Y25.0179
G01 X48.2098 Y25.0194
G01 X48.1855 Y25.0230
G01 X48.1782 Y25.0237
G01 X48.1500 Y25.0250
G01 X48.0751 Y25.0250
G01 X48.0751 Y25.1860
G01 X48.1945 Y25.3055
G01 X48.2103 Y25.3227
G01 X48.2149 Y25.3284
G01 X48.2266 Y25.3442
G01 X48.2307 Y25.3503
G01 X48.2408 Y25.3671
G01 X48.2443 Y25.3736
G01 X48.2527 Y25.3914
G01 X48.2555 Y25.3982
G01 X48.2621 Y25.4166
G01 X48.2642 Y25.4237
G01 X48.2690 Y25.4427
G01 X48.2704 Y25.4500
G01 X48.2733 Y25.4694
G01 X48.2740 Y25.4767
G01 X48.2750 Y25.4963
G01 X48.2751 Y25.8506
G01 X48.2898 Y25.8613
G01 X48.2955 Y25.8660
G01 X48.3116 Y25.8811
G01 X48.3262 Y25.8977
G01 X48.3350 Y25.9095
G01 X48.3466 Y25.9282
G01 X48.3564 Y25.9480
G01 X48.3642 Y25.9687
G01 X48.3699 Y25.9900
G01 X48.3713 Y25.9972
G01 X48.3742 Y26.0191
G01 X48.3750 Y26.0375
G01 X48.3750 Y27.2125
G01 X48.3742 Y27.2309
G01 X48.3713 Y27.2528
G01 X48.3699 Y27.2600
G01 X48.3642 Y27.2813
G01 X48.3564 Y27.3020
G01 X48.3501 Y27.3153
G01 X48.3391 Y27.3344
G01 X48.3350 Y27.3405
G01 X48.3215 Y27.3580
G01 X48.3064 Y27.3741
G01 X48.2955 Y27.3840
G01 X48.2780 Y27.3975
G01 X48.2593 Y27.4091
G01 X48.2528 Y27.4126
G01 X48.2327 Y27.4217
G01 X48.2118 Y27.4288
G01 X48.1903 Y27.4338
G01 X48.1684 Y27.4367
G01 X48.1500 Y27.4375
G01 X47.8500 Y27.4375
G01 X47.8316 Y27.4367
G01 X47.8243 Y27.4360
G01 X47.8025 Y27.4324
G01 X47.7812 Y27.4267
G01 X47.7605 Y27.4189
G01 X47.7407 Y27.4091
G01 X47.7220 Y27.3975
G01 X47.7045 Y27.3840
G01 X47.6884 Y27.3689
G01 X47.6738 Y27.3523
G01 X47.6650 Y27.3405
G01 X47.6534 Y27.3218
G01 X47.6436 Y27.3020
G01 X47.6408 Y27.2952
G01 X47.6337 Y27.2743
G01 X47.6301 Y27.2600
G01 X47.6287 Y27.2528
G01 X47.6258 Y27.2309
G01 X47.6250 Y27.2125
G01 X47.6250 Y26.6037
G01 X47.5714 Y26.5501
G01 X45.6250 Y26.5501
G01 X45.6249 Y26.6537
G01 X45.6237 Y26.6782
G01 X45.6230 Y26.6855
G01 X45.6194 Y26.7098
G01 X45.6179 Y26.7170
G01 X45.6120 Y26.7408
G01 X45.6099 Y26.7478
G01 X45.6016 Y26.7709
G01 X45.5988 Y26.7777
G01 X45.5883 Y26.7999
G01 X45.5848 Y26.8064
G01 X45.5722 Y26.8275
G01 X45.5681 Y26.8336
G01 X45.5535 Y26.8533
G01 X45.5488 Y26.8590
G01 X45.5323 Y26.8771
G01 X45.5271 Y26.8823
G01 X45.5090 Y26.8988
G01 X45.5033 Y26.9035
G01 X45.4836 Y26.9181
G01 X45.4775 Y26.9222
G01 X45.4564 Y26.9348
G01 X45.4499 Y26.9383
G01 X45.4277 Y26.9488
G01 X45.4209 Y26.9516
G01 X45.3978 Y26.9599
G01 X45.3908 Y26.9620
G01 X45.3670 Y26.9679
G01 X45.3598 Y26.9694
G01 X45.3355 Y26.9730
G01 X45.3282 Y26.9737
G01 X45.3000 Y26.9750
G01 X44.4000 Y26.9750
G01 X44.3718 Y26.9737
G01 X44.3645 Y26.9730
G01 X44.3402 Y26.9694
G01 X44.3330 Y26.9679
G01 X44.3092 Y26.9620
G01 X44.3022 Y26.9599
G01 X44.2791 Y26.9516
G01 X44.2723 Y26.9488
G01 X44.2501 Y26.9383
G01 X44.2436 Y26.9348
G01 X44.2225 Y26.9222
G01 X44.2164 Y26.9181
G01 X44.1967 Y26.9035
G01 X44.1910 Y26.8988
G01 X44.1729 Y26.8823
G01 X44.1677 Y26.8771
G01 X44.1512 Y26.8590
G01 X44.1465 Y26.8533
G01 X44.1319 Y26.8336
G01 X44.1278 Y26.8275
G01 X44.1152 Y26.8064
G01 X44.1117 Y26.7999
G01 X44.1012 Y26.7777
G01 X44.0984 Y26.7709
G01 X44.0901 Y26.7478
G01 X44.0880 Y26.7408
G01 X44.0821 Y26.7170
G01 X44.0806 Y26.7098
G01 X44.0770 Y26.6855
G01 X44.0763 Y26.6782
G01 X44.0750 Y26.6500
G01 X44.0750 Y25.9500
G01 X44.0763 Y25.9218
G01 X44.0770 Y25.9145
G01 X44.0806 Y25.8902
G01 X44.0821 Y25.8830
G01 X44.0880 Y25.8592
G01 X44.0901 Y25.8522
G01 X44.0984 Y25.8291
G01 X44.1012 Y25.8223
G01 X44.1117 Y25.8001
G01 X44.1152 Y25.7936
G01 X44.1278 Y25.7725
G01 X44.1319 Y25.7664
G01 X44.1465 Y25.7467
G01 X44.1512 Y25.7410
G01 X44.1677 Y25.7229
G01 X44.1729 Y25.7177
G01 X44.1910 Y25.7012
G01 X44.1967 Y25.6965
G01 X44.2164 Y25.6819
G01 X44.2225 Y25.6778
G01 X44.2436 Y25.6652
G01 X44.2501 Y25.6617
G01 X44.2723 Y25.6512
G01 X44.2791 Y25.6484
G01 X44.3022 Y25.6401
G01 X44.3092 Y25.6380
G01 X44.3330 Y25.6321
G01 X44.3402 Y25.6306
G01 X44.3645 Y25.6270
G01 X44.3718 Y25.6263
G01 X44.4000 Y25.6250
G00 Z2.0000
G00 X45.0535 Y30.2132
G01 F60.00
G01 Z-0.0380
G01 F120.00
G01 X45.0870 Y30.1519
G01 X45.0907 Y30.1458
G01 X45.0950 Y30.1401
G01 X45.0998 Y30.1348
G01 X45.3359 Y29.8987
G01 X45.4043 Y29.7963
G01 X45.4515 Y29.6825
G01 X45.4755 Y29.5616
G01 X45.4755 Y29.4459
G01 X45.4758 Y29.4389
G01 X45.4768 Y29.4319
G01 X45.4785 Y29.4251
G01 X45.4976 Y29.3589
G01 X45.4999 Y29.3522
G01 X45.5028 Y29.3457
G01 X45.5063 Y29.3395
G01 X45.5104 Y29.3337
G01 X45.5150 Y29.3284
G01 X45.5201 Y29.3234
G01 X45.5520 Y29.2953
G01 X45.5570 Y29.2889
G01 X45.5621 Y29.2837
G01 X45.5678 Y29.2789
G01 X45.5738 Y29.2748
G01 X45.7218 Y29.1835
G01 X45.8335 Y29.0718
G01 X45.9164 Y28.9374
G01 X45.9662 Y28.7870
G01 X45.9755 Y28.6962
G01 X45.9755 Y27.9038
G01 X45.9662 Y27.8130
G01 X45.9164 Y27.6626
G01 X45.8335 Y27.5282
G01 X45.7460 Y27.4407
G01 X45.7407 Y27.4347
G01 X45.7360 Y27.4282
G01 X45.7075 Y27.3839
G01 X45.7037 Y27.3774
G01 X45.7007 Y27.3705
G01 X45.6983 Y27.3634
G01 X45.6966 Y27.3561
G01 X45.6957 Y27.3487
G01 X45.6908 Y27.2790
G01 X45.6906 Y27.2719
G01 X45.6911 Y27.2647
G01 X45.6923 Y27.2577
G01 X45.6941 Y27.2508
G01 X45.6966 Y27.2441
G01 X45.6997 Y27.2377
G01 X45.7332 Y27.1764
G01 X45.7369 Y27.1703
G01 X45.7412 Y27.1646
G01 X45.7460 Y27.1593
G01 X45.8335 Y27.0718
G01 X45.8808 Y26.9950
G01 X45.8856 Y26.9882
G01 X45.8912 Y26.9819
G01 X45.9297 Y26.9426
G01 X45.9353 Y26.9375
G01 X45.9414 Y26.9329
G01 X45.9479 Y26.9290
G01 X45.9548 Y26.9257
G01 X45.9620 Y26.9232
G01 X46.0291 Y26.9035
G01 X46.0360 Y26.9019
G01 X46.0431 Y26.9008
G01 X46.0502 Y26.9005
G01 X47.0755 Y26.9005
G01 X47.0835 Y26.9009
G01 X47.0914 Y26.9022
G01 X47.1430 Y26.9134
G01 X47.1502 Y26.9154
G01 X47.1572 Y26.9180
G01 X47.1639 Y26.9214
G01 X47.1702 Y26.9254
G01 X47.1761 Y26.9300
G01 X47.2289 Y26.9758
G01 X47.2341 Y26.9807
G01 X47.2388 Y26.9861
G01 X47.2429 Y26.9919
G01 X47.2465 Y26.9981
G01 X47.2494 Y27.0046
G01 X47.2518 Y27.0113
G01 X47.2715 Y27.0784
G01 X47.2731 Y27.0853
G01 X47.2742 Y27.0924
G01 X47.2745 Y27.0995
G01 X47.2745 Y27.2753
G01 X47.2766 Y27.3015
G01 X47.3176 Y27.4429
G01 X47.3917 Y27.5680
G01 X47.4945 Y27.6709
G01 X47.6196 Y27.7449
G01 X47.7610 Y27.7859
G01 X47.7872 Y27.7880
G01 X48.0255 Y27.7880
G01 X48.0335 Y27.7884
G01 X48.0414 Y27.7897
G01 X48.0930 Y27.8009
G01 X48.1002 Y27.8029
G01 X48.1072 Y27.8055
G01 X48.1139 Y27.8089
G01 X48.1202 Y27.8129
G01 X48.1261 Y27.8175
G01 X48.1789 Y27.8633
G01 X48.1841 Y27.8682
G01 X48.1888 Y27.8736
G01 X48.1929 Y27.8794
G01 X48.1965 Y27.8856
G01 X48.1994 Y27.8921
G01 X48.2018 Y27.8988
G01 X48.2215 Y27.9659
G01 X48.2231 Y27.9728
G01 X48.2242 Y27.9799
G01 X48.2245 Y27.9870
G01 X48.2245 Y29.1503
G01 X48.2266 Y29.1765
G01 X48.2676 Y29.3179
G01 X48.3417 Y29.4430
G01 X48.4445 Y29.5459
G01 X48.5696 Y29.6199
G01 X48.7110 Y29.6609
G01 X48.7372 Y29.6630
G01 X49.1628 Y29.6630
G01 X49.1890 Y29.6609
G01 X49.3304 Y29.6199
G01 X49.4555 Y29.5458
G01 X49.5583 Y29.4430
G01 X49.6324 Y29.3179
G01 X49.6734 Y29.1765
G01 X49.6755 Y29.1502
G01 X49.6755 Y29.0245
G01 X49.6759 Y29.0165
G01 X49.6772 Y29.0086
G01 X49.6884 Y28.9570
G01 X49.6904 Y28.9498
G01 X49.6930 Y28.9428
G01 X49.6964 Y28.9361
G01 X49.7004 Y28.9298
G01 X49.7050 Y28.9239
G01 X49.7508 Y28.8711
G01 X49.7557 Y28.8659
G01 X49.7611 Y28.8612
G01 X49.7669 Y28.8571
G01 X49.7731 Y28.8535
G01 X49.7796 Y28.8506
G01 X49.7863 Y28.8482
G01 X49.8534 Y28.8285
G01 X49.8603 Y28.8269
G01 X49.8674 Y28.8258
G01 X49.8745 Y28.8255
G01 X50.4616 Y28.8255
G01 X50.5825 Y28.8015
G01 X50.6963 Y28.7543
G01 X50.7987 Y28.6859
G01 X50.8848 Y28.5998
G01 X50.8932 Y28.5919
G01 X50.8993 Y28.5868
G01 X50.9060 Y28.5823
G01 X50.9131 Y28.5786
G01 X50.9767 Y28.5496
G01 X50.9833 Y28.5469
G01 X50.9902 Y28.5449
G01 X50.9972 Y28.5435
G01 X51.0043 Y28.5429
G01 X51.0114 Y28.5429
G01 X51.0185 Y28.5435
G01 X51.0877 Y28.5535
G01 X51.0947 Y28.5548
G01 X51.1015 Y28.5569
G01 X51.1082 Y28.5595
G01 X51.1145 Y28.5628
G01 X51.1205 Y28.5666
G01 X51.1261 Y28.5710
G01 X51.1789 Y28.6168
G01 X51.1841 Y28.6217
G01 X51.1888 Y28.6271
G01 X51.1929 Y28.6329
G01 X51.1965 Y28.6391
G01 X51.1994 Y28.6456
G01 X51.2018 Y28.6524
G01 X51.2215 Y28.7194
G01 X51.2231 Y28.7263
G01 X51.2242 Y28.7334
G01 X51.2245 Y28.7405
G01 X51.2245 Y30.2755
G01 X51.2241 Y30.2835
G01 X51.2228 Y30.2914
G01 X51.2116 Y30.3430
G01 X51.2096 Y30.3502
G01 X51.2070 Y30.3572
G01 X51.2036 Y30.3639
G01 X51.1996 Y30.3702
G01 X51.1950 Y30.3761
G01 X51.1492 Y30.4289
G01 X51.1443 Y30.4341
G01 X51.1389 Y30.4388
G01 X51.1331 Y30.4429
G01 X51.1269 Y30.4465
G01 X51.1204 Y30.4494
G01 X51.1137 Y30.4518
G01 X51.0466 Y30.4715
G01 X51.0397 Y30.4731
G01 X51.0326 Y30.4742
G01 X51.0255 Y30.4745
G01 X45.2405 Y30.4745
G01 X45.2290 Y30.4741
G01 X45.2210 Y30.4734
G01 X45.2131 Y30.4719
G01 X45.2055 Y30.4695
G01 X45.1400 Y30.4450
G01 X45.1334 Y30.4422
G01 X45.1272 Y30.4388
G01 X45.1213 Y30.4348
G01 X45.1158 Y30.4303
G01 X45.1107 Y30.4252
G01 X45.1062 Y30.4197
G01 X45.0643 Y30.3638
G01 X45.0603 Y30.3579
G01 X45.0569 Y30.3516
G01 X45.0541 Y30.3450
G01 X45.0519 Y30.3382
G01 X45.0504 Y30.3313
G01 X45.0495 Y30.3242
G01 X45.0445 Y30.2545
G01 X45.0444 Y30.2474
G01 X45.0449 Y30.2402
G01 X45.0461 Y30.2332
G01 X45.0479 Y30.2263
G01 X45.0504 Y30.2196
G01 X45.0535 Y30.2132
G00 Z2.0000
G00 X40.9250 Y29.0500
G01 F60.00
G01 Z-0.0380
G01 F120.00
G01 X40.9250 Y27.7500
G01 X40.9254 Y27.7426
G01 X40.9264 Y27.7354
G01 X40.9282 Y27.7282
G01 X40.9307 Y27.7213
G01 X40.9339 Y27.7146
G01 X40.9376 Y27.7083
G01 X40.9420 Y27.7024
G01 X40.9470 Y27.6970
G01 X40.9524 Y27.6920
G01 X40.9583 Y27.6876
G01 X40.9646 Y27.6839
G01 X40.9713 Y27.6807
G01 X40.9782 Y27.6782
G01 X40.9854 Y27.6764
G01 X40.9926 Y27.6754
G01 X41.0000 Y27.6750
G01 X42.3000 Y27.6750
G01 X42.3074 Y27.6754
G01 X42.3146 Y27.6764
G01 X42.3218 Y27.6782
G01 X42.3287 Y27.6807
G01 X42.3354 Y27.6839
G01 X42.3417 Y27.6876
G01 X42.3476 Y27.6920
G01 X42.3530 Y27.6970
G01 X42.3580 Y27.7024
G01 X42.3624 Y27.7083
G01 X42.3661 Y27.7146
G01 X42.3693 Y27.7213
G01 X42.3718 Y27.7282
G01 X42.3736 Y27.7354
G01 X42.3746 Y27.7426
G01 X42.3750 Y27.7500
G01 X42.3750 Y29.0500
G01 X42.3746 Y29.0574
G01 X42.3736 Y29.0646
G01 X42.3718 Y29.0718
G01 X42.3693 Y29.0787
G01 X42.3661 Y29.0854
G01 X42.3624 Y29.0917
G01 X42.3580 Y29.0976
G01 X42.3530 Y29.1030
G01 X42.3476 Y29.1080
G01 X42.3417 Y29.1124
G01 X42.3354 Y29.1161
G01 X42.3287 Y29.1193
G01 X42.3218 Y29.1218
G01 X42.3146 Y29.1236
G01 X42.3074 Y29.1246
G01 X42.3000 Y29.1250
G01 X41.0000 Y29.1250
G01 X40.9926 Y29.1246
G01 X40.9854 Y29.1236
G01 X40.9782 Y29.1218
G01 X40.9713 Y29.1193
G01 X40.9646 Y29.1161
G01 X40.9583 Y29.1124
G01 X40.9524 Y29.1080
G01 X40.9470 Y29.1030
G01 X40.9420 Y29.0976
G01 X40.9376 Y29.0917
G01 X40.9339 Y29.0854
G01 X40.9307 Y29.0787
G01 X40.9282 Y29.0718
G01 X40.9264 Y29.0646
G01 X40.9254 Y29.0574
G01 X40.9250 Y29.0500
G00 Z2.0000
G00 X34.9918 Y27.6824
G01 F60.00
G01 Z-0.0380
G01 F120.00
G01 X36.2917 Y27.6677
G01 X36.2991 Y27.6679
G01 X36.3064 Y27.6689
G01 X36.3135 Y27.6706
G01 X36.3205 Y27.6730
G01 X36.3272 Y27.6761
G01 X36.3335 Y27.6798
G01 X36.3395 Y27.6841
G01 X36.3450 Y27.6890
G01 X36.3500 Y27.6944
G01 X36.3545 Y27.7003
G01 X36.3583 Y27.7066
G01 X36.3615 Y27.7132
G01 X36.3641 Y27.7201
G01 X36.3660 Y27.7272
G01 X36.3671 Y27.7345
G01 X36.3676 Y27.7418
G01 X36.3823 Y29.0417
G01 X36.3821 Y29.0491
G01 X36.3811 Y29.0564
G01 X36.3794 Y29.0635
G01 X36.3770 Y29.0705
G01 X36.3739 Y29.0772
G01 X36.3702 Y29.0835
G01 X36.3659 Y29.0895
G01 X36.3610 Y29.0950
G01 X36.3556 Y29.1000
G01 X36.3497 Y29.1045
G01 X36.3434 Y29.1083
G01 X36.3368 Y29.1115
G01 X36.3299 Y29.1141
G01 X36.3228 Y29.1160
G01 X36.3155 Y29.1171
G01 X36.3082 Y29.1176
G01 X35.0083 Y29.1323
G01 X35.0009 Y29.1321
G01 X34.9936 Y29.1311
G01 X34.9865 Y29.1294
G01 X34.9795 Y29.1270
G01 X34.9728 Y29.1239
G01 X34.9665 Y29.1202
G01 X34.9605 Y29.1159
G01 X34.9550 Y29.1110
G01 X34.9500 Y29.1056
G01 X34.9455 Y29.0997
G01 X34.9417 Y29.0934
G01 X34.9385 Y29.0868
G01 X34.9359 Y29.0799
G01 X34.9340 Y29.0728
G01 X34.9329 Y29.0655
G01 X34.9324 Y29.0582
G01 X34.9177 Y27.7583
G01 X34.9179 Y27.7509
G01 X34.9189 Y27.7436
G01 X34.9206 Y27.7365
G01 X34.9230 Y27.7295
G01 X34.9261 Y27.7228
G01 X34.9298 Y27.7165
G01 X34.9341 Y27.7105
G01 X34.9390 Y27.7050
G01 X34.9444 Y27.7000
G01 X34.9503 Y27.6955
G01 X34.9566 Y27.6917
G01 X34.9632 Y27.6885
G01 X34.9701 Y27.6859
G01 X34.9772 Y27.6840
G01 X34.9845 Y27.6829
G01 X34.9918 Y27.6824
G00 Z2.0000
G00 X33.3245 Y26.2554
G01 F60.00
G01 Z-0.0380
G01 F120.00
G01 X33.3245 Y17.3806
G01 X33.3253 Y17.3632
G01 X33.3263 Y17.3547
G01 X33.3282 Y17.3464
G01 X33.3310 Y17.3384
G01 X33.3578 Y17.2739
G01 X33.3608 Y17.2675
G01 X33.3645 Y17.2613
G01 X33.3687 Y17.2556
G01 X33.3735 Y17.2502
G01 X33.3787 Y17.2454
G01 X33.3844 Y17.2410
G01 X33.4418 Y17.2013
G01 X33.4479 Y17.1975
G01 X33.4542 Y17.1943
G01 X33.4609 Y17.1917
G01 X33.5374 Y17.1664
G01 X33.6718 Y17.0835
G01 X33.7593 Y16.9960
G01 X33.7653 Y16.9907
G01 X33.7718 Y16.9860
G01 X33.8161 Y16.9575
G01 X33.8226 Y16.9537
G01 X33.8295 Y16.9507
G01 X33.8366 Y16.9483
G01 X33.8439 Y16.9466
G01 X33.8513 Y16.9457
G01 X33.9210 Y16.9408
G01 X33.9281 Y16.9406
G01 X33.9353 Y16.9411
G01 X33.9423 Y16.9423
G01 X33.9492 Y16.9441
G01 X33.9559 Y16.9466
G01 X33.9623 Y16.9497
G01 X34.0236 Y16.9832
G01 X34.0297 Y16.9869
G01 X34.0354 Y16.9912
G01 X34.0407 Y16.9960
G01 X34.1282 Y17.0835
G01 X34.2550 Y17.1617
G01 X34.2618 Y17.1665
G01 X34.2681 Y17.1720
G01 X34.3074 Y17.2105
G01 X34.3125 Y17.2161
G01 X34.3171 Y17.2222
G01 X34.3210 Y17.2288
G01 X34.3243 Y17.2357
G01 X34.3268 Y17.2429
G01 X34.3465 Y17.3099
G01 X34.3481 Y17.3169
G01 X34.3492 Y17.3239
G01 X34.3495 Y17.3311
G01 X34.3495 Y18.3141
G01 X34.3745 Y18.4397
G01 X34.4235 Y18.5581
G01 X34.4947 Y18.6647
G01 X35.5353 Y19.7053
G01 X35.6419 Y19.7765
G01 X35.7603 Y19.8255
G01 X35.8859 Y19.8505
G01 X38.1505 Y19.8505
G01 X38.1585 Y19.8509
G01 X38.1664 Y19.8522
G01 X38.2180 Y19.8634
G01 X38.2252 Y19.8654
G01 X38.2322 Y19.8680
G01 X38.2389 Y19.8714
G01 X38.2452 Y19.8754
G01 X38.2511 Y19.8800
G01 X38.3039 Y19.9258
G01 X38.3091 Y19.9307
G01 X38.3138 Y19.9361
G01 X38.3179 Y19.9419
G01 X38.3215 Y19.9481
G01 X38.3244 Y19.9546
G01 X38.3268 Y19.9613
G01 X38.3465 Y20.0284
G01 X38.3481 Y20.0353
G01 X38.3492 Y20.0424
G01 X38.3495 Y20.0495
G01 X38.3495 Y23.3141
G01 X38.3745 Y23.4397
G01 X38.4235 Y23.5581
G01 X38.4947 Y23.6647
G01 X38.6148 Y23.7848
G01 X38.6227 Y23.7932
G01 X38.6279 Y23.7993
G01 X38.6323 Y23.8060
G01 X38.6361 Y23.8131
G01 X38.6651 Y23.8767
G01 X38.6677 Y23.8833
G01 X38.6697 Y23.8902
G01 X38.6711 Y23.8972
G01 X38.6718 Y23.9043
G01 X38.6718 Y23.9114
G01 X38.6711 Y23.9185
G01 X38.6612 Y23.9877
G01 X38.6598 Y23.9947
G01 X38.6578 Y24.0015
G01 X38.6551 Y24.0082
G01 X38.6519 Y24.0145
G01 X38.6480 Y24.0205
G01 X38.6436 Y24.0261
G01 X38.5978 Y24.0789
G01 X38.5929 Y24.0841
G01 X38.5875 Y24.0888
G01 X38.5817 Y24.0929
G01 X38.5755 Y24.0965
G01 X38.5690 Y24.0994
G01 X38.5623 Y24.1018
G01 X38.4953 Y24.1215
G01 X38.4883 Y24.1231
G01 X38.4813 Y24.1242
G01 X38.4741 Y24.1245
G01 X36.6915 Y24.1245
G01 X36.6835 Y24.1241
G01 X36.6571 Y24.1212
G01 X36.6499 Y24.1201
G01 X36.6427 Y24.1182
G01 X36.6358 Y24.1157
G01 X36.6292 Y24.1125
G01 X36.5679 Y24.0790
G01 X36.5618 Y24.0753
G01 X36.5561 Y24.0710
G01 X36.5508 Y24.0662
G01 X36.3338 Y23.8492
G01 X36.3284 Y23.8432
G01 X36.3118 Y23.8226
G01 X36.3075 Y23.8166
G01 X36.3037 Y23.8103
G01 X36.3006 Y23.8036
G01 X36.2982 Y23.7967
G01 X36.2785 Y23.7296
G01 X36.2769 Y23.7227
G01 X36.2758 Y23.7156
G01 X36.2755 Y23.7085
G01 X36.2755 Y23.6514
G01 X36.2759 Y23.6399
G01 X36.2766 Y23.6319
G01 X36.2791 Y23.6210
G01 X36.2813 Y23.6058
G01 X36.2829 Y23.5980
G01 X36.2853 Y23.5903
G01 X36.2885 Y23.5829
G01 X36.2924 Y23.5760
G01 X36.3000 Y23.5641
G01 X36.3078 Y23.5444
G01 X36.3112 Y23.5381
G01 X36.3152 Y23.5322
G01 X36.3197 Y23.5267
G01 X36.3248 Y23.5216
G01 X36.3302 Y23.5171
G01 X36.3343 Y23.5114
G01 X36.3390 Y23.5060
G01 X36.3442 Y23.5010
G01 X36.3498 Y23.4966
G01 X36.3558 Y23.4928
G01 X36.3749 Y23.4837
G01 X36.3921 Y23.4712
G01 X36.3984 Y23.4678
G01 X36.4050 Y23.4650
G01 X36.5060 Y23.4273
G01 X36.6040 Y23.3540
G01 X36.6773 Y23.2560
G01 X36.7205 Y23.1401
G01 X36.7255 Y23.0939
G01 X36.7255 Y21.7061
G01 X36.7205 Y21.6599
G01 X36.6773 Y21.5440
G01 X36.6040 Y21.4460
G01 X36.5060 Y21.3727
G01 X36.3901 Y21.3295
G01 X36.3439 Y21.3245
G01 X34.9561 Y21.3245
G01 X34.9099 Y21.3295
G01 X34.7940 Y21.3727
G01 X34.6960 Y21.4460
G01 X34.6227 Y21.5440
G01 X34.5795 Y21.6599
G01 X34.5745 Y21.7062
G01 X34.5745 Y23.0939
G01 X34.5795 Y23.1401
G01 X34.6227 Y23.2560
G01 X34.6960 Y23.3540
G01 X34.7940 Y23.4273
G01 X34.8975 Y23.4660
G01 X34.9130 Y23.4728
G01 X34.9198 Y23.4770
G01 X34.9261 Y23.4820
G01 X34.9789 Y23.5277
G01 X34.9841 Y23.5326
G01 X34.9888 Y23.5380
G01 X34.9929 Y23.5439
G01 X34.9965 Y23.5500
G01 X34.9994 Y23.5565
G01 X35.0018 Y23.5633
G01 X35.0215 Y23.6303
G01 X35.0231 Y23.6372
G01 X35.0242 Y23.6443
G01 X35.0245 Y23.6514
G01 X35.0245 Y24.1116
G01 X35.0485 Y24.2325
G01 X35.0957 Y24.3463
G01 X35.1641 Y24.4487
G01 X35.9513 Y25.2359
G01 X36.0537 Y25.3043
G01 X36.1675 Y25.3515
G01 X36.2884 Y25.3755
G01 X43.6046 Y25.3755
G01 X43.6155 Y25.3763
G01 X43.6514 Y25.3816
G01 X43.6593 Y25.3832
G01 X43.6671 Y25.3857
G01 X43.6745 Y25.3890
G01 X43.6815 Y25.3930
G01 X43.7400 Y25.4313
G01 X43.7457 Y25.4355
G01 X43.7511 Y25.4402
G01 X43.7560 Y25.4454
G01 X43.7603 Y25.4510
G01 X43.7642 Y25.4571
G01 X43.7674 Y25.4634
G01 X43.7959 Y25.5272
G01 X43.7985 Y25.5338
G01 X43.8005 Y25.5407
G01 X43.8017 Y25.5477
G01 X43.8024 Y25.5548
G01 X43.8023 Y25.5619
G01 X43.8016 Y25.5690
G01 X43.7916 Y25.6350
G01 X43.7897 Y25.6452
G01 X43.7876 Y25.6520
G01 X43.7851 Y25.6583
G01 X43.7338 Y25.8130
G01 X43.7245 Y25.9038
G01 X43.7245 Y26.6962
G01 X43.7338 Y26.7870
G01 X43.7836 Y26.9374
G01 X43.8665 Y27.0718
G01 X43.9540 Y27.1593
G01 X43.9593 Y27.1653
G01 X43.9640 Y27.1718
G01 X43.9925 Y27.2161
G01 X43.9963 Y27.2226
G01 X43.9993 Y27.2295
G01 X44.0017 Y27.2366
G01 X44.0034 Y27.2439
G01 X44.0043 Y27.2513
G01 X44.0092 Y27.3210
G01 X44.0094 Y27.3281
G01 X44.0089 Y27.3353
G01 X44.0077 Y27.3423
G01 X44.0059 Y27.3492
G01 X44.0034 Y27.3559
G01 X44.0003 Y27.3623
G01 X43.9668 Y27.4236
G01 X43.9631 Y27.4297
G01 X43.9588 Y27.4354
G01 X43.9540 Y27.4407
G01 X43.8665 Y27.5282
G01 X43.7836 Y27.6626
G01 X43.7338 Y27.8130
G01 X43.7245 Y27.9038
G01 X43.7245 Y28.6962
G01 X43.7338 Y28.7870
G01 X43.7836 Y28.9374
G01 X43.8665 Y29.0718
G01 X43.8874 Y29.0932
G01 X43.8925 Y29.0993
G01 X43.8970 Y29.1060
G01 X43.9007 Y29.1131
G01 X43.9297 Y29.1767
G01 X43.9324 Y29.1833
G01 X43.9344 Y29.1902
G01 X43.9357 Y29.1972
G01 X43.9364 Y29.2043
G01 X43.9364 Y29.2114
G01 X43.9357 Y29.2185
G01 X43.9258 Y29.2877
G01 X43.9244 Y29.2947
G01 X43.9224 Y29.3015
G01 X43.9198 Y29.3082
G01 X43.9165 Y29.3145
G01 X43.9127 Y29.3205
G01 X43.9082 Y29.3261
G01 X43.8625 Y29.3789
G01 X43.8576 Y29.3841
G01 X43.8522 Y29.3888
G01 X43.8464 Y29.3929
G01 X43.8402 Y29.3965
G01 X43.8337 Y29.3994
G01 X43.8269 Y29.4018
G01 X43.7599 Y29.4215
G01 X43.7530 Y29.4231
G01 X43.7459 Y29.4242
G01 X43.7388 Y29.4245
G01 X42.9011 Y29.4245
G01 X42.8931 Y29.4241
G01 X42.8667 Y29.4212
G01 X42.8594 Y29.4201
G01 X42.8523 Y29.4182
G01 X42.8454 Y29.4157
G01 X42.8388 Y29.4125
G01 X42.7774 Y29.3790
G01 X42.7713 Y29.3753
G01 X42.7656 Y29.3710
G01 X42.7604 Y29.3662
G01 X42.7556 Y29.3609
G01 X42.7513 Y29.3552
G01 X42.7476 Y29.3491
G01 X42.7141 Y29.2878
G01 X42.7110 Y29.2814
G01 X42.7085 Y29.2747
G01 X42.7066 Y29.2678
G01 X42.7054 Y29.2608
G01 X42.7049 Y29.2536
G01 X42.7051 Y29.2465
G01 X42.7101 Y29.1768
G01 X42.7109 Y29.1697
G01 X42.7124 Y29.1628
G01 X42.7146 Y29.1560
G01 X42.7205 Y29.1401
G01 X42.7255 Y29.0939
G01 X42.7255 Y27.7061
G01 X42.7205 Y27.6599
G01 X42.6773 Y27.5440
G01 X42.6040 Y27.4460
G01 X42.5060 Y27.3727
G01 X42.3901 Y27.3295
G01 X42.3439 Y27.3245
G01 X40.9561 Y27.3245
G01 X40.9099 Y27.3295
G01 X40.7940 Y27.3727
G01 X40.6960 Y27.4460
G01 X40.6227 Y27.5440
G01 X40.5795 Y27.6599
G01 X40.5745 Y27.7062
G01 X40.5745 Y29.0939
G01 X40.5795 Y29.1401
G01 X40.5854 Y29.1560
G01 X40.5878 Y29.1636
G01 X40.5943 Y29.1893
G01 X40.5958 Y29.1965
G01 X40.5972 Y29.2086
G01 X40.5976 Y29.2167
G01 X40.5972 Y29.2247
G01 X40.5959 Y29.2326
G01 X40.5899 Y29.2600
G01 X40.5860 Y29.2877
G01 X40.5846 Y29.2947
G01 X40.5826 Y29.3015
G01 X40.5799 Y29.3082
G01 X40.5736 Y29.3209
G01 X40.5699 Y29.3270
G01 X40.5656 Y29.3327
G01 X40.5608 Y29.3380
G01 X40.5410 Y29.3578
G01 X40.5227 Y29.3789
G01 X40.5177 Y29.3841
G01 X40.5123 Y29.3888
G01 X40.5065 Y29.3929
G01 X40.4943 Y29.4002
G01 X40.4879 Y29.4033
G01 X40.4812 Y29.4058
G01 X40.4743 Y29.4076
G01 X40.4469 Y29.4136
G01 X40.4201 Y29.4215
G01 X40.4131 Y29.4231
G01 X40.4061 Y29.4242
G01 X40.3989 Y29.4245
G01 X36.9011 Y29.4245
G01 X36.8931 Y29.4241
G01 X36.8667 Y29.4212
G01 X36.8594 Y29.4201
G01 X36.8523 Y29.4182
G01 X36.8454 Y29.4157
G01 X36.8388 Y29.4125
G01 X36.7774 Y29.3790
G01 X36.7713 Y29.3753
G01 X36.7656 Y29.3710
G01 X36.7604 Y29.3662
G01 X36.7556 Y29.3609
G01 X36.7513 Y29.3552
G01 X36.7476 Y29.3491
G01 X36.7141 Y29.2878
G01 X36.7110 Y29.2814
G01 X36.7085 Y29.2747
G01 X36.7066 Y29.2678
G01 X36.7054 Y29.2608
G01 X36.7049 Y29.2536
G01 X36.7051 Y29.2465
G01 X36.7101 Y29.1768
G01 X36.7109 Y29.1697
G01 X36.7124 Y29.1628
G01 X36.7146 Y29.1560
G01 X36.7205 Y29.1401
G01 X36.7255 Y29.0939
G01 X36.7255 Y27.7061
G01 X36.7205 Y27.6599
G01 X36.6773 Y27.5440
G01 X36.6040 Y27.4460
G01 X36.5060 Y27.3727
G01 X36.3901 Y27.3295
G01 X36.3439 Y27.3245
G01 X35.1029 Y27.3245
G01 X35.0942 Y27.3240
G01 X35.0657 Y27.3207
G01 X35.0582 Y27.3194
G01 X35.0510 Y27.3174
G01 X35.0439 Y27.3147
G01 X35.0372 Y27.3114
G01 X34.9765 Y27.2768
G01 X34.9705 Y27.2730
G01 X34.9648 Y27.2686
G01 X34.9596 Y27.2637
G01 X34.9549 Y27.2583
G01 X34.9508 Y27.2525
G01 X34.9472 Y27.2464
G01 X34.9148 Y27.1845
G01 X34.9118 Y27.1780
G01 X34.9094 Y27.1712
G01 X34.9077 Y27.1643
G01 X34.8880 Y27.0655
G01 X34.8145 Y26.8879
G01 X34.7077 Y26.7282
G01 X34.5718 Y26.5923
G01 X34.4121 Y26.4855
G01 X34.2345 Y26.4120
G01 X34.0461 Y26.3745
G01 X33.8539 Y26.3745
G01 X33.6655 Y26.4120
G01 X33.5996 Y26.4392
G01 X33.5908 Y26.4423
G01 X33.5610 Y26.4505
G01 X33.5535 Y26.4521
G01 X33.5458 Y26.4530
G01 X33.5381 Y26.4531
G01 X33.5305 Y26.4524
G01 X33.4613 Y26.4424
G01 X33.4543 Y26.4411
G01 X33.4475 Y26.4391
G01 X33.4408 Y26.4364
G01 X33.4345 Y26.4331
G01 X33.4285 Y26.4293
G01 X33.4229 Y26.4249
G01 X33.3701 Y26.3791
G01 X33.3649 Y26.3742
G01 X33.3602 Y26.3688
G01 X33.3561 Y26.3630
G01 X33.3525 Y26.3568
G01 X33.3496 Y26.3503
G01 X33.3472 Y26.3436
G01 X33.3275 Y26.2765
G01 X33.3259 Y26.2696
G01 X33.3248 Y26.2625
G01 X33.3245 Y26.2554
G00 Z2.0000
G00 X32.0481 Y27.7275
G01 F60.00
G01 Z-0.0380
G01 F120.00
G01 X32.3739 Y27.4017
G01 X32.3739 Y16.8750
G01 X32.3463 Y16.8749
G01 X32.3218 Y16.8737
G01 X32.3145 Y16.8730
G01 X32.2902 Y16.8694
G01 X32.2830 Y16.8679
G01 X32.2592 Y16.8620
G01 X32.2522 Y16.8599
G01 X32.2291 Y16.8516
G01 X32.2223 Y16.8488
G01 X32.2001 Y16.8383
G01 X32.1936 Y16.8348
G01 X32.1725 Y16.8222
G01 X32.1664 Y16.8181
G01 X32.1467 Y16.8035
G01 X32.1410 Y16.7988
G01 X32.1229 Y16.7823
G01 X32.1177 Y16.7771
G01 X32.1012 Y16.7590
G01 X32.0965 Y16.7533
G01 X32.0819 Y16.7336
G01 X32.0778 Y16.7275
G01 X32.0652 Y16.7064
G01 X32.0617 Y16.6999
G01 X32.0512 Y16.6777
G01 X32.0484 Y16.6709
G01 X32.0401 Y16.6478
G01 X32.0380 Y16.6408
G01 X32.0321 Y16.6170
G01 X32.0306 Y16.6098
G01 X32.0270 Y16.5855
G01 X32.0263 Y16.5782
G01 X32.0250 Y16.5500
G01 X32.0250 Y15.8500
G01 X32.0263 Y15.8218
G01 X32.0270 Y15.8145
G01 X32.0306 Y15.7902
G01 X32.0321 Y15.7830
G01 X32.0380 Y15.7592
G01 X32.0401 Y15.7522
G01 X32.0484 Y15.7291
G01 X32.0512 Y15.7223
G01 X32.0617 Y15.7001
G01 X32.0652 Y15.6936
G01 X32.0778 Y15.6725
G01 X32.0819 Y15.6664
G01 X32.0965 Y15.6467
G01 X32.1012 Y15.6410
G01 X32.1177 Y15.6229
G01 X32.1229 Y15.6177
G01 X32.1410 Y15.6012
G01 X32.1467 Y15.5965
G01 X32.1664 Y15.5819
G01 X32.1725 Y15.5778
G01 X32.1936 Y15.5652
G01 X32.2001 Y15.5617
G01 X32.2223 Y15.5512
G01 X32.2291 Y15.5484
G01 X32.2522 Y15.5401
G01 X32.2592 Y15.5380
G01 X32.2830 Y15.5321
G01 X32.2902 Y15.5306
G01 X32.3145 Y15.5270
G01 X32.3218 Y15.5263
G01 X32.3500 Y15.5250
G01 X33.2500 Y15.5250
G01 X33.2782 Y15.5263
G01 X33.2855 Y15.5270
G01 X33.3098 Y15.5306
G01 X33.3170 Y15.5321
G01 X33.3408 Y15.5380
G01 X33.3478 Y15.5401
G01 X33.3709 Y15.5484
G01 X33.3777 Y15.5512
G01 X33.3999 Y15.5617
G01 X33.4064 Y15.5652
G01 X33.4275 Y15.5778
G01 X33.4336 Y15.5819
G01 X33.4533 Y15.5965
G01 X33.4590 Y15.6012
G01 X33.4771 Y15.6177
G01 X33.4823 Y15.6229
G01 X33.4988 Y15.6410
G01 X33.5035 Y15.6467
G01 X33.5181 Y15.6664
G01 X33.5222 Y15.6725
G01 X33.5348 Y15.6936
G01 X33.5383 Y15.7001
G01 X33.5488 Y15.7223
G01 X33.5516 Y15.7291
G01 X33.5599 Y15.7522
G01 X33.5620 Y15.7592
G01 X33.5679 Y15.7830
G01 X33.5694 Y15.7902
G01 X33.5730 Y15.8145
G01 X33.5737 Y15.8218
G01 X33.5750 Y15.8500
G01 X33.5750 Y15.8999
G01 X34.2250 Y15.8999
G01 X34.2250 Y15.8500
G01 X34.2263 Y15.8218
G01 X34.2270 Y15.8145
G01 X34.2306 Y15.7902
G01 X34.2321 Y15.7830
G01 X34.2380 Y15.7592
G01 X34.2401 Y15.7522
G01 X34.2484 Y15.7291
G01 X34.2512 Y15.7223
G01 X34.2617 Y15.7001
G01 X34.2652 Y15.6936
G01 X34.2778 Y15.6725
G01 X34.2819 Y15.6664
G01 X34.2965 Y15.6467
G01 X34.3012 Y15.6410
G01 X34.3177 Y15.6229
G01 X34.3229 Y15.6177
G01 X34.3410 Y15.6012
G01 X34.3467 Y15.5965
G01 X34.3664 Y15.5819
G01 X34.3725 Y15.5778
G01 X34.3936 Y15.5652
G01 X34.4001 Y15.5617
G01 X34.4223 Y15.5512
G01 X34.4291 Y15.5484
G01 X34.4522 Y15.5401
G01 X34.4592 Y15.5380
G01 X34.4830 Y15.5321
G01 X34.4902 Y15.5306
G01 X34.5145 Y15.5270
G01 X34.5218 Y15.5263
G01 X34.5500 Y15.5250
G01 X35.4500 Y15.5250
G01 X35.4782 Y15.5263
G01 X35.4855 Y15.5270
G01 X35.5098 Y15.5306
G01 X35.5170 Y15.5321
G01 X35.5408 Y15.5380
G01 X35.5478 Y15.5401
G01 X35.5709 Y15.5484
G01 X35.5777 Y15.5512
G01 X35.5999 Y15.5617
G01 X35.6064 Y15.5652
G01 X35.6275 Y15.5778
G01 X35.6336 Y15.5819
G01 X35.6533 Y15.5965
G01 X35.6590 Y15.6012
G01 X35.6771 Y15.6177
G01 X35.6823 Y15.6229
G01 X35.6988 Y15.6410
G01 X35.7035 Y15.6467
G01 X35.7181 Y15.6664
G01 X35.7222 Y15.6725
G01 X35.7348 Y15.6936
G01 X35.7383 Y15.7001
G01 X35.7488 Y15.7223
G01 X35.7516 Y15.7291
G01 X35.7599 Y15.7522
G01 X35.7620 Y15.7592
G01 X35.7679 Y15.7830
G01 X35.7694 Y15.7902
G01 X35.7730 Y15.8145
G01 X35.7737 Y15.8218
G01 X35.7750 Y15.8500
G01 X35.7750 Y16.5500
G01 X35.7737 Y16.5782
G01 X35.7730 Y16.5855
G01 X35.7694 Y16.6098
G01 X35.7679 Y16.6170
G01 X35.7620 Y16.6408
G01 X35.7599 Y16.6478
G01 X35.7516 Y16.6709
G01 X35.7488 Y16.6777
G01 X35.7383 Y16.6999
G01 X35.7348 Y16.7064
G01 X35.7222 Y16.7275
G01 X35.7181 Y16.7336
G01 X35.7035 Y16.7533
G01 X35.6988 Y16.7590
G01 X35.6823 Y16.7771
G01 X35.6771 Y16.7823
G01 X35.6590 Y16.7988
G01 X35.6533 Y16.8035
G01 X35.6336 Y16.8181
G01 X35.6275 Y16.8222
G01 X35.6064 Y16.8348
G01 X35.5999 Y16.8383
G01 X35.5777 Y16.8488
G01 X35.5709 Y16.8516
G01 X35.5478 Y16.8599
G01 X35.5408 Y16.8620
G01 X35.5170 Y16.8679
G01 X35.5098 Y16.8694
G01 X35.4855 Y16.8730
G01 X35.4782 Y16.8737
G01 X35.4537 Y16.8749
G01 X35.3001 Y16.8750
G01 X35.3001 Y18.1257
G01 X36.0743 Y18.8999
G01 X38.6999 Y18.8999
G01 X38.6999 Y17.9109
G01 X38.6840 Y17.8987
G01 X38.6722 Y17.8880
G01 X38.6563 Y17.8710
G01 X38.6421 Y17.8525
G01 X38.6299 Y17.8327
G01 X38.6264 Y17.8262
G01 X38.6196 Y17.8118
G01 X38.6114 Y17.7899
G01 X38.6054 Y17.7674
G01 X38.6016 Y17.7444
G01 X38.6009 Y17.7371
G01 X38.6000 Y17.7175
G01 X38.6001 Y16.4788
G01 X38.6009 Y16.4629
G01 X38.6039 Y16.4398
G01 X38.6092 Y16.4171
G01 X38.6168 Y16.3950
G01 X38.6264 Y16.3738
G01 X38.6381 Y16.3537
G01 X38.6516 Y16.3347
G01 X38.6670 Y16.3172
G01 X38.6840 Y16.3013
G01 X38.6897 Y16.2966
G01 X38.7087 Y16.2831
G01 X38.7288 Y16.2714
G01 X38.7500 Y16.2618
G01 X38.7721 Y16.2542
G01 X38.7876 Y16.2504
G01 X38.8106 Y16.2466
G01 X38.8179 Y16.2459
G01 X38.8375 Y16.2450
