(G-CODE GENERATED BY FLATCAM v8.991 - www.flatcam.org - Version Date: 2019/12/27)

(Name: 2.drill03)
(Type: G-code from Excellon)
(Units: MM)

(Created on Friday, 28 November 2025 at 21:02)

(Feedrate: 300.0 mm/min)
(Feedrate rapids 1500.0 mm/min)

(Z_Cut: -1.7 mm)
(Z_Move: 2.0 mm)
(Z Toolchange: 15.0 mm)
(X,Y Toolchange: 0.0000, 0.0000 mm)
(Z Start: None mm)
(Z End: 0.5 mm)
(Steps per circle: 64)
(Preprocessor Excellon: default)

(X range:    0.8992 ...   49.5503  mm)
(Y range:    1.0008 ...   29.9999  mm)

(Spindle Speed: None RPM)
G21
G90
G94




G01 F300.00
G00 Z2.0000

M03
G00 X1.0490 Y24.7498
G01 Z-1.7000
G01 Z0
G00 Z2.0000
G00 X6.4491 Y16.7996
G01 Z-1.7000
G01 Z0
G00 Z2.0000
G00 X5.8242 Y8.8240
G01 Z-1.7000
G01 Z0
G00 Z2.0000
G00 X1.6993 Y6.2001
G01 Z-1.7000
G01 Z0
G00 Z2.0000
G00 X1.3005 Y3.7008
G01 Z-1.7000
G01 Z0
G00 Z2.0000
G00 X3.2512 Y4.4501
G01 Z-1.7000
G01 Z0
G00 Z2.0000
G00 X7.0002 Y4.4501
G01 Z-1.7000
G01 Z0
G00 Z2.0000
G00 X11.1989 Y4.4501
G01 Z-1.7000
G01 Z0
G00 Z2.0000
G00 X14.3510 Y10.3505
G01 Z-1.7000
G01 Z0
G00 Z2.0000
G00 X21.8491 Y1.1506
G01 Z-1.7000
G01 Z0
G00 Z2.0000
G00 X28.6512 Y4.5009
G01 Z-1.7000
G01 Z0
G00 Z2.0000
G00 X27.0002 Y4.6507
G01 Z-1.7000
G01 Z0
G00 Z2.0000
G00 X24.8006 Y7.0993
G01 Z-1.7000
G01 Z0
G00 Z2.0000
G00 X25.7988 Y12.4993
G01 Z-1.7000
G01 Z0
G00 Z2.0000
G00 X20.8509 Y12.6492
G01 Z-1.7000
G01 Z0
G00 Z2.0000
G00 X20.8661 Y16.8046
G01 Z-1.7000
G01 Z0
G00 Z2.0000
G00 X24.0005 Y15.9512
G01 Z-1.7000
G01 Z0
G00 Z2.0000
G00 X25.4000 Y15.9004
G01 Z-1.7000
G01 Z0
G00 Z2.0000
G00 X26.0858 Y18.8722
G01 Z-1.7000
G01 Z0
G00 Z2.0000
G00 X29.6494 Y17.0993
G01 Z-1.7000
G01 Z0
G00 Z2.0000
G00 X30.5511 Y17.8994
G01 Z-1.7000
G01 Z0
G00 Z2.0000
G00 X29.7155 Y18.9205
G01 Z-1.7000
G01 Z0
G00 Z2.0000
G00 X29.4488 Y20.0508
G01 Z-1.7000
G01 Z0
G00 Z2.0000
G00 X31.4503 Y21.7500
G01 Z-1.7000
G01 Z0
G00 Z2.0000
G00 X34.0004 Y19.0500
G01 Z-1.7000
G01 Z0
G00 Z2.0000
G00 X37.0992 Y18.3007
G01 Z-1.7000
G01 Z0
G00 Z2.0000
G00 X37.0002 Y15.0749
G01 Z-1.7000
G01 Z0
G00 Z2.0000
G00 X33.4010 Y4.5999
G01 Z-1.7000
G01 Z0
G00 Z2.0000
G00 X46.4007 Y1.1506
G01 Z-1.7000
G01 Z0
G00 Z2.0000
G00 X46.7995 Y15.9004
G01 Z-1.7000
G01 Z0
G00 Z2.0000
G00 X46.5988 Y22.4003
G01 Z-1.7000
G01 Z0
G00 Z2.0000
G00 X46.9494 Y28.6512
G01 Z-1.7000
G01 Z0
G00 Z2.0000
G00 X31.9989 Y28.1991
G01 Z-1.7000
G01 Z0
G00 Z2.0000
G00 X28.8011 Y25.8496
G01 Z-1.7000
G01 Z0
G00 Z2.0000
G00 X26.0502 Y24.2494
G01 Z-1.7000
G01 Z0
G00 Z2.0000
G00 X23.9751 Y22.4511
G01 Z-1.7000
G01 Z0
G00 Z2.0000
G00 X22.6009 Y26.9494
G01 Z-1.7000
G01 Z0
G00 Z2.0000
G00 X25.0012 Y29.8501
G01 Z-1.7000
G01 Z0
G00 Z2.0000
G00 X15.8496 Y25.9994
G01 Z-1.7000
G01 Z0
G00 Z2.0000
G00 X18.0492 Y21.0007
G01 Z-1.7000
G01 Z0
G00 Z2.0000
G00 X15.9004 Y16.2992
G01 Z-1.7000
G01 Z0
G00 Z2.0000
G00 X14.2011 Y16.4008
G01 Z-1.7000
G01 Z0
G00 Z2.0000
M05
G00 Z0.50
G00 X0.0 Y0.0

