(G-CODE GENERATED BY FLATCAM v8.991 - www.flatcam.org - Version Date: 2019/12/27)

(Name: 3.bottom01)
(Type: G-code from Geometry)
(Units: MM)

(Created on Friday, 28 November 2025 at 22:35)

(TOOL DIAMETER: 0.15 mm)
(Feedrate: 120.0 mm/min)
(Feedrate_Z: 60.0 mm/min)
(Feedrate rapids 1500.0 mm/min)

(Z_Cut: -0.039 mm)
(Z_Move: 2.0 mm)
(Z Toolchange: 15.0 mm)
(X,Y Toolchange: 0.0000, 0.0000 mm)
(Z Start: None mm)
(Z End: 15.0 mm)
(Steps per circle: 64)
(Preprocessor Geometry: default)

(X range:    0.4255 ...   51.2245  mm)
(Y range:   -0.4745 ...   29.5753  mm)

(Spindle Speed: 10000 RPM)
G21
G90
G94




G01 F120.00
G00 Z2.0000

M03 S10000
G00 X0.4255 Y-0.2755
G01 F60.00
G01 Z-0.0390
G01 F120.00
G01 X0.4258 Y-0.2826
G01 X0.4269 Y-0.2897
G01 X0.4285 Y-0.2966
G01 X0.4482 Y-0.3637
G01 X0.4506 Y-0.3704
G01 X0.4535 Y-0.3769
G01 X0.4571 Y-0.3831
G01 X0.4612 Y-0.3889
G01 X0.4659 Y-0.3943
G01 X0.4711 Y-0.3992
G01 X0.5239 Y-0.4450
G01 X0.5298 Y-0.4496
G01 X0.5361 Y-0.4536
G01 X0.5428 Y-0.4570
G01 X0.5498 Y-0.4596
G01 X0.5570 Y-0.4616
G01 X0.6086 Y-0.4728
G01 X0.6165 Y-0.4741
G01 X0.6245 Y-0.4745
G01 X24.1756 Y-0.4745
G01 X24.1827 Y-0.4742
G01 X24.1898 Y-0.4731
G01 X24.1967 Y-0.4715
G01 X24.2637 Y-0.4518
G01 X24.2705 Y-0.4494
G01 X24.2770 Y-0.4465
G01 X24.2832 Y-0.4429
G01 X24.2890 Y-0.4388
G01 X24.2944 Y-0.4341
G01 X24.2993 Y-0.4289
G01 X24.3451 Y-0.3761
G01 X24.3495 Y-0.3705
G01 X24.3533 Y-0.3645
G01 X24.3566 Y-0.3582
G01 X24.3592 Y-0.3515
G01 X24.3613 Y-0.3447
G01 X24.3626 Y-0.3377
G01 X24.3726 Y-0.2685
G01 X24.3733 Y-0.2609
G01 X24.3732 Y-0.2532
G01 X24.3723 Y-0.2455
G01 X24.3706 Y-0.2380
G01 X24.3625 Y-0.2082
G01 X24.3594 Y-0.1993
G01 X24.3024 Y-0.0616
G01 X24.2745 Y0.0785
G01 X24.2745 Y0.2215
G01 X24.3024 Y0.3616
G01 X24.3096 Y0.3791
G01 X25.1750 Y1.2445
G01 X25.1751 Y1.1963
G01 X25.1770 Y1.1571
G01 X25.1777 Y1.1498
G01 X25.1835 Y1.1110
G01 X25.1849 Y1.1037
G01 X25.1945 Y1.0657
G01 X25.1966 Y1.0586
G01 X25.2098 Y1.0217
G01 X25.2126 Y1.0149
G01 X25.2294 Y0.9794
G01 X25.2329 Y0.9729
G01 X25.2531 Y0.9392
G01 X25.2572 Y0.9331
G01 X25.2806 Y0.9016
G01 X25.2852 Y0.8959
G01 X25.3116 Y0.8668
G01 X25.3168 Y0.8616
G01 X25.3459 Y0.8352
G01 X25.3516 Y0.8306
G01 X25.3831 Y0.8072
G01 X25.3892 Y0.8031
G01 X25.4229 Y0.7829
G01 X25.4294 Y0.7794
G01 X25.4649 Y0.7626
G01 X25.4717 Y0.7598
G01 X25.5086 Y0.7466
G01 X25.5157 Y0.7445
G01 X25.5537 Y0.7349
G01 X25.5610 Y0.7335
G01 X25.5998 Y0.7277
G01 X25.6071 Y0.7270
G01 X25.6500 Y0.7250
G01 X26.4500 Y0.7250
G01 X26.4929 Y0.7270
G01 X26.5002 Y0.7277
G01 X26.5390 Y0.7335
G01 X26.5463 Y0.7349
G01 X26.5843 Y0.7445
G01 X26.5914 Y0.7466
G01 X26.6283 Y0.7598
G01 X26.6351 Y0.7626
G01 X26.6706 Y0.7794
G01 X26.6771 Y0.7829
G01 X26.7108 Y0.8031
G01 X26.7169 Y0.8072
G01 X26.7484 Y0.8306
G01 X26.7541 Y0.8352
G01 X26.7832 Y0.8616
G01 X26.7884 Y0.8668
G01 X26.8148 Y0.8959
G01 X26.8194 Y0.9016
G01 X26.8428 Y0.9331
G01 X26.8469 Y0.9392
G01 X26.8671 Y0.9729
G01 X26.8706 Y0.9794
G01 X26.8874 Y1.0149
G01 X26.8902 Y1.0217
G01 X26.9034 Y1.0586
G01 X26.9055 Y1.0657
G01 X26.9151 Y1.1037
G01 X26.9165 Y1.1110
G01 X26.9223 Y1.1498
G01 X26.9230 Y1.1571
G01 X26.9250 Y1.2000
G01 X26.9250 Y2.0654
G01 X27.2313 Y2.3717
G01 X27.2696 Y2.2288
G01 X27.2750 Y2.1600
G01 X27.2750 Y1.1400
G01 X27.2696 Y1.0712
G01 X27.2642 Y1.0510
G01 X27.2627 Y1.0440
G01 X27.2618 Y1.0369
G01 X27.2616 Y1.0298
G01 X27.2633 Y0.9600
G01 X27.2638 Y0.9528
G01 X27.2650 Y0.9458
G01 X27.2668 Y0.9389
G01 X27.2693 Y0.9322
G01 X27.2725 Y0.9258
G01 X27.2762 Y0.9197
G01 X27.3153 Y0.8618
G01 X27.3196 Y0.8561
G01 X27.3244 Y0.8508
G01 X27.3297 Y0.8460
G01 X27.3354 Y0.8418
G01 X27.3415 Y0.8381
G01 X27.3479 Y0.8349
G01 X27.4122 Y0.8074
G01 X27.4182 Y0.8051
G01 X27.4244 Y0.8034
G01 X27.4308 Y0.8022
G01 X27.4564 Y0.8005
G01 X29.9981 Y0.8005
G01 X30.0053 Y0.8008
G01 X30.0123 Y0.8019
G01 X30.0193 Y0.8035
G01 X30.0863 Y0.8232
G01 X30.0932 Y0.8256
G01 X30.0999 Y0.8287
G01 X30.1063 Y0.8325
G01 X30.1122 Y0.8368
G01 X30.1329 Y0.8534
G01 X30.1388 Y0.8588
G01 X31.1351 Y1.8550
G01 X31.1399 Y1.8603
G01 X31.1442 Y1.8660
G01 X31.1479 Y1.8721
G01 X31.1814 Y1.9334
G01 X31.1846 Y1.9401
G01 X31.1871 Y1.9470
G01 X31.1890 Y1.9541
G01 X31.2062 Y2.0408
G01 X31.2684 Y2.1910
G01 X31.3588 Y2.3262
G01 X31.4738 Y2.4412
G01 X31.6090 Y2.5315
G01 X31.7592 Y2.5938
G01 X31.9187 Y2.6255
G01 X32.0813 Y2.6255
G01 X32.2408 Y2.5938
G01 X32.3910 Y2.5315
G01 X32.5262 Y2.4412
G01 X32.6499 Y2.3175
G01 X32.6552 Y2.3127
G01 X32.6609 Y2.3084
G01 X32.6670 Y2.3047
G01 X32.7283 Y2.2712
G01 X32.7348 Y2.2681
G01 X32.7414 Y2.2656
G01 X32.7483 Y2.2638
G01 X32.7554 Y2.2626
G01 X32.7625 Y2.2621
G01 X32.7696 Y2.2623
G01 X32.8393 Y2.2672
G01 X32.8464 Y2.2681
G01 X32.8534 Y2.2696
G01 X32.8602 Y2.2718
G01 X32.8667 Y2.2746
G01 X32.8730 Y2.2780
G01 X32.8789 Y2.2820
G01 X32.9348 Y2.3239
G01 X32.9404 Y2.3284
G01 X32.9454 Y2.3335
G01 X32.9499 Y2.3390
G01 X32.9539 Y2.3449
G01 X32.9574 Y2.3511
G01 X32.9602 Y2.3577
G01 X32.9846 Y2.4232
G01 X32.9869 Y2.4307
G01 X32.9885 Y2.4384
G01 X32.9893 Y2.4462
G01 X32.9892 Y2.4541
G01 X32.9871 Y2.4871
G01 X32.9858 Y2.4970
G01 X32.9745 Y2.5539
G01 X32.9745 Y2.7461
G01 X33.0120 Y2.9345
G01 X33.0855 Y3.1121
G01 X33.1923 Y3.2718
G01 X33.3282 Y3.4077
G01 X33.4879 Y3.5145
G01 X33.6655 Y3.5880
G01 X33.8539 Y3.6255
G01 X34.0461 Y3.6255
G01 X34.2345 Y3.5880
G01 X34.4121 Y3.5145
G01 X34.5718 Y3.4077
G01 X34.7077 Y3.2718
G01 X34.8145 Y3.1121
G01 X34.8880 Y2.9345
G01 X34.9255 Y2.7461
G01 X34.9255 Y2.5539
G01 X34.8880 Y2.3655
G01 X34.8145 Y2.1879
G01 X34.7077 Y2.0282
G01 X34.5718 Y1.8923
G01 X34.4121 Y1.7855
G01 X34.2345 Y1.7120
G01 X34.0461 Y1.6745
G01 X33.8539 Y1.6745
G01 X33.6655 Y1.7120
G01 X33.4879 Y1.7855
G01 X33.3282 Y1.8923
G01 X33.1923 Y2.0282
G01 X33.1843 Y2.0402
G01 X33.1800 Y2.0459
G01 X33.1752 Y2.0512
G01 X33.1700 Y2.0560
G01 X33.1164 Y2.1009
G01 X33.1107 Y2.1052
G01 X33.1046 Y2.1089
G01 X33.0982 Y2.1121
G01 X33.0915 Y2.1146
G01 X33.0847 Y2.1165
G01 X33.0776 Y2.1177
G01 X33.0083 Y2.1264
G01 X33.0012 Y2.1270
G01 X32.9940 Y2.1269
G01 X32.9870 Y2.1260
G01 X32.9800 Y2.1246
G01 X32.9732 Y2.1224
G01 X32.9666 Y2.1197
G01 X32.9036 Y2.0895
G01 X32.8973 Y2.0861
G01 X32.8913 Y2.0822
G01 X32.8858 Y2.0776
G01 X32.8807 Y2.0726
G01 X32.8762 Y2.0672
G01 X32.8721 Y2.0613
G01 X32.8354 Y2.0018
G01 X32.8317 Y1.9950
G01 X32.8287 Y1.9879
G01 X32.8264 Y1.9804
G01 X32.8249 Y1.9728
G01 X32.8243 Y1.9651
G01 X32.8222 Y1.9081
G01 X32.8224 Y1.8994
G01 X32.8236 Y1.8908
G01 X32.8255 Y1.8813
G01 X32.8255 Y1.7187
G01 X32.7938 Y1.5592
G01 X32.7316 Y1.4090
G01 X32.6412 Y1.2738
G01 X32.5262 Y1.1588
G01 X32.3910 Y1.0685
G01 X32.2408 Y1.0062
G01 X32.1569 Y0.9895
G01 X32.1500 Y0.9878
G01 X32.1433 Y0.9854
G01 X32.1368 Y0.9824
G01 X32.0749 Y0.9501
G01 X32.0706 Y0.9476
G01 X32.0635 Y0.9427
G01 X32.0550 Y0.9351
G01 X30.9852 Y-0.1348
G01 X30.9804 Y-0.1401
G01 X30.9761 Y-0.1458
G01 X30.9724 Y-0.1519
G01 X30.9389 Y-0.2132
G01 X30.9358 Y-0.2196
G01 X30.9333 Y-0.2263
G01 X30.9314 Y-0.2332
G01 X30.9302 Y-0.2402
G01 X30.9297 Y-0.2474
G01 X30.9299 Y-0.2545
G01 X30.9349 Y-0.3242
G01 X30.9357 Y-0.3313
G01 X30.9372 Y-0.3382
G01 X30.9394 Y-0.3450
G01 X30.9422 Y-0.3516
G01 X30.9457 Y-0.3579
G01 X30.9497 Y-0.3638
G01 X30.9915 Y-0.4197
G01 X30.9961 Y-0.4252
G01 X31.0011 Y-0.4303
G01 X31.0066 Y-0.4348
G01 X31.0125 Y-0.4388
G01 X31.0188 Y-0.4422
G01 X31.0254 Y-0.4450
G01 X31.0908 Y-0.4695
G01 X31.0985 Y-0.4719
G01 X31.1064 Y-0.4734
G01 X31.1144 Y-0.4741
G01 X31.1259 Y-0.4745
G01 X51.0255 Y-0.4745
G01 X51.0326 Y-0.4742
G01 X51.0397 Y-0.4731
G01 X51.0466 Y-0.4715
G01 X51.1137 Y-0.4518
G01 X51.1204 Y-0.4494
G01 X51.1269 Y-0.4465
G01 X51.1331 Y-0.4429
G01 X51.1389 Y-0.4388
G01 X51.1443 Y-0.4341
G01 X51.1492 Y-0.4289
G01 X51.1950 Y-0.3761
G01 X51.1996 Y-0.3702
G01 X51.2036 Y-0.3639
G01 X51.2070 Y-0.3572
G01 X51.2096 Y-0.3502
G01 X51.2116 Y-0.3430
G01 X51.2228 Y-0.2914
G01 X51.2241 Y-0.2835
G01 X51.2245 Y-0.2755
G01 X51.2245 Y29.3755
G01 X51.2242 Y29.3826
G01 X51.2231 Y29.3897
G01 X51.2215 Y29.3966
G01 X51.2018 Y29.4637
G01 X51.1994 Y29.4704
G01 X51.1965 Y29.4769
G01 X51.1929 Y29.4831
G01 X51.1888 Y29.4889
G01 X51.1841 Y29.4943
G01 X51.1789 Y29.4992
G01 X51.1261 Y29.5450
G01 X51.1202 Y29.5496
G01 X51.1139 Y29.5536
G01 X51.1072 Y29.5570
G01 X51.1002 Y29.5596
G01 X51.0930 Y29.5616
G01 X51.0414 Y29.5728
G01 X51.0335 Y29.5741
G01 X51.0255 Y29.5745
G01 X45.4062 Y29.5745
G01 X45.3991 Y29.5742
G01 X45.3920 Y29.5731
G01 X45.3851 Y29.5715
G01 X45.3180 Y29.5518
G01 X45.3113 Y29.5494
G01 X45.3048 Y29.5465
G01 X45.2986 Y29.5429
G01 X45.2928 Y29.5388
G01 X45.2874 Y29.5341
G01 X45.2825 Y29.5289
G01 X45.2367 Y29.4761
G01 X45.2323 Y29.4705
G01 X45.2285 Y29.4645
G01 X45.2252 Y29.4582
G01 X45.2225 Y29.4515
G01 X45.2205 Y29.4447
G01 X45.2192 Y29.4377
G01 X45.2092 Y29.3685
G01 X45.2086 Y29.3614
G01 X45.2086 Y29.3543
G01 X45.2092 Y29.3472
G01 X45.2106 Y29.3402
G01 X45.2126 Y29.3333
G01 X45.2152 Y29.3267
G01 X45.2456 Y29.2604
G01 X45.2490 Y29.2543
G01 X45.2531 Y29.2485
G01 X45.2655 Y29.2348
G01 X45.4322 Y29.0681
G01 X45.5271 Y28.9375
G01 X45.6004 Y28.7937
G01 X45.6502 Y28.6401
G01 X45.6755 Y28.4807
G01 X45.6755 Y20.2286
G01 X45.6768 Y20.2069
G01 X45.6803 Y20.1794
G01 X45.6800 Y20.1336
G01 X45.6843 Y19.8896
G01 X45.6854 Y19.8746
G01 X45.6933 Y19.8026
G01 X45.6944 Y19.7956
G01 X45.6962 Y19.7887
G01 X45.6987 Y19.7819
G01 X45.7256 Y19.7175
G01 X45.7287 Y19.7110
G01 X45.7323 Y19.7049
G01 X45.7365 Y19.6992
G01 X45.7413 Y19.6938
G01 X45.7465 Y19.6890
G01 X45.7522 Y19.6847
G01 X45.8097 Y19.6450
G01 X45.8154 Y19.6414
G01 X45.8213 Y19.6384
G01 X45.8275 Y19.6359
G01 X45.8339 Y19.6340
G01 X45.8404 Y19.6327
G01 X45.8852 Y19.6257
G01 X46.0462 Y19.6255
G01 X46.1370 Y19.6162
G01 X46.2874 Y19.5664
G01 X46.4218 Y19.4835
G01 X46.5335 Y19.3718
G01 X46.6164 Y19.2374
G01 X46.6662 Y19.0870
G01 X46.6755 Y18.9962
G01 X46.6755 Y17.6038
G01 X46.6662 Y17.5130
G01 X46.6164 Y17.3626
G01 X46.5335 Y17.2282
G01 X46.4218 Y17.1165
G01 X46.2874 Y17.0336
G01 X46.1370 Y16.9838
G01 X46.0462 Y16.9745
G01 X43.9538 Y16.9745
G01 X43.8630 Y16.9838
G01 X43.7126 Y17.0336
G01 X43.5782 Y17.1165
G01 X43.4665 Y17.2282
G01 X43.3836 Y17.3626
G01 X43.3338 Y17.5130
G01 X43.3245 Y17.6038
G01 X43.3245 Y18.9962
G01 X43.3338 Y19.0870
G01 X43.3836 Y19.2374
G01 X43.4665 Y19.3718
G01 X43.5662 Y19.4715
G01 X43.5710 Y19.4768
G01 X43.5753 Y19.4825
G01 X43.5790 Y19.4886
G01 X43.6125 Y19.5499
G01 X43.6157 Y19.5566
G01 X43.6182 Y19.5635
G01 X43.6201 Y19.5706
G01 X43.6212 Y19.5779
G01 X43.6241 Y19.6042
G01 X43.6245 Y19.6122
G01 X43.6245 Y20.1174
G01 X43.6209 Y20.1691
G01 X43.6231 Y20.2325
G01 X43.6242 Y20.2405
G01 X43.6245 Y20.2468
G01 X43.6245 Y27.6755
G01 X43.6242 Y27.6826
G01 X43.6231 Y27.6897
G01 X43.6215 Y27.6966
G01 X43.6018 Y27.7637
G01 X43.5994 Y27.7704
G01 X43.5965 Y27.7769
G01 X43.5929 Y27.7831
G01 X43.5888 Y27.7889
G01 X43.5841 Y27.7943
G01 X43.5789 Y27.7992
G01 X43.5261 Y27.8450
G01 X43.5202 Y27.8496
G01 X43.5139 Y27.8536
G01 X43.5072 Y27.8570
G01 X43.5002 Y27.8596
G01 X43.4930 Y27.8616
G01 X43.4414 Y27.8728
G01 X43.4335 Y27.8741
G01 X43.4255 Y27.8745
G01 X43.1740 Y27.8745
G01 X43.1669 Y27.8742
G01 X43.1598 Y27.8731
G01 X43.1529 Y27.8715
G01 X43.0858 Y27.8518
G01 X43.0791 Y27.8494
G01 X43.0726 Y27.8465
G01 X43.0664 Y27.8429
G01 X43.0606 Y27.8388
G01 X43.0552 Y27.8341
G01 X43.0503 Y27.8289
G01 X43.0045 Y27.7761
G01 X42.9999 Y27.7702
G01 X42.9959 Y27.7639
G01 X42.9925 Y27.7572
G01 X42.9899 Y27.7502
G01 X42.9879 Y27.7430
G01 X42.9767 Y27.6914
G01 X42.9754 Y27.6835
G01 X42.9750 Y27.6755
G01 X42.9750 Y27.1750
G01 X42.6250 Y27.1750
G01 X42.6250 Y27.7500
G01 X42.6237 Y27.7782
G01 X42.6230 Y27.7855
G01 X42.6194 Y27.8098
G01 X42.6179 Y27.8170
G01 X42.6120 Y27.8408
G01 X42.6099 Y27.8478
G01 X42.6016 Y27.8709
G01 X42.5988 Y27.8777
G01 X42.5883 Y27.8999
G01 X42.5848 Y27.9064
G01 X42.5722 Y27.9275
G01 X42.5681 Y27.9336
G01 X42.5535 Y27.9533
G01 X42.5488 Y27.9590
G01 X42.5323 Y27.9771
G01 X42.5271 Y27.9823
G01 X42.5090 Y27.9988
G01 X42.5033 Y28.0035
G01 X42.4836 Y28.0181
G01 X42.4775 Y28.0222
G01 X42.4558 Y28.0352
G01 X42.4277 Y28.0488
G01 X42.4209 Y28.0516
G01 X42.3978 Y28.0599
G01 X42.3908 Y28.0620
G01 X42.3670 Y28.0679
G01 X42.3598 Y28.0694
G01 X42.3355 Y28.0730
G01 X42.3282 Y28.0737
G01 X42.3000 Y28.0750
G01 X40.3000 Y28.0750
G01 X40.2718 Y28.0737
G01 X40.2645 Y28.0730
G01 X40.2402 Y28.0694
G01 X40.2330 Y28.0679
G01 X40.2092 Y28.0620
G01 X40.2022 Y28.0599
G01 X40.1791 Y28.0516
G01 X40.1723 Y28.0488
G01 X40.1501 Y28.0383
G01 X40.1436 Y28.0348
G01 X40.1225 Y28.0222
G01 X40.1164 Y28.0181
G01 X40.0967 Y28.0035
G01 X40.0910 Y27.9988
G01 X40.0729 Y27.9823
G01 X40.0677 Y27.9771
G01 X40.0512 Y27.9590
G01 X40.0465 Y27.9533
G01 X40.0319 Y27.9336
G01 X40.0278 Y27.9275
G01 X40.0148 Y27.9058
G01 X40.0117 Y27.8999
G01 X40.0012 Y27.8777
G01 X39.9984 Y27.8709
G01 X39.9901 Y27.8478
G01 X39.9880 Y27.8408
G01 X39.9821 Y27.8170
G01 X39.9806 Y27.8098
G01 X39.9770 Y27.7855
G01 X39.9763 Y27.7782
G01 X39.9750 Y27.7500
G01 X39.9750 Y27.1750
G01 X39.6250 Y27.1750
G01 X39.6250 Y27.6755
G01 X39.6247 Y27.6826
G01 X39.6236 Y27.6897
G01 X39.6220 Y27.6966
G01 X39.6023 Y27.7637
G01 X39.5999 Y27.7704
G01 X39.5970 Y27.7769
G01 X39.5934 Y27.7831
G01 X39.5893 Y27.7889
G01 X39.5846 Y27.7943
G01 X39.5794 Y27.7992
G01 X39.5266 Y27.8450
G01 X39.5207 Y27.8496
G01 X39.5144 Y27.8536
G01 X39.5077 Y27.8570
G01 X39.5007 Y27.8596
G01 X39.4935 Y27.8616
G01 X39.4419 Y27.8728
G01 X39.4340 Y27.8741
G01 X39.4260 Y27.8745
G01 X38.8745 Y27.8745
G01 X38.8674 Y27.8742
G01 X38.8603 Y27.8731
G01 X38.8534 Y27.8715
G01 X38.7863 Y27.8518
G01 X38.7796 Y27.8494
G01 X38.7731 Y27.8465
G01 X38.7669 Y27.8429
G01 X38.7611 Y27.8388
G01 X38.7557 Y27.8341
G01 X38.7508 Y27.8289
G01 X38.7050 Y27.7761
G01 X38.7004 Y27.7702
G01 X38.6964 Y27.7639
G01 X38.6930 Y27.7572
G01 X38.6904 Y27.7502
G01 X38.6884 Y27.7430
G01 X38.6772 Y27.6914
G01 X38.6759 Y27.6835
G01 X38.6755 Y27.6755
G01 X38.6755 Y25.9038
G01 X38.6662 Y25.8130
G01 X38.6164 Y25.6626
G01 X38.5335 Y25.5282
G01 X38.4218 Y25.4165
G01 X38.2874 Y25.3336
G01 X38.1577 Y25.2905
G01 X38.1500 Y25.2869
G01 X38.1428 Y25.2825
G01 X38.0854 Y25.2427
G01 X38.0797 Y25.2384
G01 X38.0745 Y25.2335
G01 X38.0697 Y25.2282
G01 X38.0655 Y25.2224
G01 X38.0618 Y25.2163
G01 X38.0588 Y25.2099
G01 X38.0320 Y25.1453
G01 X38.0292 Y25.1373
G01 X38.0273 Y25.1290
G01 X38.0263 Y25.1206
G01 X38.0255 Y25.1031
G01 X38.0255 Y24.0693
G01 X38.0002 Y23.9099
G01 X37.9504 Y23.7563
G01 X37.8771 Y23.6125
G01 X37.7822 Y23.4819
G01 X36.3338 Y22.0335
G01 X36.3290 Y22.0282
G01 X36.3247 Y22.0225
G01 X36.3210 Y22.0164
G01 X36.2875 Y21.9551
G01 X36.2843 Y21.9485
G01 X36.2818 Y21.9416
G01 X36.2799 Y21.9344
G01 X36.2788 Y21.9272
G01 X36.2759 Y21.9008
G01 X36.2755 Y21.8928
G01 X36.2755 Y21.3617
G01 X36.2760 Y21.3534
G01 X36.2798 Y21.3200
G01 X36.2761 Y21.1924
G01 X36.2755 Y21.1599
G01 X36.2755 Y20.8423
G01 X36.2763 Y20.8229
G01 X36.2771 Y20.8158
G01 X36.2785 Y20.8088
G01 X36.2806 Y20.8020
G01 X36.3041 Y20.7362
G01 X36.3069 Y20.7295
G01 X36.3103 Y20.7232
G01 X36.3142 Y20.7172
G01 X36.3188 Y20.7116
G01 X36.3238 Y20.7065
G01 X36.3589 Y20.6739
G01 X36.3645 Y20.6693
G01 X36.3705 Y20.6651
G01 X36.4218 Y20.6335
G01 X36.5335 Y20.5218
G01 X36.6164 Y20.3874
G01 X36.6662 Y20.2370
G01 X36.6755 Y20.1462
G01 X36.6755 Y18.5538
G01 X36.6662 Y18.4630
G01 X36.6164 Y18.3126
G01 X36.5335 Y18.1782
G01 X36.4218 Y18.0665
G01 X36.2874 Y17.9836
G01 X36.1370 Y17.9338
G01 X36.0462 Y17.9245
G01 X34.4538 Y17.9245
G01 X34.3630 Y17.9338
G01 X34.2126 Y17.9836
G01 X34.0782 Y18.0665
G01 X33.9665 Y18.1782
G01 X33.8836 Y18.3126
G01 X33.8338 Y18.4630
G01 X33.8321 Y18.4762
G01 X33.8295 Y18.4855
G01 X33.8285 Y18.4951
G01 X33.8270 Y18.5020
G01 X33.8247 Y18.5088
G01 X33.8219 Y18.5154
G01 X33.8086 Y18.5373
G01 X33.8016 Y18.5545
G01 X33.7983 Y18.5615
G01 X33.7944 Y18.5681
G01 X33.7897 Y18.5742
G01 X33.7845 Y18.5798
G01 X33.7787 Y18.5850
G01 X33.7716 Y18.5936
G01 X33.7657 Y18.5990
G01 X33.7593 Y18.6038
G01 X33.7299 Y18.6233
G01 X33.7206 Y18.6286
G01 X33.6813 Y18.6470
G01 X33.6555 Y18.6564
G01 X33.5402 Y18.6884
G01 X33.5180 Y18.6928
G01 X33.3519 Y18.7149
G01 X33.3363 Y18.7161
G01 X33.2476 Y18.7193
G01 X33.1791 Y18.7245
G01 X31.1025 Y18.7245
G01 X31.0954 Y18.7242
G01 X31.0883 Y18.7231
G01 X31.0781 Y18.7205
G01 X30.7606 Y18.7127
G01 X30.7485 Y18.7119
G01 X30.6224 Y18.6994
G01 X30.6043 Y18.6967
G01 X30.5356 Y18.6834
G01 X30.5287 Y18.6817
G01 X30.5219 Y18.6794
G01 X30.5154 Y18.6764
G01 X30.4533 Y18.6444
G01 X30.4467 Y18.6405
G01 X30.4404 Y18.6359
G01 X30.4346 Y18.6307
G01 X30.4295 Y18.6249
G01 X30.4096 Y18.6003
G01 X30.4040 Y18.5925
G01 X30.3335 Y18.4782
G01 X30.2218 Y18.3665
G01 X30.0874 Y18.2836
G01 X29.9370 Y18.2338
G01 X29.8462 Y18.2245
G01 X28.2538 Y18.2245
G01 X28.1630 Y18.2338
G01 X28.0126 Y18.2836
G01 X27.8782 Y18.3665
G01 X27.7665 Y18.4782
G01 X27.6836 Y18.6126
G01 X27.6338 Y18.7630
G01 X27.6245 Y18.8538
G01 X27.6245 Y20.4462
G01 X27.6338 Y20.5370
G01 X27.6836 Y20.6874
G01 X27.7665 Y20.8218
G01 X27.8782 Y20.9335
G01 X28.0126 Y21.0164
G01 X28.1630 Y21.0662
G01 X28.2538 Y21.0755
G01 X29.8462 Y21.0755
G01 X29.9370 Y21.0662
G01 X30.0874 Y21.0164
G01 X30.2218 Y20.9335
G01 X30.3335 Y20.8218
G01 X30.4044 Y20.7068
G01 X30.4085 Y20.7009
G01 X30.4130 Y20.6954
G01 X30.4181 Y20.6904
G01 X30.4366 Y20.6738
G01 X30.4532 Y20.6554
G01 X30.4589 Y20.6497
G01 X30.4652 Y20.6447
G01 X30.4719 Y20.6403
G01 X30.4792 Y20.6367
G01 X30.4876 Y20.6319
G01 X30.4941 Y20.6291
G01 X30.5151 Y20.6213
G01 X30.5273 Y20.6177
G01 X30.5492 Y20.6131
G01 X30.7304 Y20.5899
G01 X30.7501 Y20.5884
G01 X31.0727 Y20.5796
G01 X31.0940 Y20.5768
G01 X31.1155 Y20.5755
G01 X33.2435 Y20.5755
G01 X33.2612 Y20.5763
G01 X33.2908 Y20.5789
G01 X33.3600 Y20.5755
G01 X33.9378 Y20.5755
G01 X33.9449 Y20.5758
G01 X33.9520 Y20.5769
G01 X33.9589 Y20.5785
G01 X34.0259 Y20.5982
G01 X34.0349 Y20.6015
G01 X34.0408 Y20.6044
G01 X34.0464 Y20.6077
G01 X34.0654 Y20.6212
G01 X34.0782 Y20.6335
G01 X34.1307 Y20.6659
G01 X34.1421 Y20.6741
G01 X34.1474 Y20.6789
G01 X34.1521 Y20.6842
G01 X34.1711 Y20.7075
G01 X34.1911 Y20.7299
G01 X34.1958 Y20.7355
G01 X34.1998 Y20.7416
G01 X34.2032 Y20.7480
G01 X34.2071 Y20.7568
G01 X34.2096 Y20.7635
G01 X34.2114 Y20.7704
G01 X34.2128 Y20.7806
G01 X34.2202 Y20.8099
G01 X34.2217 Y20.8173
G01 X34.2224 Y20.8249
G01 X34.2245 Y20.8760
G01 X34.2245 Y21.1703
G01 X34.2199 Y21.3296
G01 X34.2225 Y21.3857
G01 X34.2245 Y21.4133
G01 X34.2245 Y22.4807
G01 X34.2498 Y22.6401
G01 X34.2996 Y22.7937
G01 X34.3729 Y22.9375
G01 X34.4678 Y23.0681
G01 X35.9162 Y24.5165
G01 X35.9210 Y24.5218
G01 X35.9253 Y24.5275
G01 X35.9290 Y24.5336
G01 X35.9625 Y24.5949
G01 X35.9657 Y24.6015
G01 X35.9682 Y24.6084
G01 X35.9701 Y24.6156
G01 X35.9712 Y24.6228
G01 X35.9741 Y24.6492
G01 X35.9745 Y24.6572
G01 X35.9745 Y25.1031
G01 X35.9742 Y25.1103
G01 X35.9731 Y25.1173
G01 X35.9715 Y25.1243
G01 X35.9518 Y25.1913
G01 X35.9494 Y25.1980
G01 X35.9465 Y25.2045
G01 X35.9429 Y25.2107
G01 X35.9388 Y25.2165
G01 X35.9341 Y25.2219
G01 X35.9289 Y25.2269
G01 X35.8761 Y25.2726
G01 X35.8694 Y25.2778
G01 X35.8621 Y25.2822
G01 X35.8544 Y25.2857
G01 X35.8381 Y25.2920
G01 X35.7126 Y25.3336
G01 X35.5782 Y25.4165
G01 X35.4665 Y25.5282
G01 X35.3836 Y25.6626
G01 X35.3338 Y25.8130
G01 X35.3245 Y25.9038
G01 X35.3245 Y27.6755
G01 X35.3242 Y27.6826
G01 X35.3231 Y27.6897
G01 X35.3215 Y27.6966
G01 X35.3018 Y27.7637
G01 X35.2994 Y27.7704
G01 X35.2965 Y27.7769
G01 X35.2929 Y27.7831
G01 X35.2888 Y27.7889
G01 X35.2841 Y27.7943
G01 X35.2789 Y27.7992
G01 X35.2261 Y27.8450
G01 X35.2202 Y27.8496
G01 X35.2139 Y27.8536
G01 X35.2072 Y27.8570
G01 X35.2002 Y27.8596
G01 X35.1930 Y27.8616
G01 X35.1414 Y27.8728
G01 X35.1335 Y27.8741
G01 X35.1255 Y27.8745
G01 X25.2072 Y27.8745
G01 X25.2001 Y27.8742
G01 X25.1930 Y27.8731
G01 X25.1861 Y27.8715
G01 X25.1190 Y27.8518
G01 X25.1121 Y27.8494
G01 X25.1054 Y27.8463
G01 X25.0991 Y27.8425
G01 X25.0931 Y27.8382
G01 X25.0725 Y27.8216
G01 X25.0665 Y27.8162
G01 X20.9381 Y23.6878
G01 X20.8075 Y23.5929
G01 X20.6637 Y23.5196
G01 X20.5101 Y23.4698
G01 X20.3507 Y23.4445
G01 X20.1745 Y23.4445
G01 X20.1674 Y23.4442
G01 X20.1603 Y23.4431
G01 X20.1534 Y23.4415
G01 X20.0863 Y23.4218
G01 X20.0796 Y23.4194
G01 X20.0731 Y23.4165
G01 X20.0669 Y23.4129
G01 X20.0611 Y23.4088
G01 X20.0557 Y23.4041
G01 X20.0508 Y23.3989
G01 X20.0050 Y23.3461
G01 X20.0004 Y23.3402
G01 X19.9964 Y23.3339
G01 X19.9930 Y23.3272
G01 X19.9904 Y23.3202
G01 X19.9884 Y23.3130
G01 X19.9772 Y23.2614
G01 X19.9759 Y23.2535
G01 X19.9755 Y23.2455
G01 X19.9755 Y22.8808
G01 X19.9397 Y22.7472
G01 X19.8705 Y22.6273
G01 X19.7727 Y22.5295
G01 X19.6528 Y22.4603
G01 X19.5192 Y22.4245
G01 X16.5308 Y22.4245
G01 X16.3972 Y22.4603
G01 X16.2773 Y22.5295
G01 X16.2252 Y22.5817
G01 X16.2251 Y26.2791
G01 X16.2468 Y26.2763
G01 X16.2750 Y26.2750
G01 X16.9250 Y26.2750
G01 X16.9532 Y26.2763
G01 X16.9605 Y26.2770
G01 X16.9848 Y26.2806
G01 X16.9920 Y26.2821
G01 X17.0158 Y26.2880
G01 X17.0228 Y26.2901
G01 X17.0459 Y26.2984
G01 X17.0527 Y26.3012
G01 X17.0749 Y26.3117
G01 X17.0814 Y26.3152
G01 X17.1025 Y26.3278
G01 X17.1086 Y26.3319
G01 X17.1283 Y26.3465
G01 X17.1340 Y26.3512
G01 X17.1521 Y26.3677
G01 X17.1573 Y26.3729
G01 X17.1738 Y26.3910
G01 X17.1785 Y26.3967
G01 X17.1931 Y26.4164
G01 X17.1972 Y26.4225
G01 X17.2102 Y26.4442
G01 X17.2238 Y26.4723
G01 X17.2266 Y26.4791
G01 X17.2349 Y26.5022
G01 X17.2370 Y26.5092
G01 X17.2429 Y26.5330
G01 X17.2444 Y26.5402
G01 X17.2480 Y26.5645
G01 X17.2487 Y26.5718
G01 X17.2500 Y26.6000
G01 X17.2500 Y27.3750
G01 X17.6000 Y27.3750
G01 X17.6000 Y26.5538
G01 X17.5940 Y26.4947
G01 X17.5936 Y26.4876
G01 X17.5939 Y26.4805
G01 X17.5948 Y26.4734
G01 X17.6076 Y26.4047
G01 X17.6092 Y26.3978
G01 X17.6115 Y26.3910
G01 X17.6145 Y26.3845
G01 X17.6180 Y26.3783
G01 X17.6221 Y26.3724
G01 X17.6267 Y26.3670
G01 X17.6746 Y26.3161
G01 X17.6795 Y26.3113
G01 X17.6849 Y26.3070
G01 X17.6906 Y26.3032
G01 X17.6967 Y26.2999
G01 X17.7030 Y26.2972
G01 X17.7096 Y26.2951
G01 X17.7723 Y26.2781
G01 X17.7787 Y26.2767
G01 X17.7853 Y26.2758
G01 X17.7919 Y26.2755
G01 X19.5192 Y26.2755
G01 X19.6528 Y26.2397
G01 X19.7727 Y26.1705
G01 X19.8705 Y26.0727
G01 X19.9428 Y25.9474
G01 X19.9467 Y25.9414
G01 X19.9511 Y25.9358
G01 X19.9560 Y25.9306
G01 X20.0066 Y25.8824
G01 X20.0120 Y25.8777
G01 X20.0178 Y25.8736
G01 X20.0240 Y25.8700
G01 X20.0305 Y25.8670
G01 X20.0372 Y25.8647
G01 X20.0442 Y25.8630
G01 X20.1128 Y25.8498
G01 X20.1198 Y25.8488
G01 X20.1270 Y25.8484
G01 X20.1341 Y25.8488
G01 X20.1412 Y25.8498
G01 X20.1481 Y25.8515
G01 X20.1548 Y25.8538
G01 X20.2232 Y25.8813
G01 X20.2297 Y25.8847
G01 X20.2359 Y25.8887
G01 X20.2416 Y25.8933
G01 X20.2559 Y25.9062
G01 X23.5845 Y29.2348
G01 X23.5893 Y29.2401
G01 X23.5936 Y29.2458
G01 X23.5973 Y29.2519
G01 X23.6308 Y29.3132
G01 X23.6339 Y29.3196
G01 X23.6364 Y29.3263
G01 X23.6382 Y29.3332
G01 X23.6394 Y29.3402
G01 X23.6399 Y29.3474
G01 X23.6398 Y29.3545
G01 X23.6348 Y29.4242
G01 X23.6339 Y29.4313
G01 X23.6324 Y29.4382
G01 X23.6302 Y29.4450
G01 X23.6274 Y29.4516
G01 X23.6240 Y29.4579
G01 X23.6200 Y29.4638
G01 X23.5781 Y29.5197
G01 X23.5736 Y29.5252
G01 X23.5686 Y29.5303
G01 X23.5631 Y29.5348
G01 X23.5571 Y29.5388
G01 X23.5509 Y29.5422
G01 X23.5443 Y29.5450
G01 X23.4789 Y29.5695
G01 X23.4712 Y29.5719
G01 X23.4633 Y29.5734
G01 X23.4465 Y29.5745
G01 X17.5855 Y29.5745
G01 X17.5784 Y29.5742
G01 X17.5713 Y29.5731
G01 X17.5644 Y29.5715
G01 X17.4974 Y29.5518
G01 X17.4906 Y29.5494
G01 X17.4841 Y29.5465
G01 X17.4779 Y29.5429
G01 X17.4721 Y29.5388
G01 X17.4667 Y29.5341
G01 X17.4618 Y29.5289
G01 X17.4160 Y29.4761
G01 X17.4116 Y29.4705
G01 X17.4078 Y29.4645
G01 X17.4045 Y29.4582
G01 X17.4019 Y29.4515
G01 X17.3998 Y29.4447
G01 X17.3985 Y29.4377
G01 X17.3885 Y29.3685
G01 X17.3879 Y29.3614
G01 X17.3879 Y29.3543
G01 X17.3885 Y29.3472
G01 X17.3899 Y29.3402
G01 X17.3919 Y29.3333
G01 X17.3946 Y29.3267
G01 X17.4236 Y29.2631
G01 X17.4284 Y29.2543
G01 X17.4324 Y29.2485
G01 X17.4369 Y29.2432
G01 X17.4581 Y29.2215
G01 X17.5409 Y29.0872
G01 X17.5907 Y28.9369
G01 X17.6000 Y28.8462
G01 X17.6000 Y28.0250
G01 X17.2500 Y28.0250
G01 X17.2500 Y28.8000
G01 X17.2487 Y28.8282
G01 X17.2480 Y28.8355
G01 X17.2444 Y28.8598
G01 X17.2429 Y28.8670
G01 X17.2370 Y28.8908
G01 X17.2349 Y28.8978
G01 X17.2266 Y28.9209
G01 X17.2238 Y28.9277
G01 X17.2133 Y28.9499
G01 X17.2098 Y28.9564
G01 X17.1972 Y28.9775
G01 X17.1931 Y28.9836
G01 X17.1785 Y29.0033
G01 X17.1738 Y29.0090
G01 X17.1573 Y29.0271
G01 X17.1521 Y29.0323
G01 X17.1340 Y29.0488
G01 X17.1283 Y29.0535
G01 X17.1086 Y29.0681
G01 X17.1025 Y29.0722
G01 X17.0808 Y29.0852
G01 X17.0527 Y29.0988
G01 X17.0459 Y29.1016
G01 X17.0228 Y29.1099
G01 X17.0158 Y29.1120
G01 X16.9920 Y29.1179
G01 X16.9848 Y29.1194
G01 X16.9605 Y29.1230
G01 X16.9532 Y29.1237
G01 X16.9250 Y29.1250
G01 X16.2750 Y29.1250
G01 X16.2468 Y29.1237
G01 X16.2395 Y29.1230
G01 X16.2152 Y29.1194
G01 X16.2080 Y29.1179
G01 X16.1842 Y29.1120
G01 X16.1772 Y29.1099
G01 X16.1541 Y29.1016
G01 X16.1473 Y29.0988
G01 X16.1251 Y29.0883
G01 X16.1186 Y29.0848
G01 X16.0975 Y29.0722
G01 X16.0914 Y29.0681
G01 X16.0717 Y29.0535
G01 X16.0660 Y29.0488
G01 X16.0479 Y29.0323
G01 X16.0427 Y29.0271
G01 X16.0262 Y29.0090
G01 X16.0215 Y29.0033
G01 X16.0069 Y28.9836
G01 X16.0028 Y28.9775
G01 X15.9898 Y28.9558
G01 X15.9867 Y28.9499
G01 X15.9762 Y28.9277
G01 X15.9734 Y28.9209
G01 X15.9651 Y28.8978
G01 X15.9630 Y28.8908
G01 X15.9571 Y28.8670
G01 X15.9556 Y28.8598
G01 X15.9520 Y28.8355
G01 X15.9513 Y28.8282
G01 X15.9500 Y28.8000
G01 X15.9500 Y28.0250
G01 X15.6000 Y28.0250
G01 X15.6000 Y28.8462
G01 X15.6093 Y28.9369
G01 X15.6591 Y29.0872
G01 X15.7419 Y29.2215
G01 X15.7552 Y29.2348
G01 X15.7600 Y29.2401
G01 X15.7643 Y29.2458
G01 X15.7680 Y29.2519
G01 X15.8015 Y29.3132
G01 X15.8046 Y29.3196
G01 X15.8071 Y29.3263
G01 X15.8089 Y29.3332
G01 X15.8101 Y29.3402
G01 X15.8106 Y29.3474
G01 X15.8105 Y29.3545
G01 X15.8055 Y29.4242
G01 X15.8046 Y29.4313
G01 X15.8031 Y29.4382
G01 X15.8009 Y29.4450
G01 X15.7981 Y29.4516
G01 X15.7947 Y29.4579
G01 X15.7907 Y29.4638
G01 X15.7488 Y29.5197
G01 X15.7443 Y29.5252
G01 X15.7392 Y29.5303
G01 X15.7337 Y29.5348
G01 X15.7278 Y29.5388
G01 X15.7216 Y29.5422
G01 X15.7150 Y29.5450
G01 X15.6495 Y29.5695
G01 X15.6419 Y29.5719
G01 X15.6340 Y29.5734
G01 X15.6260 Y29.5741
G01 X15.6145 Y29.5745
G01 X14.6362 Y29.5745
G01 X14.6291 Y29.5742
G01 X14.6220 Y29.5731
G01 X14.6151 Y29.5715
G01 X14.5481 Y29.5518
G01 X14.5413 Y29.5494
G01 X14.5348 Y29.5465
G01 X14.5286 Y29.5429
G01 X14.5228 Y29.5388
G01 X14.5174 Y29.5341
G01 X14.5125 Y29.5289
G01 X14.4668 Y29.4761
G01 X14.4623 Y29.4705
G01 X14.4585 Y29.4645
G01 X14.4552 Y29.4582
G01 X14.4526 Y29.4515
G01 X14.4506 Y29.4447
G01 X14.4492 Y29.4377
G01 X14.4393 Y29.3685
G01 X14.4386 Y29.3614
G01 X14.4386 Y29.3543
G01 X14.4393 Y29.3472
G01 X14.4406 Y29.3402
G01 X14.4426 Y29.3333
G01 X14.4453 Y29.3267
G01 X14.4743 Y29.2631
G01 X14.4791 Y29.2543
G01 X14.4831 Y29.2485
G01 X14.4876 Y29.2432
G01 X14.5085 Y29.2218
G01 X14.5914 Y29.0874
G01 X14.6412 Y28.9370
G01 X14.6505 Y28.8462
G01 X14.6505 Y26.5538
G01 X14.6445 Y26.4947
G01 X14.6441 Y26.4876
G01 X14.6444 Y26.4805
G01 X14.6453 Y26.4734
G01 X14.6581 Y26.4047
G01 X14.6597 Y26.3978
G01 X14.6620 Y26.3910
G01 X14.6650 Y26.3845
G01 X14.6685 Y26.3783
G01 X14.6726 Y26.3724
G01 X14.6772 Y26.3670
G01 X14.7251 Y26.3161
G01 X14.7300 Y26.3113
G01 X14.7354 Y26.3070
G01 X14.7411 Y26.3032
G01 X14.7472 Y26.2999
G01 X14.7535 Y26.2972
G01 X14.7601 Y26.2951
G01 X14.8228 Y26.2781
G01 X14.8292 Y26.2767
G01 X14.8358 Y26.2758
G01 X14.8424 Y26.2755
G01 X15.0192 Y26.2755
G01 X15.1528 Y26.2397
G01 X15.2727 Y26.1705
G01 X15.3274 Y26.1158
G01 X15.3327 Y26.1110
G01 X15.3384 Y26.1067
G01 X15.3445 Y26.1030
G01 X15.4058 Y26.0695
G01 X15.4122 Y26.0664
G01 X15.4189 Y26.0639
G01 X15.4258 Y26.0621
G01 X15.4328 Y26.0609
G01 X15.4434 Y26.0605
G01 X15.4349 Y26.0367
G01 X15.4334 Y26.0301
G01 X15.4325 Y26.0233
G01 X15.4322 Y26.0166
G01 X15.4326 Y26.0098
G01 X15.4365 Y25.9689
G01 X15.4373 Y25.9627
G01 X15.4387 Y25.9566
G01 X15.4749 Y25.8216
G01 X15.4749 Y22.8284
G01 X15.4397 Y22.6972
G01 X15.3705 Y22.5773
G01 X15.2727 Y22.4795
G01 X15.1528 Y22.4103
G01 X15.0192 Y22.3745
G01 X13.0158 Y22.3745
G01 X13.0087 Y22.3742
G01 X13.0016 Y22.3731
G01 X12.9947 Y22.3715
G01 X12.9276 Y22.3518
G01 X12.9207 Y22.3494
G01 X12.9140 Y22.3463
G01 X12.9076 Y22.3425
G01 X12.9017 Y22.3382
G01 X12.8810 Y22.3216
G01 X12.8751 Y22.3162
G01 X12.0900 Y21.5311
G01 X11.9384 Y21.4298
G01 X11.7700 Y21.3601
G01 X11.5912 Y21.3245
G01 X11.5480 Y21.3245
G01 X11.5409 Y21.3242
G01 X11.5338 Y21.3231
G01 X11.5269 Y21.3215
G01 X11.4599 Y21.3018
G01 X11.4531 Y21.2994
G01 X11.4466 Y21.2965
G01 X11.4404 Y21.2929
G01 X11.4346 Y21.2888
G01 X11.4292 Y21.2841
G01 X11.4243 Y21.2789
G01 X11.3785 Y21.2261
G01 X11.3741 Y21.2205
G01 X11.3703 Y21.2145
G01 X11.3670 Y21.2082
G01 X11.3644 Y21.2015
G01 X11.3623 Y21.1947
G01 X11.3610 Y21.1877
G01 X11.3510 Y21.1185
G01 X11.3504 Y21.1114
G01 X11.3504 Y21.1043
G01 X11.3510 Y21.0972
G01 X11.3524 Y21.0902
G01 X11.3544 Y21.0833
G01 X11.3571 Y21.0767
G01 X11.3861 Y21.0131
G01 X11.3909 Y21.0043
G01 X11.3949 Y20.9985
G01 X11.4055 Y20.9867
G01 X11.4581 Y20.9340
G01 X11.5409 Y20.7997
G01 X11.5907 Y20.6494
G01 X11.6000 Y20.5587
G01 X11.6000 Y20.5502
G01 X11.2477 Y20.5501
G01 X11.2444 Y20.5723
G01 X11.2429 Y20.5795
G01 X11.2370 Y20.6033
G01 X11.2349 Y20.6103
G01 X11.2266 Y20.6334
G01 X11.2238 Y20.6402
G01 X11.2133 Y20.6624
G01 X11.2098 Y20.6689
G01 X11.1972 Y20.6900
G01 X11.1931 Y20.6961
G01 X11.1785 Y20.7158
G01 X11.1738 Y20.7215
G01 X11.1573 Y20.7396
G01 X11.1521 Y20.7448
G01 X11.1340 Y20.7613
G01 X11.1283 Y20.7660
G01 X11.1086 Y20.7806
G01 X11.1025 Y20.7847
G01 X11.0808 Y20.7977
G01 X11.0749 Y20.8008
G01 X11.0527 Y20.8113
G01 X11.0459 Y20.8141
G01 X11.0228 Y20.8224
G01 X11.0158 Y20.8245
G01 X10.9920 Y20.8304
G01 X10.9848 Y20.8319
G01 X10.9605 Y20.8355
G01 X10.9532 Y20.8362
G01 X10.9250 Y20.8375
G01 X9.9750 Y20.8375
G01 X9.9468 Y20.8362
G01 X9.9395 Y20.8355
G01 X9.9152 Y20.8319
G01 X9.9080 Y20.8304
G01 X9.8842 Y20.8245
G01 X9.8772 Y20.8224
G01 X9.8541 Y20.8141
G01 X9.8473 Y20.8113
G01 X9.8251 Y20.8008
G01 X9.8186 Y20.7973
G01 X9.7975 Y20.7847
G01 X9.7914 Y20.7806
G01 X9.7717 Y20.7660
G01 X9.7660 Y20.7613
G01 X9.7479 Y20.7448
G01 X9.7427 Y20.7396
G01 X9.7262 Y20.7215
G01 X9.7215 Y20.7158
G01 X9.7069 Y20.6961
G01 X9.7028 Y20.6900
G01 X9.6898 Y20.6683
G01 X9.6762 Y20.6402
G01 X9.6734 Y20.6334
G01 X9.6651 Y20.6103
G01 X9.6630 Y20.6033
G01 X9.6571 Y20.5795
G01 X9.6556 Y20.5723
G01 X9.6520 Y20.5480
G01 X9.6513 Y20.5407
G01 X9.6500 Y20.5125
G01 X9.6500 Y19.8375
G01 X9.6513 Y19.8093
G01 X9.6520 Y19.8020
G01 X9.6556 Y19.7777
G01 X9.6571 Y19.7705
G01 X9.6630 Y19.7467
G01 X9.6651 Y19.7397
G01 X9.6734 Y19.7166
G01 X9.6762 Y19.7098
G01 X9.6867 Y19.6876
G01 X9.6902 Y19.6811
G01 X9.7028 Y19.6600
G01 X9.7069 Y19.6539
G01 X9.7215 Y19.6342
G01 X9.7262 Y19.6285
G01 X9.7427 Y19.6104
G01 X9.7479 Y19.6052
G01 X9.7660 Y19.5887
G01 X9.7717 Y19.5840
G01 X9.7914 Y19.5694
G01 X9.7975 Y19.5653
G01 X9.8192 Y19.5523
G01 X9.8473 Y19.5387
G01 X9.8541 Y19.5359
G01 X9.8772 Y19.5276
G01 X9.8842 Y19.5255
G01 X9.9080 Y19.5196
G01 X9.9152 Y19.5181
G01 X9.9395 Y19.5145
G01 X9.9468 Y19.5138
G01 X9.9750 Y19.5125
G01 X10.9250 Y19.5125
G01 X10.9532 Y19.5138
G01 X10.9605 Y19.5145
G01 X10.9848 Y19.5181
G01 X10.9920 Y19.5196
G01 X11.0158 Y19.5255
G01 X11.0228 Y19.5276
G01 X11.0459 Y19.5359
G01 X11.0527 Y19.5387
G01 X11.0749 Y19.5492
G01 X11.0814 Y19.5527
G01 X11.1025 Y19.5653
G01 X11.1086 Y19.5694
G01 X11.1283 Y19.5840
G01 X11.1340 Y19.5887
G01 X11.1521 Y19.6052
G01 X11.1573 Y19.6104
G01 X11.1738 Y19.6285
G01 X11.1785 Y19.6342
G01 X11.1931 Y19.6539
G01 X11.1972 Y19.6600
G01 X11.2102 Y19.6817
G01 X11.2133 Y19.6876
G01 X11.2238 Y19.7098
G01 X11.2266 Y19.7166
G01 X11.2349 Y19.7397
G01 X11.2370 Y19.7467
G01 X11.2429 Y19.7705
G01 X11.2444 Y19.7777
G01 X11.2477 Y19.7998
G01 X11.6000 Y19.7999
G01 X11.6000 Y19.7913
G01 X11.5907 Y19.7006
G01 X11.5409 Y19.5503
G01 X11.4581 Y19.4160
G01 X11.3434 Y19.3013
G01 X11.3356 Y19.2947
G01 X11.3306 Y19.2893
G01 X11.3258 Y19.2830
G01 X11.3114 Y19.2722
G01 X11.3063 Y19.2672
G01 X11.3017 Y19.2618
G01 X11.2976 Y19.2559
G01 X11.2941 Y19.2497
G01 X11.2913 Y19.2435
G01 X11.2871 Y19.2383
G01 X11.2831 Y19.2324
G01 X11.2797 Y19.2261
G01 X11.2769 Y19.2195
G01 X11.2748 Y19.2127
G01 X11.2733 Y19.2057
G01 X11.2710 Y19.1915
G01 X11.2658 Y19.1781
G01 X11.2635 Y19.1713
G01 X11.2619 Y19.1644
G01 X11.2609 Y19.1573
G01 X11.2606 Y19.1502
G01 X11.2610 Y19.1431
G01 X11.2620 Y19.1364
G01 X11.2613 Y19.1297
G01 X11.2611 Y19.1225
G01 X11.2617 Y19.1154
G01 X11.2629 Y19.1084
G01 X11.2648 Y19.1015
G01 X11.2731 Y19.0816
G01 X11.2759 Y19.0675
G01 X11.2779 Y19.0596
G01 X11.2808 Y19.0520
G01 X11.2846 Y19.0447
G01 X11.2890 Y19.0378
G01 X11.2967 Y19.0274
G01 X11.2998 Y19.0217
G01 X11.3038 Y19.0159
G01 X11.3144 Y19.0036
G01 X11.4085 Y18.9093
G01 X11.4136 Y18.9018
G01 X11.4190 Y18.8957
G01 X11.4284 Y18.8860
G01 X11.4336 Y18.8811
G01 X11.4393 Y18.8767
G01 X11.4573 Y18.8661
G01 X11.4734 Y18.8521
G01 X11.4798 Y18.8479
G01 X11.4866 Y18.8444
G01 X11.4937 Y18.8416
G01 X11.5064 Y18.8383
G01 X11.5125 Y18.8353
G01 X11.5191 Y18.8327
G01 X11.5260 Y18.8307
G01 X11.5330 Y18.8294
G01 X11.5401 Y18.8288
G01 X11.5479 Y18.8289
G01 X11.5629 Y18.8260
G01 X11.5712 Y18.8255
G01 X11.7665 Y18.8255
G01 X11.8970 Y18.7995
G01 X12.0200 Y18.7486
G01 X12.1306 Y18.6747
G01 X12.1895 Y18.6159
G01 X12.1993 Y18.6073
G01 X12.2050 Y18.6030
G01 X12.2111 Y18.5993
G01 X12.2175 Y18.5962
G01 X12.2411 Y18.5861
G01 X12.2637 Y18.5737
G01 X12.2701 Y18.5706
G01 X12.2768 Y18.5681
G01 X12.2837 Y18.5663
G01 X12.3023 Y18.5631
G01 X12.3094 Y18.5626
G01 X12.3166 Y18.5628
G01 X12.3237 Y18.5636
G01 X12.3490 Y18.5679
G01 X12.3747 Y18.5697
G01 X12.3818 Y18.5706
G01 X12.3887 Y18.5721
G01 X12.3955 Y18.5743
G01 X12.4129 Y18.5817
G01 X12.4192 Y18.5851
G01 X12.4251 Y18.5891
G01 X12.4306 Y18.5937
G01 X12.4496 Y18.6110
G01 X12.4702 Y18.6264
G01 X12.4757 Y18.6309
G01 X12.4808 Y18.6360
G01 X12.4853 Y18.6415
G01 X12.4959 Y18.6571
G01 X12.4993 Y18.6634
G01 X12.5021 Y18.6699
G01 X12.5043 Y18.6767
G01 X12.5110 Y18.7016
G01 X12.5200 Y18.7257
G01 X12.5224 Y18.7333
G01 X12.5239 Y18.7412
G01 X12.5246 Y18.7492
G01 X12.5250 Y18.7607
G01 X12.5250 Y19.7998
G01 X12.8750 Y19.7999
G01 X12.8750 Y15.2000
G01 X12.8763 Y15.1718
G01 X12.8770 Y15.1645
G01 X12.8806 Y15.1402
G01 X12.8821 Y15.1330
G01 X12.8880 Y15.1092
G01 X12.8901 Y15.1022
G01 X12.8984 Y15.0791
G01 X12.9012 Y15.0723
G01 X12.9117 Y15.0501
G01 X12.9152 Y15.0436
G01 X12.9278 Y15.0225
G01 X12.9319 Y15.0164
G01 X12.9465 Y14.9967
G01 X12.9512 Y14.9910
G01 X12.9677 Y14.9729
G01 X12.9729 Y14.9677
G01 X12.9910 Y14.9512
G01 X12.9967 Y14.9465
G01 X13.0164 Y14.9319
G01 X13.0225 Y14.9278
G01 X13.0436 Y14.9152
G01 X13.0501 Y14.9117
G01 X13.0723 Y14.9012
G01 X13.0791 Y14.8984
G01 X13.1022 Y14.8901
G01 X13.1092 Y14.8880
G01 X13.1330 Y14.8821
G01 X13.1402 Y14.8806
G01 X13.1645 Y14.8770
G01 X13.1718 Y14.8763
G01 X13.2000 Y14.8750
G01 X15.5250 Y14.8750
G01 X15.5250 Y14.5250
G01 X14.9229 Y14.5250
G01 X14.9157 Y14.5247
G01 X14.9087 Y14.5236
G01 X14.9017 Y14.5220
G01 X14.8347 Y14.5023
G01 X14.8279 Y14.4999
G01 X14.8215 Y14.4970
G01 X14.8153 Y14.4934
G01 X14.8095 Y14.4893
G01 X14.8041 Y14.4846
G01 X14.7991 Y14.4794
G01 X14.7534 Y14.4266
G01 X14.7490 Y14.4210
G01 X14.7451 Y14.4150
G01 X14.7418 Y14.4087
G01 X14.7392 Y14.4020
G01 X14.7372 Y14.3952
G01 X14.7358 Y14.3882
G01 X14.7259 Y14.3190
G01 X14.7252 Y14.3119
G01 X14.7252 Y14.3048
G01 X14.7259 Y14.2977
G01 X14.7272 Y14.2907
G01 X14.7292 Y14.2838
G01 X14.7319 Y14.2772
G01 X14.7609 Y14.2136
G01 X14.7657 Y14.2048
G01 X14.7697 Y14.1990
G01 X14.7803 Y14.1872
G01 X14.8412 Y14.1262
G01 X14.9315 Y13.9910
G01 X14.9938 Y13.8408
G01 X15.0255 Y13.6813
G01 X15.0255 Y13.5187
G01 X14.9938 Y13.3592
G01 X14.9316 Y13.2090
G01 X14.8412 Y13.0738
G01 X14.7236 Y12.9562
G01 X14.7163 Y12.9497
G01 X14.7114 Y12.9443
G01 X14.7070 Y12.9383
G01 X14.7021 Y12.9298
G01 X14.6748 Y12.8971
G01 X14.6705 Y12.8914
G01 X14.6667 Y12.8853
G01 X14.6636 Y12.8789
G01 X14.6610 Y12.8723
G01 X14.6591 Y12.8654
G01 X14.6579 Y12.8584
G01 X14.6492 Y12.7890
G01 X14.6486 Y12.7819
G01 X14.6488 Y12.7748
G01 X14.6496 Y12.7677
G01 X14.6511 Y12.7607
G01 X14.6532 Y12.7539
G01 X14.6560 Y12.7473
G01 X14.6861 Y12.6843
G01 X14.6895 Y12.6780
G01 X14.6934 Y12.6721
G01 X14.6980 Y12.6665
G01 X14.7030 Y12.6615
G01 X14.7085 Y12.6569
G01 X14.7143 Y12.6528
G01 X14.7738 Y12.6161
G01 X14.7807 Y12.6123
G01 X14.7879 Y12.6093
G01 X14.7955 Y12.6071
G01 X14.8032 Y12.6056
G01 X14.8360 Y12.6012
G01 X14.8460 Y12.6005
G01 X19.9202 Y12.6005
G01 X19.9273 Y12.6008
G01 X19.9344 Y12.6019
G01 X19.9413 Y12.6035
G01 X20.0084 Y12.6232
G01 X20.0151 Y12.6256
G01 X20.0216 Y12.6285
G01 X20.0278 Y12.6321
G01 X20.0336 Y12.6362
G01 X20.0390 Y12.6409
G01 X20.0439 Y12.6461
G01 X20.0897 Y12.6989
G01 X20.0941 Y12.7045
G01 X20.0979 Y12.7105
G01 X20.1012 Y12.7168
G01 X20.1039 Y12.7235
G01 X20.1059 Y12.7303
G01 X20.1072 Y12.7373
G01 X20.1172 Y12.8065
G01 X20.1179 Y12.8141
G01 X20.1178 Y12.8218
G01 X20.1169 Y12.8295
G01 X20.1152 Y12.8370
G01 X20.1071 Y12.8668
G01 X20.1040 Y12.8757
G01 X20.0716 Y12.9539
G01 X20.0399 Y13.1134
G01 X20.0399 Y13.2760
G01 X20.0716 Y13.4355
G01 X20.1339 Y13.5857
G01 X20.2318 Y13.7322
G01 X20.2355 Y13.7385
G01 X20.2387 Y13.7452
G01 X20.2411 Y13.7521
G01 X20.2421 Y13.7562
G01 X20.2624 Y13.8038
G01 X20.2646 Y13.8098
G01 X20.2664 Y13.8160
G01 X20.2676 Y13.8223
G01 X20.2690 Y13.8431
G01 X20.2692 Y13.8612
G01 X20.2951 Y13.9917
G01 X20.3460 Y14.1146
G01 X20.4200 Y14.2253
G01 X20.9694 Y14.7747
G01 X21.0800 Y14.8486
G01 X21.1959 Y14.8966
G01 X21.2030 Y14.8995
G01 X21.3335 Y14.9255
G01 X23.8665 Y14.9255
G01 X23.9970 Y14.8995
G01 X24.0185 Y14.8906
G01 X24.0254 Y14.8882
G01 X24.0326 Y14.8864
G01 X24.0527 Y14.8824
G01 X24.0609 Y14.8793
G01 X24.0680 Y14.8775
G01 X24.0777 Y14.8762
G01 X24.2408 Y14.8438
G01 X24.3910 Y14.7815
G01 X24.5262 Y14.6912
G01 X24.5396 Y14.6783
G01 X24.5453 Y14.6741
G01 X24.5514 Y14.6704
G01 X24.6127 Y14.6369
G01 X24.6191 Y14.6338
G01 X24.6258 Y14.6313
G01 X24.6327 Y14.6294
G01 X24.6397 Y14.6282
G01 X24.6468 Y14.6277
G01 X24.6540 Y14.6279
G01 X24.7237 Y14.6329
G01 X24.7311 Y14.6338
G01 X24.7384 Y14.6354
G01 X24.7455 Y14.6378
G01 X24.7524 Y14.6409
G01 X24.7589 Y14.6446
G01 X24.8032 Y14.6731
G01 X24.8097 Y14.6778
G01 X24.8157 Y14.6831
G01 X24.8738 Y14.7412
G01 X25.0090 Y14.8315
G01 X25.1592 Y14.8938
G01 X25.3187 Y14.9255
G01 X25.4813 Y14.9255
G01 X25.6408 Y14.8938
G01 X25.7910 Y14.8315
G01 X25.8621 Y14.7840
G01 X25.8682 Y14.7804
G01 X25.8747 Y14.7773
G01 X25.8814 Y14.7748
G01 X25.9481 Y14.7539
G01 X25.9552 Y14.7521
G01 X25.9624 Y14.7510
G01 X25.9727 Y14.7505
G01 X26.3174 Y14.7505
G01 X26.3245 Y14.7508
G01 X26.3316 Y14.7519
G01 X26.3385 Y14.7535
G01 X26.4056 Y14.7732
G01 X26.4123 Y14.7756
G01 X26.4188 Y14.7785
G01 X26.4250 Y14.7821
G01 X26.4308 Y14.7862
G01 X26.4362 Y14.7909
G01 X26.4411 Y14.7961
G01 X26.4869 Y14.8489
G01 X26.4913 Y14.8545
G01 X26.4951 Y14.8605
G01 X26.4984 Y14.8668
G01 X26.5011 Y14.8735
G01 X26.5031 Y14.8803
G01 X26.5044 Y14.8873
G01 X26.5144 Y14.9565
G01 X26.5150 Y14.9636
G01 X26.5150 Y14.9707
G01 X26.5144 Y14.9778
G01 X26.5130 Y14.9848
G01 X26.5110 Y14.9917
G01 X26.5084 Y14.9983
G01 X26.4780 Y15.0646
G01 X26.4746 Y15.0707
G01 X26.4705 Y15.0765
G01 X26.4581 Y15.0902
G01 X25.2947 Y16.2536
G01 X25.2235 Y16.3601
G01 X25.1745 Y16.4785
G01 X25.1495 Y16.6042
G01 X25.1495 Y16.9273
G01 X25.1492 Y16.9344
G01 X25.1481 Y16.9415
G01 X25.1465 Y16.9484
G01 X25.1268 Y17.0155
G01 X25.1252 Y17.0202
G01 X25.1218 Y17.0280
G01 X25.1163 Y17.0373
G01 X25.0685 Y17.1090
G01 X25.0062 Y17.2592
G01 X24.9745 Y17.4187
G01 X24.9745 Y17.5813
G01 X25.0062 Y17.7408
G01 X25.0684 Y17.8910
G01 X25.1588 Y18.0262
G01 X25.2738 Y18.1412
G01 X25.4090 Y18.2315
G01 X25.5592 Y18.2938
G01 X25.7187 Y18.3255
G01 X25.8813 Y18.3255
G01 X26.0408 Y18.2938
G01 X26.1910 Y18.2315
G01 X26.3262 Y18.1412
G01 X26.4412 Y18.0262
G01 X26.5315 Y17.8910
G01 X26.5938 Y17.7408
G01 X26.6255 Y17.5813
G01 X26.6255 Y17.4187
G01 X26.5938 Y17.2592
G01 X26.5315 Y17.1090
G01 X26.5212 Y17.0935
G01 X26.5175 Y17.0874
G01 X26.5145 Y17.0810
G01 X26.5120 Y17.0743
G01 X26.4911 Y17.0076
G01 X26.4893 Y17.0007
G01 X26.4882 Y16.9936
G01 X26.4877 Y16.9865
G01 X26.4879 Y16.9794
G01 X26.4888 Y16.9723
G01 X26.4904 Y16.9653
G01 X26.5089 Y16.8980
G01 X26.5112 Y16.8908
G01 X26.5143 Y16.8839
G01 X26.5180 Y16.8774
G01 X26.5224 Y16.8713
G01 X26.5402 Y16.8487
G01 X26.5460 Y16.8422
G01 X27.7544 Y15.6338
G01 X27.7597 Y15.6290
G01 X27.7654 Y15.6247
G01 X27.7715 Y15.6210
G01 X27.8328 Y15.5875
G01 X27.8395 Y15.5843
G01 X27.8464 Y15.5818
G01 X27.8535 Y15.5799
G01 X27.8608 Y15.5788
G01 X27.8871 Y15.5759
G01 X27.8951 Y15.5755
G01 X36.4273 Y15.5755
G01 X36.4344 Y15.5758
G01 X36.4415 Y15.5769
G01 X36.4484 Y15.5785
G01 X36.5202 Y15.5998
G01 X36.5280 Y15.6032
G01 X36.5354 Y15.6074
G01 X36.6090 Y15.6565
G01 X36.7592 Y15.7188
G01 X36.9187 Y15.7505
G01 X37.0813 Y15.7505
G01 X37.2408 Y15.7188
G01 X37.3910 Y15.6565
G01 X37.5262 Y15.5662
G01 X37.6412 Y15.4512
G01 X37.7315 Y15.3160
G01 X37.7938 Y15.1658
G01 X37.8255 Y15.0063
G01 X37.8255 Y14.8437
G01 X37.7938 Y14.6842
G01 X37.7316 Y14.5340
G01 X37.6412 Y14.3988
G01 X37.5262 Y14.2838
G01 X37.4640 Y14.2422
G01 X37.4583 Y14.2380
G01 X37.4530 Y14.2332
G01 X37.4482 Y14.2280
G01 X37.4034 Y14.1744
G01 X37.3990 Y14.1687
G01 X37.3953 Y14.1626
G01 X37.3921 Y14.1562
G01 X37.3896 Y14.1495
G01 X37.3877 Y14.1426
G01 X37.3865 Y14.1356
G01 X37.3778 Y14.0663
G01 X37.3772 Y14.0592
G01 X37.3774 Y14.0520
G01 X37.3782 Y14.0449
G01 X37.3796 Y14.0380
G01 X37.3818 Y14.0312
G01 X37.3845 Y14.0246
G01 X37.4162 Y13.9586
G01 X37.4196 Y13.9528
G01 X37.4235 Y13.9474
G01 X37.4339 Y13.9361
G01 X38.3612 Y13.0088
G01 X38.3664 Y13.0040
G01 X38.3722 Y12.9997
G01 X38.3782 Y12.9960
G01 X38.4396 Y12.9625
G01 X38.4462 Y12.9593
G01 X38.4531 Y12.9568
G01 X38.4602 Y12.9549
G01 X38.4675 Y12.9538
G01 X38.4939 Y12.9509
G01 X38.5019 Y12.9505
G01 X42.4590 Y12.9505
G01 X42.4788 Y12.9514
G01 X42.4873 Y12.9524
G01 X42.5063 Y12.9558
G01 X42.6072 Y12.9596
G01 X42.6786 Y12.9677
G01 X42.6967 Y12.9707
G01 X42.7376 Y12.9794
G01 X42.7531 Y12.9834
G01 X42.7748 Y12.9905
G01 X42.7970 Y12.9996
G01 X42.8708 Y13.0360
G01 X42.8908 Y13.0475
G01 X43.0024 Y13.1237
G01 X43.1178 Y13.2047
G01 X43.1336 Y13.2154
G01 X43.1499 Y13.2253
G01 X43.2847 Y13.3042
G01 X43.3112 Y13.3186
G01 X43.3386 Y13.3312
G01 X43.5070 Y13.4021
G01 X43.5370 Y13.4135
G01 X43.5678 Y13.4229
G01 X43.7865 Y13.4807
G01 X43.8488 Y13.4907
G01 X43.8753 Y13.4929
G01 X43.9551 Y13.5055
G01 X44.1449 Y13.5055
G01 X44.3323 Y13.4758
G01 X44.5128 Y13.4172
G01 X44.6818 Y13.3310
G01 X44.8353 Y13.2195
G01 X44.9695 Y13.0853
G01 X45.0810 Y12.9318
G01 X45.1672 Y12.7628
G01 X45.2258 Y12.5823
G01 X45.2555 Y12.3949
G01 X45.2555 Y12.2051
G01 X45.2258 Y12.0177
G01 X45.1672 Y11.8373
G01 X45.0810 Y11.6682
G01 X44.9695 Y11.5147
G01 X44.8353 Y11.3805
G01 X44.6818 Y11.2690
G01 X44.5127 Y11.1828
G01 X44.3323 Y11.1242
G01 X44.1449 Y11.0945
G01 X43.9551 Y11.0945
G01 X43.8166 Y11.1164
G01 X43.8031 Y11.1181
G01 X43.7821 Y11.1200
G01 X43.6687 Y11.1467
G01 X43.6515 Y11.1511
G01 X43.6350 Y11.1560
G01 X43.5240 Y11.1912
G01 X43.4981 Y11.2003
G01 X43.4722 Y11.2112
G01 X43.2819 Y11.2980
G01 X43.2510 Y11.3134
G01 X43.2217 Y11.3310
G01 X43.0461 Y11.4453
G01 X43.0272 Y11.4582
G01 X42.9980 Y11.4793
G01 X42.8987 Y11.5478
G01 X42.8807 Y11.5584
G01 X42.8065 Y11.5966
G01 X42.7793 Y11.6081
G01 X42.7609 Y11.6142
G01 X42.7444 Y11.6187
G01 X42.7029 Y11.6280
G01 X42.6873 Y11.6308
G01 X42.6168 Y11.6395
G01 X42.6030 Y11.6406
G01 X42.5019 Y11.6443
G01 X42.4525 Y11.6483
G01 X42.4339 Y11.6495
G01 X38.0859 Y11.6495
G01 X37.9603 Y11.6745
G01 X37.8419 Y11.7235
G01 X37.7353 Y11.7947
G01 X36.1388 Y13.3912
G01 X36.1336 Y13.3960
G01 X36.1278 Y13.4003
G01 X36.1218 Y13.4040
G01 X36.0604 Y13.4375
G01 X36.0538 Y13.4407
G01 X36.0469 Y13.4432
G01 X36.0398 Y13.4451
G01 X36.0325 Y13.4462
G01 X36.0061 Y13.4491
G01 X35.9981 Y13.4495
G01 X30.6137 Y13.4495
G01 X30.6066 Y13.4492
G01 X30.5995 Y13.4481
G01 X30.5926 Y13.4465
G01 X30.5730 Y13.4407
G01 X30.5527 Y13.4379
G01 X30.5457 Y13.4366
G01 X30.5388 Y13.4346
G01 X30.5322 Y13.4320
G01 X30.5258 Y13.4288
G01 X30.5194 Y13.4246
G01 X30.5123 Y13.4215
G01 X30.5061 Y13.4179
G01 X30.5003 Y13.4138
G01 X30.4949 Y13.4091
G01 X30.4900 Y13.4039
G01 X30.4766 Y13.3885
G01 X30.4611 Y13.3752
G01 X30.4559 Y13.3703
G01 X30.4512 Y13.3649
G01 X30.4470 Y13.3591
G01 X30.4434 Y13.3530
G01 X30.4402 Y13.3460
G01 X30.4360 Y13.3395
G01 X30.4327 Y13.3332
G01 X30.4301 Y13.3265
G01 X30.4280 Y13.3197
G01 X30.4267 Y13.3127
G01 X30.4238 Y13.2924
G01 X30.4179 Y13.2729
G01 X30.4161 Y13.2658
G01 X30.4151 Y13.2586
G01 X30.4147 Y13.2513
G01 X30.4151 Y13.2441
G01 X30.4161 Y13.2370
G01 X30.4160 Y13.2303
G01 X30.4166 Y13.2237
G01 X30.4212 Y13.2006
G01 X30.4244 Y13.1889
G01 X30.4272 Y13.1809
G01 X30.4438 Y13.1408
G01 X30.4558 Y13.0801
G01 X30.4602 Y13.0645
G01 X30.4634 Y13.0569
G01 X30.4675 Y13.0496
G01 X30.4819 Y13.0269
G01 X30.4943 Y13.0031
G01 X30.4979 Y12.9970
G01 X30.5021 Y12.9912
G01 X30.5068 Y12.9858
G01 X30.5188 Y12.9744
G01 X30.5243 Y12.9700
G01 X30.5303 Y12.9661
G01 X30.5366 Y12.9628
G01 X30.5610 Y12.9514
G01 X30.5844 Y12.9381
G01 X30.5903 Y12.9351
G01 X30.5964 Y12.9326
G01 X30.6027 Y12.9307
G01 X30.6092 Y12.9293
G01 X30.6205 Y12.9272
G01 X30.6262 Y12.9265
G01 X30.7908 Y12.8938
G01 X30.9410 Y12.8315
G01 X31.0762 Y12.7412
G01 X31.1912 Y12.6262
G01 X31.2815 Y12.4910
G01 X31.3438 Y12.3408
G01 X31.3755 Y12.1813
G01 X31.3755 Y12.0187
G01 X31.3438 Y11.8592
G01 X31.2816 Y11.7090
G01 X31.1912 Y11.5738
G01 X31.0762 Y11.4588
G01 X30.9410 Y11.3685
G01 X30.7908 Y11.3062
G01 X30.7016 Y11.2885
G01 X30.6947 Y11.2868
G01 X30.6880 Y11.2844
G01 X30.6815 Y11.2814
G01 X30.6196 Y11.2490
G01 X30.6134 Y11.2454
G01 X30.6076 Y11.2412
G01 X30.6023 Y11.2365
G01 X30.5974 Y11.2313
G01 X30.5930 Y11.2257
G01 X30.5892 Y11.2197
G01 X30.5546 Y11.1589
G01 X30.5512 Y11.1522
G01 X30.5485 Y11.1452
G01 X30.5465 Y11.1379
G01 X30.5453 Y11.1305
G01 X30.5420 Y11.1020
G01 X30.5415 Y11.0933
G01 X30.5415 Y10.9980
G01 X30.5147 Y10.8633
G01 X30.5136 Y10.8563
G01 X30.5132 Y10.8491
G01 X30.5135 Y10.8420
G01 X30.5197 Y10.7724
G01 X30.5207 Y10.7653
G01 X30.5224 Y10.7584
G01 X30.5247 Y10.7516
G01 X30.5276 Y10.7451
G01 X30.5311 Y10.7389
G01 X30.5352 Y10.7331
G01 X30.5781 Y10.6779
G01 X30.5827 Y10.6725
G01 X30.5879 Y10.6675
G01 X30.5934 Y10.6631
G01 X30.5994 Y10.6592
G01 X30.6058 Y10.6559
G01 X30.6124 Y10.6532
G01 X30.6783 Y10.6300
G01 X30.6857 Y10.6277
G01 X30.6934 Y10.6263
G01 X30.7012 Y10.6257
G01 X33.3165 Y10.6255
G01 X33.4470 Y10.5995
G01 X33.5700 Y10.5486
G01 X33.6806 Y10.4747
G01 X34.4747 Y9.6806
G01 X34.5486 Y9.5700
G01 X34.5995 Y9.4470
G01 X34.6255 Y9.3165
G01 X34.6256 Y8.3138
G01 X34.6266 Y8.2973
G01 X34.6274 Y8.2889
G01 X34.6301 Y8.2751
G01 X34.6455 Y8.1134
G01 X34.6481 Y8.0961
G01 X34.6646 Y8.0182
G01 X34.6675 Y8.0064
G01 X34.6960 Y7.9088
G01 X34.7000 Y7.8970
G01 X34.7318 Y7.8134
G01 X34.7371 Y7.8010
G01 X34.7510 Y7.7723
G01 X34.7554 Y7.7653
G01 X34.7606 Y7.7589
G01 X34.8072 Y7.7069
G01 X34.8129 Y7.7012
G01 X34.8192 Y7.6961
G01 X34.8338 Y7.6873
G01 X34.9343 Y7.6348
G01 X35.0723 Y7.5223
G01 X35.1848 Y7.3843
G01 X35.2672 Y7.2264
G01 X35.3163 Y7.0548
G01 X35.3255 Y6.9518
G01 X35.3255 Y5.9482
G01 X35.3163 Y5.8452
G01 X35.2672 Y5.6736
G01 X35.1848 Y5.5157
G01 X35.0723 Y5.3777
G01 X34.9343 Y5.2652
G01 X34.7764 Y5.1828
G01 X34.6048 Y5.1337
G01 X34.5018 Y5.1245
G01 X33.3982 Y5.1245
G01 X33.2952 Y5.1337
G01 X33.1236 Y5.1828
G01 X32.9657 Y5.2652
G01 X32.8258 Y5.3793
G01 X32.8200 Y5.3836
G01 X32.8139 Y5.3873
G01 X32.8075 Y5.3903
G01 X32.7431 Y5.4175
G01 X32.7364 Y5.4199
G01 X32.7295 Y5.4217
G01 X32.7224 Y5.4229
G01 X32.7153 Y5.4233
G01 X32.7082 Y5.4231
G01 X32.7011 Y5.4222
G01 X32.6322 Y5.4102
G01 X32.6250 Y5.4086
G01 X32.6179 Y5.4062
G01 X32.6111 Y5.4031
G01 X32.6046 Y5.3994
G01 X32.5811 Y5.3843
G01 X32.5742 Y5.3793
G01 X32.4343 Y5.2652
G01 X32.2764 Y5.1828
G01 X32.1048 Y5.1337
G01 X32.0018 Y5.1245
G01 X30.8982 Y5.1245
G01 X30.7952 Y5.1337
G01 X30.6236 Y5.1828
G01 X30.4657 Y5.2652
G01 X30.3258 Y5.3793
G01 X30.3200 Y5.3836
G01 X30.3139 Y5.3873
G01 X30.3075 Y5.3903
G01 X30.2431 Y5.4175
G01 X30.2364 Y5.4199
G01 X30.2295 Y5.4217
G01 X30.2224 Y5.4229
G01 X30.2153 Y5.4233
G01 X30.2082 Y5.4231
G01 X30.2011 Y5.4222
G01 X30.1322 Y5.4102
G01 X30.1250 Y5.4086
G01 X30.1179 Y5.4062
G01 X30.1111 Y5.4031
G01 X30.1046 Y5.3994
G01 X30.0811 Y5.3843
G01 X30.0742 Y5.3793
G01 X29.9343 Y5.2652
G01 X29.7764 Y5.1828
G01 X29.7410 Y5.1725
G01 X29.7334 Y5.1693
G01 X29.7261 Y5.1652
G01 X29.7131 Y5.1570
G01 X29.6987 Y5.1515
G01 X29.6914 Y5.1483
G01 X29.6844 Y5.1442
G01 X29.6780 Y5.1395
G01 X29.6720 Y5.1341
G01 X29.6629 Y5.1249
G01 X29.6543 Y5.1176
G01 X29.6488 Y5.1115
G01 X29.6403 Y5.1009
G01 X29.6242 Y5.0786
G01 X29.6101 Y5.0552
G01 X29.5575 Y4.9508
G01 X29.5458 Y4.9220
G01 X29.5017 Y4.7844
G01 X29.4957 Y4.7607
G01 X29.4872 Y4.7157
G01 X29.4856 Y4.7037
G01 X29.4844 Y4.6910
G01 X29.4841 Y4.6839
G01 X29.4844 Y4.6768
G01 X29.4855 Y4.6697
G01 X29.4991 Y4.6012
G01 X29.5012 Y4.5930
G01 X29.5042 Y4.5851
G01 X29.5081 Y4.5775
G01 X29.5171 Y4.5627
G01 X29.5315 Y4.5410
G01 X29.5938 Y4.3908
G01 X29.6255 Y4.2313
G01 X29.6255 Y4.0687
G01 X29.5938 Y3.9092
G01 X29.5316 Y3.7590
G01 X29.4923 Y3.7002
G01 X29.4886 Y3.6941
G01 X29.4855 Y3.6877
G01 X29.4831 Y3.6810
G01 X29.4622 Y3.6143
G01 X29.4604 Y3.6074
G01 X29.4592 Y3.6003
G01 X29.4588 Y3.5932
G01 X29.4590 Y3.5861
G01 X29.4599 Y3.5790
G01 X29.4614 Y3.5720
G01 X29.4799 Y3.5046
G01 X29.4823 Y3.4975
G01 X29.4853 Y3.4907
G01 X29.4890 Y3.4842
G01 X29.4934 Y3.4781
G01 X29.4983 Y3.4724
G01 X29.5349 Y3.4345
G01 X29.5408 Y3.4290
G01 X29.5472 Y3.4242
G01 X29.5718 Y3.4077
G01 X29.7077 Y3.2718
G01 X29.8145 Y3.1121
G01 X29.8880 Y2.9345
G01 X29.9255 Y2.7461
G01 X29.9255 Y2.5539
G01 X29.8880 Y2.3655
G01 X29.8145 Y2.1879
G01 X29.7077 Y2.0282
G01 X29.5718 Y1.8923
G01 X29.4121 Y1.7855
G01 X29.2345 Y1.7120
G01 X29.0461 Y1.6745
G01 X28.8539 Y1.6745
G01 X28.6655 Y1.7120
G01 X28.4879 Y1.7855
G01 X28.3282 Y1.8923
G01 X28.1923 Y2.0282
G01 X28.0855 Y2.1879
G01 X28.0120 Y2.3655
G01 X27.9745 Y2.5539
G01 X27.9745 Y2.7461
G01 X28.0120 Y2.9345
G01 X28.0855 Y3.1121
G01 X28.1923 Y3.2718
G01 X28.2108 Y3.2904
G01 X28.2156 Y3.2956
G01 X28.2199 Y3.3013
G01 X28.2236 Y3.3074
G01 X28.2571 Y3.3688
G01 X28.2602 Y3.3752
G01 X28.2627 Y3.3819
G01 X28.2645 Y3.3888
G01 X28.2657 Y3.3958
G01 X28.2662 Y3.4029
G01 X28.2660 Y3.4101
G01 X28.2611 Y3.4797
G01 X28.2602 Y3.4872
G01 X28.2585 Y3.4945
G01 X28.2561 Y3.5016
G01 X28.2531 Y3.5084
G01 X28.2493 Y3.5149
G01 X28.2208 Y3.5593
G01 X28.2162 Y3.5658
G01 X28.2108 Y3.5718
G01 X28.1588 Y3.6238
G01 X28.0685 Y3.7590
G01 X28.0062 Y3.9092
G01 X27.9745 Y4.0687
G01 X27.9745 Y4.2313
G01 X28.0062 Y4.3908
G01 X28.0684 Y4.5410
G01 X28.0821 Y4.5615
G01 X28.0858 Y4.5676
G01 X28.0889 Y4.5741
G01 X28.0914 Y4.5808
G01 X28.0963 Y4.5967
G01 X28.1042 Y4.6114
G01 X28.1076 Y4.6187
G01 X28.1102 Y4.6263
G01 X28.1120 Y4.6342
G01 X28.1136 Y4.6529
G01 X28.1154 Y4.6638
G01 X28.1156 Y4.6722
G01 X28.1150 Y4.6880
G01 X28.1020 Y4.8494
G01 X28.1001 Y4.8651
G01 X28.0807 Y4.9734
G01 X28.0783 Y4.9847
G01 X28.0472 Y5.1070
G01 X28.0436 Y5.1189
G01 X28.0231 Y5.1792
G01 X28.0181 Y5.1908
G01 X28.0137 Y5.1979
G01 X27.9746 Y5.2542
G01 X27.9704 Y5.2597
G01 X27.9656 Y5.2649
G01 X27.9604 Y5.2695
G01 X27.8277 Y5.3777
G01 X27.7152 Y5.5157
G01 X27.6328 Y5.6736
G01 X27.5837 Y5.8452
G01 X27.5745 Y5.9482
G01 X27.5745 Y6.9518
G01 X27.5837 Y7.0548
G01 X27.6328 Y7.2264
G01 X27.7152 Y7.3843
G01 X27.8277 Y7.5223
G01 X27.9657 Y7.6348
G01 X28.1236 Y7.7172
G01 X28.2952 Y7.7663
G01 X28.3982 Y7.7755
G01 X29.5018 Y7.7755
G01 X29.6048 Y7.7663
G01 X29.7764 Y7.7172
G01 X29.9343 Y7.6348
G01 X30.0742 Y7.5207
G01 X30.0800 Y7.5164
G01 X30.0861 Y7.5127
G01 X30.0925 Y7.5097
G01 X30.1569 Y7.4825
G01 X30.1636 Y7.4801
G01 X30.1705 Y7.4783
G01 X30.1776 Y7.4771
G01 X30.1847 Y7.4767
G01 X30.1918 Y7.4769
G01 X30.1989 Y7.4778
G01 X30.2678 Y7.4898
G01 X30.2750 Y7.4914
G01 X30.2821 Y7.4938
G01 X30.2889 Y7.4969
G01 X30.2954 Y7.5006
G01 X30.3189 Y7.5157
G01 X30.3258 Y7.5207
G01 X30.4657 Y7.6348
G01 X30.5617 Y7.6849
G01 X30.5658 Y7.6872
G01 X30.5727 Y7.6919
G01 X30.5790 Y7.6974
G01 X30.5942 Y7.7121
G01 X30.6114 Y7.7244
G01 X30.6176 Y7.7295
G01 X30.6233 Y7.7351
G01 X30.6283 Y7.7414
G01 X30.6347 Y7.7517
G01 X30.6381 Y7.7560
G01 X30.6418 Y7.7616
G01 X30.6449 Y7.7675
G01 X30.6548 Y7.7885
G01 X30.6706 Y7.8288
G01 X30.6729 Y7.8355
G01 X30.6745 Y7.8425
G01 X30.6755 Y7.8495
G01 X30.6817 Y7.9191
G01 X30.6820 Y7.9263
G01 X30.6816 Y7.9335
G01 X30.6805 Y7.9406
G01 X30.6788 Y7.9476
G01 X30.6717 Y7.9708
G01 X30.6693 Y7.9777
G01 X30.6562 Y8.0092
G01 X30.6245 Y8.1687
G01 X30.6245 Y8.3313
G01 X30.6562 Y8.4908
G01 X30.7184 Y8.6410
G01 X30.8088 Y8.7762
G01 X30.9238 Y8.8912
G01 X30.9520 Y8.9100
G01 X30.9577 Y8.9143
G01 X30.9630 Y8.9191
G01 X30.9678 Y8.9243
G01 X31.0126 Y8.9779
G01 X31.0170 Y8.9836
G01 X31.0207 Y8.9897
G01 X31.0239 Y8.9961
G01 X31.0264 Y9.0028
G01 X31.0283 Y9.0096
G01 X31.0295 Y9.0167
G01 X31.0382 Y9.0860
G01 X31.0388 Y9.0931
G01 X31.0386 Y9.1002
G01 X31.0378 Y9.1073
G01 X31.0364 Y9.1143
G01 X31.0342 Y9.1211
G01 X31.0315 Y9.1277
G01 X31.0013 Y9.1907
G01 X30.9979 Y9.1970
G01 X30.9940 Y9.2030
G01 X30.9894 Y9.2085
G01 X30.9844 Y9.2136
G01 X30.9789 Y9.2181
G01 X30.9731 Y9.2222
G01 X30.9136 Y9.2589
G01 X30.9067 Y9.2627
G01 X30.8995 Y9.2657
G01 X30.8919 Y9.2680
G01 X30.8842 Y9.2694
G01 X30.8514 Y9.2738
G01 X30.8414 Y9.2745
G01 X29.9853 Y9.2745
G01 X29.9781 Y9.2742
G01 X29.9711 Y9.2731
G01 X29.9641 Y9.2715
G01 X29.8924 Y9.2502
G01 X29.8845 Y9.2468
G01 X29.8771 Y9.2425
G01 X29.8410 Y9.2185
G01 X29.6908 Y9.1562
G01 X29.5313 Y9.1245
G01 X29.3687 Y9.1245
G01 X29.2092 Y9.1562
G01 X29.0590 Y9.2184
G01 X28.9238 Y9.3088
G01 X28.8088 Y9.4238
G01 X28.7185 Y9.5590
G01 X28.6562 Y9.7092
G01 X28.6245 Y9.8687
G01 X28.6245 Y10.0313
G01 X28.6389 Y10.1035
G01 X28.6399 Y10.1105
G01 X28.6403 Y10.1177
G01 X28.6400 Y10.1248
G01 X28.6338 Y10.1944
G01 X28.6328 Y10.2015
G01 X28.6312 Y10.2084
G01 X28.6289 Y10.2152
G01 X28.6259 Y10.2217
G01 X28.6224 Y10.2279
G01 X28.6183 Y10.2337
G01 X28.5754 Y10.2889
G01 X28.5708 Y10.2943
G01 X28.5657 Y10.2993
G01 X28.5601 Y10.3037
G01 X28.5541 Y10.3076
G01 X28.5478 Y10.3109
G01 X28.5412 Y10.3136
G01 X28.4753 Y10.3369
G01 X28.4684 Y10.3389
G01 X28.4614 Y10.3403
G01 X28.4543 Y10.3410
G01 X28.4472 Y10.3411
G01 X28.4401 Y10.3404
G01 X28.4331 Y10.3391
G01 X28.3651 Y10.3231
G01 X28.3575 Y10.3208
G01 X28.3503 Y10.3179
G01 X28.3433 Y10.3141
G01 X28.3368 Y10.3097
G01 X28.3105 Y10.2896
G01 X28.3030 Y10.2830
G01 X27.5147 Y9.4947
G01 X27.4081 Y9.4235
G01 X27.2897 Y9.3745
G01 X27.1641 Y9.3495
G01 X21.9919 Y9.3495
G01 X21.9847 Y9.3492
G01 X21.9777 Y9.3481
G01 X21.9707 Y9.3465
G01 X21.9037 Y9.3268
G01 X21.8968 Y9.3244
G01 X21.8901 Y9.3213
G01 X21.8837 Y9.3175
G01 X21.8778 Y9.3132
G01 X21.8571 Y9.2966
G01 X21.8512 Y9.2912
G01 X21.2588 Y8.6988
G01 X21.2540 Y8.6936
G01 X21.2497 Y8.6878
G01 X21.2460 Y8.6818
G01 X21.2125 Y8.6204
G01 X21.2093 Y8.6138
G01 X21.2068 Y8.6069
G01 X21.2049 Y8.5998
G01 X21.2038 Y8.5925
G01 X21.2009 Y8.5661
G01 X21.2005 Y8.5581
G01 X21.2005 Y6.5694
G01 X21.2008 Y6.5622
G01 X21.2019 Y6.5552
G01 X21.2035 Y6.5482
G01 X21.2232 Y6.4812
G01 X21.2259 Y6.4737
G01 X21.2293 Y6.4665
G01 X21.2334 Y6.4598
G01 X21.2383 Y6.4535
G01 X21.2606 Y6.4275
G01 X21.2679 Y6.4201
G01 X21.2758 Y6.4131
G01 X21.2808 Y6.4091
G01 X21.2861 Y6.4055
G01 X21.3218 Y6.3835
G01 X21.4121 Y6.2932
G01 X21.4184 Y6.2874
G01 X21.4240 Y6.2830
G01 X21.4300 Y6.2791
G01 X21.4363 Y6.2757
G01 X21.4624 Y6.2636
G01 X21.4877 Y6.2497
G01 X21.4941 Y6.2466
G01 X21.5008 Y6.2441
G01 X21.5077 Y6.2423
G01 X21.5200 Y6.2400
G01 X21.5271 Y6.2393
G01 X21.5343 Y6.2392
G01 X21.5414 Y6.2398
G01 X21.5699 Y6.2437
G01 X21.5987 Y6.2457
G01 X21.6061 Y6.2466
G01 X21.6134 Y6.2483
G01 X21.6205 Y6.2507
G01 X21.6311 Y6.2550
G01 X21.6375 Y6.2582
G01 X21.6435 Y6.2620
G01 X21.6534 Y6.2700
G01 X21.6782 Y6.2860
G01 X21.6847 Y6.2906
G01 X21.6907 Y6.2960
G01 X21.7662 Y6.3715
G01 X21.7710 Y6.3768
G01 X21.7753 Y6.3825
G01 X21.7790 Y6.3886
G01 X21.8125 Y6.4499
G01 X21.8157 Y6.4566
G01 X21.8182 Y6.4635
G01 X21.8201 Y6.4706
G01 X21.8212 Y6.4779
G01 X21.8241 Y6.5042
G01 X21.8245 Y6.5122
G01 X21.8245 Y6.6215
G01 X21.8524 Y6.7616
G01 X21.9071 Y6.8936
G01 X21.9865 Y7.0125
G01 X22.0875 Y7.1135
G01 X22.2063 Y7.1929
G01 X22.3384 Y7.2476
G01 X22.4785 Y7.2755
G01 X22.6215 Y7.2755
G01 X22.7616 Y7.2476
G01 X22.8937 Y7.1929
G01 X23.0125 Y7.1135
G01 X23.1135 Y7.0125
G01 X23.1929 Y6.8937
G01 X23.2476 Y6.7616
G01 X23.2755 Y6.6215
G01 X23.2755 Y6.5122
G01 X23.2758 Y6.5051
G01 X23.2769 Y6.4980
G01 X23.2785 Y6.4911
G01 X23.2982 Y6.4241
G01 X23.3006 Y6.4171
G01 X23.3037 Y6.4104
G01 X23.3075 Y6.4041
G01 X23.3118 Y6.3981
G01 X23.3284 Y6.3775
G01 X23.3338 Y6.3715
G01 X23.4335 Y6.2718
G01 X23.4963 Y6.1700
G01 X23.5003 Y6.1641
G01 X23.5049 Y6.1587
G01 X23.5099 Y6.1536
G01 X23.5619 Y6.1069
G01 X23.5678 Y6.1021
G01 X23.5742 Y6.0979
G01 X23.5810 Y6.0944
G01 X23.5881 Y6.0916
G01 X23.5954 Y6.0895
G01 X23.6490 Y6.0774
G01 X23.6573 Y6.0760
G01 X23.6656 Y6.0755
G01 X25.1683 Y6.0755
G01 X25.1754 Y6.0758
G01 X25.1825 Y6.0769
G01 X25.1894 Y6.0785
G01 X25.2565 Y6.0982
G01 X25.2634 Y6.1006
G01 X25.2701 Y6.1037
G01 X25.2765 Y6.1075
G01 X25.2824 Y6.1118
G01 X25.2879 Y6.1167
G01 X25.3240 Y6.1521
G01 X25.3292 Y6.1578
G01 X25.3338 Y6.1639
G01 X25.4088 Y6.2762
G01 X25.5238 Y6.3912
G01 X25.6590 Y6.4815
G01 X25.8092 Y6.5438
G01 X25.9687 Y6.5755
G01 X26.1313 Y6.5755
G01 X26.2908 Y6.5438
G01 X26.4410 Y6.4815
G01 X26.5762 Y6.3912
G01 X26.6912 Y6.2762
G01 X26.7815 Y6.1410
G01 X26.8438 Y5.9908
G01 X26.8755 Y5.8313
G01 X26.8755 Y5.6687
G01 X26.8438 Y5.5092
G01 X26.7816 Y5.3590
G01 X26.6912 Y5.2238
G01 X26.5762 Y5.1088
G01 X26.4410 Y5.0185
G01 X26.3628 Y4.9860
G01 X26.3556 Y4.9826
G01 X26.3498 Y4.9791
G01 X26.3096 Y4.9522
G01 X26.3037 Y4.9478
G01 X26.2982 Y4.9429
G01 X26.2306 Y4.8753
G01 X26.1200 Y4.8014
G01 X25.9970 Y4.7505
G01 X25.8665 Y4.7245
G01 X23.6656 Y4.7245
G01 X23.6585 Y4.7242
G01 X23.6514 Y4.7231
G01 X23.6445 Y4.7215
G01 X23.5775 Y4.7018
G01 X23.5703 Y4.6993
G01 X23.5634 Y4.6960
G01 X23.5568 Y4.6921
G01 X23.5507 Y4.6875
G01 X23.5451 Y4.6824
G01 X23.5066 Y4.6431
G01 X23.5011 Y4.6368
G01 X23.4963 Y4.6300
G01 X23.4335 Y4.5282
G01 X23.3218 Y4.4165
G01 X23.1874 Y4.3336
G01 X23.0370 Y4.2838
G01 X22.9462 Y4.2745
G01 X22.1538 Y4.2745
G01 X22.0630 Y4.2838
G01 X21.9126 Y4.3336
G01 X21.7782 Y4.4165
G01 X21.6907 Y4.5040
G01 X21.6823 Y4.5119
G01 X21.6767 Y4.5164
G01 X21.6708 Y4.5204
G01 X21.6645 Y4.5237
G01 X21.6380 Y4.5362
G01 X21.6123 Y4.5503
G01 X21.6059 Y4.5534
G01 X21.5992 Y4.5559
G01 X21.5923 Y4.5577
G01 X21.5809 Y4.5599
G01 X21.5738 Y4.5606
G01 X21.5667 Y4.5607
G01 X21.5596 Y4.5601
G01 X21.5305 Y4.5563
G01 X21.5013 Y4.5543
G01 X21.4945 Y4.5535
G01 X21.4878 Y4.5520
G01 X21.4812 Y4.5500
G01 X21.4699 Y4.5455
G01 X21.4636 Y4.5423
G01 X21.4479 Y4.5320
G01 X21.4268 Y4.5193
G01 X21.4217 Y4.5154
G01 X21.4130 Y4.5077
G01 X21.3218 Y4.4165
G01 X21.2622 Y4.3797
G01 X21.2532 Y4.3732
G01 X21.2409 Y4.3624
G01 X21.2362 Y4.3571
G01 X21.2320 Y4.3514
G01 X21.2207 Y4.3342
G01 X21.2069 Y4.3189
G01 X21.2021 Y4.3130
G01 X21.1979 Y4.3066
G01 X21.1944 Y4.2999
G01 X21.1916 Y4.2928
G01 X21.1901 Y4.2875
G01 X21.1867 Y4.2805
G01 X21.1843 Y4.2738
G01 X21.1825 Y4.2669
G01 X21.1814 Y4.2598
G01 X21.1809 Y4.2475
G01 X21.1774 Y4.2318
G01 X21.1760 Y4.2236
G01 X21.1755 Y4.2152
G01 X21.1755 Y1.7495
G01 X21.1758 Y1.7424
G01 X21.1769 Y1.7353
G01 X21.1785 Y1.7284
G01 X21.1982 Y1.6613
G01 X21.2006 Y1.6546
G01 X21.2035 Y1.6481
G01 X21.2071 Y1.6419
G01 X21.2112 Y1.6361
G01 X21.2159 Y1.6307
G01 X21.2211 Y1.6258
G01 X21.2739 Y1.5800
G01 X21.2798 Y1.5754
G01 X21.2861 Y1.5714
G01 X21.2928 Y1.5680
G01 X21.2998 Y1.5654
G01 X21.3070 Y1.5634
G01 X21.3586 Y1.5522
G01 X21.3665 Y1.5509
G01 X21.3745 Y1.5505
G01 X21.7336 Y1.5505
G01 X21.7407 Y1.5508
G01 X21.7478 Y1.5519
G01 X21.7547 Y1.5535
G01 X21.8249 Y1.5742
G01 X21.8313 Y1.5768
G01 X21.8375 Y1.5799
G01 X21.8434 Y1.5836
G01 X21.8690 Y1.6023
G01 X21.9849 Y1.6455
G01 X22.0311 Y1.6505
G01 X23.1689 Y1.6505
G01 X23.2151 Y1.6455
G01 X23.3310 Y1.6023
G01 X23.4290 Y1.5290
G01 X23.5023 Y1.4310
G01 X23.5455 Y1.3151
G01 X23.5505 Y1.2689
G01 X23.5505 Y0.6810
G01 X23.4847 Y0.6153
G01 X23.4624 Y0.5908
G01 X23.4577 Y0.5851
G01 X23.4397 Y0.5607
G01 X23.4210 Y0.5300
G01 X23.4175 Y0.5236
G01 X23.4049 Y0.4969
G01 X23.4021 Y0.4901
G01 X23.3922 Y0.4624
G01 X23.3900 Y0.4554
G01 X23.3829 Y0.4268
G01 X23.3814 Y0.4196
G01 X23.3771 Y0.3904
G01 X23.3764 Y0.3831
G01 X23.3749 Y0.3537
G01 X23.3749 Y0.3463
G01 X23.3764 Y0.3169
G01 X23.3771 Y0.3096
G01 X23.3814 Y0.2804
G01 X23.3829 Y0.2732
G01 X23.3907 Y0.2424
G01 X23.3310 Y0.1977
G01 X23.2151 Y0.1545
G01 X23.1689 Y0.1495
G01 X22.0312 Y0.1495
G01 X21.9849 Y0.1545
G01 X21.8690 Y0.1977
G01 X21.8528 Y0.2098
G01 X21.8469 Y0.2138
G01 X21.8406 Y0.2172
G01 X21.8341 Y0.2200
G01 X21.7686 Y0.2445
G01 X21.7610 Y0.2469
G01 X21.7531 Y0.2484
G01 X21.7451 Y0.2491
G01 X21.7336 Y0.2495
G01 X19.3164 Y0.2495
G01 X19.3093 Y0.2492
G01 X19.3022 Y0.2481
G01 X19.2953 Y0.2465
G01 X19.2251 Y0.2258
G01 X19.2187 Y0.2232
G01 X19.2125 Y0.2201
G01 X19.2066 Y0.2164
G01 X19.1810 Y0.1977
G01 X19.0651 Y0.1545
G01 X19.0189 Y0.1495
G01 X17.8812 Y0.1495
G01 X17.8349 Y0.1545
G01 X17.7190 Y0.1977
G01 X17.6694 Y0.2348
G01 X17.6635 Y0.2388
G01 X17.6572 Y0.2422
G01 X17.6507 Y0.2450
G01 X17.5852 Y0.2695
G01 X17.5776 Y0.2719
G01 X17.5697 Y0.2734
G01 X17.5617 Y0.2741
G01 X17.5502 Y0.2745
G01 X17.3884 Y0.2745
G01 X17.2676 Y0.2985
G01 X17.1537 Y0.3457
G01 X17.0513 Y0.4141
G01 X15.6652 Y1.8002
G01 X15.6599 Y1.8050
G01 X15.6542 Y1.8093
G01 X15.6481 Y1.8130
G01 X15.5868 Y1.8465
G01 X15.5804 Y1.8496
G01 X15.5737 Y1.8521
G01 X15.5668 Y1.8539
G01 X15.5598 Y1.8551
G01 X15.5526 Y1.8556
G01 X15.5455 Y1.8555
G01 X15.4758 Y1.8505
G01 X15.4687 Y1.8496
G01 X15.4618 Y1.8481
G01 X15.4550 Y1.8459
G01 X15.4484 Y1.8431
G01 X15.4421 Y1.8397
G01 X15.4362 Y1.8357
G01 X15.3803 Y1.7938
G01 X15.3748 Y1.7893
G01 X15.3697 Y1.7842
G01 X15.3652 Y1.7787
G01 X15.3612 Y1.7728
G01 X15.3578 Y1.7666
G01 X15.3550 Y1.7600
G01 X15.3305 Y1.6945
G01 X15.3281 Y1.6869
G01 X15.3266 Y1.6790
G01 X15.3259 Y1.6710
G01 X15.3255 Y1.6595
G01 X15.3255 Y0.6788
G01 X15.3162 Y0.5880
G01 X15.2664 Y0.4376
G01 X15.1835 Y0.3032
G01 X15.0718 Y0.1915
G01 X14.9374 Y0.1086
G01 X14.7870 Y0.0588
G01 X14.6962 Y0.0495
G01 X13.9038 Y0.0495
G01 X13.8130 Y0.0588
G01 X13.6626 Y0.1086
G01 X13.5282 Y0.1915
G01 X13.4165 Y0.3032
G01 X13.3336 Y0.4376
G01 X13.2838 Y0.5880
G01 X13.2745 Y0.6788
G01 X13.2745 Y2.0712
G01 X13.2838 Y2.1620
G01 X13.3006 Y2.2129
G01 X13.3026 Y2.2198
G01 X13.3038 Y2.2268
G01 X13.3044 Y2.2339
G01 X13.3068 Y2.3037
G01 X13.3067 Y2.3109
G01 X13.3059 Y2.3180
G01 X13.3045 Y2.3250
G01 X13.3024 Y2.3318
G01 X13.2997 Y2.3384
G01 X13.2963 Y2.3447
G01 X13.2606 Y2.4047
G01 X13.2566 Y2.4107
G01 X13.2521 Y2.4162
G01 X13.2472 Y2.4213
G01 X13.2417 Y2.4259
G01 X13.2358 Y2.4300
G01 X13.2296 Y2.4335
G01 X13.1671 Y2.4647
G01 X13.1607 Y2.4675
G01 X13.1540 Y2.4697
G01 X13.1472 Y2.4713
G01 X13.1402 Y2.4723
G01 X13.1117 Y2.4745
G01 X9.2884 Y2.4745
G01 X9.1676 Y2.4985
G01 X9.0537 Y2.5457
G01 X8.9513 Y2.6141
G01 X8.5141 Y3.0513
G01 X8.4457 Y3.1537
G01 X8.3985 Y3.2675
G01 X8.3745 Y3.3884
G01 X8.3745 Y3.8505
G01 X8.3742 Y3.8576
G01 X8.3731 Y3.8647
G01 X8.3715 Y3.8716
G01 X8.3518 Y3.9387
G01 X8.3494 Y3.9454
G01 X8.3465 Y3.9519
G01 X8.3429 Y3.9581
G01 X8.3388 Y3.9639
G01 X8.3341 Y3.9693
G01 X8.3289 Y3.9742
G01 X8.2761 Y4.0200
G01 X8.2702 Y4.0246
G01 X8.2639 Y4.0286
G01 X8.2572 Y4.0320
G01 X8.2502 Y4.0346
G01 X8.2430 Y4.0366
G01 X8.1914 Y4.0478
G01 X8.1835 Y4.0491
G01 X8.1755 Y4.0495
G01 X7.7872 Y4.0495
G01 X7.7610 Y4.0516
G01 X7.6196 Y4.0926
G01 X7.6008 Y4.1038
G01 X7.5945 Y4.1071
G01 X7.5879 Y4.1098
G01 X7.5811 Y4.1119
G01 X7.5133 Y4.1291
G01 X7.5055 Y4.1306
G01 X7.4975 Y4.1313
G01 X7.4895 Y4.1312
G01 X7.4816 Y4.1302
G01 X7.4738 Y4.1283
G01 X7.4153 Y4.1112
G01 X7.4048 Y4.1072
G01 X7.3982 Y4.1038
G01 X7.3802 Y4.0931
G01 X7.3250 Y4.0771
G01 X7.3250 Y4.3410
G01 X7.3243 Y4.3515
G01 X7.3193 Y4.3861
G01 X7.3171 Y4.3965
G01 X7.2995 Y4.4571
G01 X7.3116 Y4.4686
G01 X7.3262 Y4.4852
G01 X7.3390 Y4.5031
G01 X7.3501 Y4.5222
G01 X7.3592 Y4.5423
G01 X7.3663 Y4.5632
G01 X7.3713 Y4.5847
G01 X7.3742 Y4.6066
G01 X7.3750 Y4.6250
G01 X7.3750 Y5.8750
G01 X7.3742 Y5.8934
G01 X7.3735 Y5.9007
G01 X7.3699 Y5.9225
G01 X7.3642 Y5.9438
G01 X7.3564 Y5.9645
G01 X7.3466 Y5.9843
G01 X7.3350 Y6.0030
G01 X7.3215 Y6.0205
G01 X7.3116 Y6.0314
G01 X7.2995 Y6.0429
G01 X7.3171 Y6.1035
G01 X7.3193 Y6.1139
G01 X7.3243 Y6.1485
G01 X7.3250 Y6.1591
G01 X7.3250 Y6.4229
G01 X7.3802 Y6.4069
G01 X7.3982 Y6.3962
G01 X7.4045 Y6.3929
G01 X7.4111 Y6.3902
G01 X7.4179 Y6.3881
G01 X7.4857 Y6.3709
G01 X7.4935 Y6.3694
G01 X7.5015 Y6.3687
G01 X7.5095 Y6.3688
G01 X7.5174 Y6.3698
G01 X7.5252 Y6.3716
G01 X7.5838 Y6.3888
G01 X7.5943 Y6.3928
G01 X7.6008 Y6.3962
G01 X7.6196 Y6.4074
G01 X7.7610 Y6.4484
G01 X7.7873 Y6.4505
G01 X8.2127 Y6.4505
G01 X8.2390 Y6.4484
G01 X8.3804 Y6.4074
G01 X8.3987 Y6.3965
G01 X8.4050 Y6.3932
G01 X8.4116 Y6.3905
G01 X8.4184 Y6.3884
G01 X8.4862 Y6.3712
G01 X8.4940 Y6.3697
G01 X8.5020 Y6.3689
G01 X8.5100 Y6.3691
G01 X8.5179 Y6.3701
G01 X8.5257 Y6.3719
G01 X8.5843 Y6.3891
G01 X8.5948 Y6.3931
G01 X8.6013 Y6.3965
G01 X8.6196 Y6.4074
G01 X8.7610 Y6.4484
G01 X8.7873 Y6.4505
G01 X9.2127 Y6.4505
G01 X9.2390 Y6.4484
G01 X9.3804 Y6.4074
G01 X9.3987 Y6.3965
G01 X9.4050 Y6.3932
G01 X9.4116 Y6.3905
G01 X9.4184 Y6.3884
G01 X9.4862 Y6.3712
G01 X9.4940 Y6.3697
G01 X9.5020 Y6.3689
G01 X9.5100 Y6.3691
G01 X9.5179 Y6.3701
G01 X9.5257 Y6.3719
G01 X9.5843 Y6.3891
G01 X9.5948 Y6.3931
G01 X9.6013 Y6.3965
G01 X9.6196 Y6.4074
G01 X9.7610 Y6.4484
G01 X9.7873 Y6.4505
G01 X10.2127 Y6.4505
G01 X10.2390 Y6.4484
G01 X10.3804 Y6.4074
G01 X10.3987 Y6.3965
G01 X10.4050 Y6.3932
G01 X10.4116 Y6.3905
G01 X10.4184 Y6.3884
G01 X10.4862 Y6.3712
G01 X10.4940 Y6.3697
G01 X10.5020 Y6.3689
G01 X10.5100 Y6.3691
G01 X10.5179 Y6.3701
G01 X10.5257 Y6.3719
G01 X10.5843 Y6.3891
G01 X10.5948 Y6.3931
G01 X10.6013 Y6.3965
G01 X10.6196 Y6.4074
G01 X10.7610 Y6.4484
G01 X10.7873 Y6.4505
G01 X11.2127 Y6.4505
G01 X11.2390 Y6.4484
G01 X11.3804 Y6.4074
G01 X11.3987 Y6.3965
G01 X11.4050 Y6.3932
G01 X11.4116 Y6.3905
G01 X11.4184 Y6.3884
G01 X11.4862 Y6.3712
G01 X11.4940 Y6.3697
G01 X11.5020 Y6.3689
G01 X11.5100 Y6.3691
G01 X11.5179 Y6.3701
G01 X11.5257 Y6.3719
G01 X11.5843 Y6.3891
G01 X11.5948 Y6.3931
G01 X11.6013 Y6.3965
G01 X11.6196 Y6.4074
G01 X11.7610 Y6.4484
G01 X11.7873 Y6.4505
G01 X12.2127 Y6.4505
G01 X12.2390 Y6.4484
G01 X12.3804 Y6.4074
G01 X12.3987 Y6.3965
G01 X12.4050 Y6.3932
G01 X12.4116 Y6.3905
G01 X12.4184 Y6.3884
G01 X12.4862 Y6.3712
G01 X12.4940 Y6.3697
G01 X12.5020 Y6.3689
G01 X12.5100 Y6.3691
G01 X12.5179 Y6.3701
G01 X12.5257 Y6.3719
G01 X12.5843 Y6.3891
G01 X12.5948 Y6.3931
G01 X12.6013 Y6.3965
G01 X12.6196 Y6.4074
G01 X12.7610 Y6.4484
G01 X12.7873 Y6.4505
G01 X13.2127 Y6.4505
G01 X13.2390 Y6.4484
G01 X13.3804 Y6.4074
G01 X13.5055 Y6.3333
G01 X13.6083 Y6.2305
G01 X13.6824 Y6.1054
G01 X13.7234 Y5.9640
G01 X13.7255 Y5.9377
G01 X13.7255 Y4.5623
G01 X13.7234 Y4.5360
G01 X13.6824 Y4.3946
G01 X13.6083 Y4.2695
G01 X13.5055 Y4.1667
G01 X13.3857 Y4.0958
G01 X13.3797 Y4.0919
G01 X13.3742 Y4.0874
G01 X13.3691 Y4.0824
G01 X13.3214 Y4.0313
G01 X13.3168 Y4.0259
G01 X13.3127 Y4.0200
G01 X13.3092 Y4.0138
G01 X13.3063 Y4.0073
G01 X13.3040 Y4.0005
G01 X13.3024 Y3.9936
G01 X13.2899 Y3.9248
G01 X13.2890 Y3.9178
G01 X13.2887 Y3.9106
G01 X13.2891 Y3.9035
G01 X13.2902 Y3.8965
G01 X13.2920 Y3.8895
G01 X13.2944 Y3.8828
G01 X13.3210 Y3.8182
G01 X13.3240 Y3.8118
G01 X13.3277 Y3.8056
G01 X13.3319 Y3.7999
G01 X13.3366 Y3.7945
G01 X13.3418 Y3.7896
G01 X13.3475 Y3.7853
G01 X13.4048 Y3.7454
G01 X13.4105 Y3.7418
G01 X13.4164 Y3.7387
G01 X13.4227 Y3.7362
G01 X13.4291 Y3.7342
G01 X13.4356 Y3.7329
G01 X13.4810 Y3.7257
G01 X15.3116 Y3.7255
G01 X15.4325 Y3.7015
G01 X15.5088 Y3.6698
G01 X15.5168 Y3.6616
G01 X15.5459 Y3.6352
G01 X15.5516 Y3.6306
G01 X15.5831 Y3.6072
G01 X15.5892 Y3.6031
G01 X15.6229 Y3.5829
G01 X15.6294 Y3.5794
G01 X15.6649 Y3.5626
G01 X15.6765 Y3.5581
G01 X17.5654 Y1.6692
G01 X17.5707 Y1.6644
G01 X17.5764 Y1.6601
G01 X17.5825 Y1.6564
G01 X17.6438 Y1.6229
G01 X17.6502 Y1.6198
G01 X17.6569 Y1.6173
G01 X17.6638 Y1.6154
G01 X17.6709 Y1.6143
G01 X17.6780 Y1.6137
G01 X17.6851 Y1.6139
G01 X17.7548 Y1.6189
G01 X17.7619 Y1.6197
G01 X17.7689 Y1.6213
G01 X17.7757 Y1.6234
G01 X17.8349 Y1.6455
G01 X17.8811 Y1.6505
G01 X19.0189 Y1.6505
G01 X19.0651 Y1.6455
G01 X19.1810 Y1.6023
G01 X19.1972 Y1.5902
G01 X19.2031 Y1.5862
G01 X19.2094 Y1.5828
G01 X19.2159 Y1.5800
G01 X19.2814 Y1.5555
G01 X19.2890 Y1.5531
G01 X19.2969 Y1.5516
G01 X19.3049 Y1.5509
G01 X19.3164 Y1.5505
G01 X19.7255 Y1.5505
G01 X19.7326 Y1.5508
G01 X19.7397 Y1.5519
G01 X19.7466 Y1.5535
G01 X19.8137 Y1.5732
G01 X19.8204 Y1.5756
G01 X19.8269 Y1.5785
G01 X19.8331 Y1.5821
G01 X19.8389 Y1.5862
G01 X19.8443 Y1.5909
G01 X19.8492 Y1.5961
G01 X19.8950 Y1.6489
G01 X19.8996 Y1.6548
G01 X19.9036 Y1.6611
G01 X19.9070 Y1.6678
G01 X19.9096 Y1.6748
G01 X19.9116 Y1.6820
G01 X19.9228 Y1.7336
G01 X19.9241 Y1.7415
G01 X19.9245 Y1.7495
G01 X19.9245 Y4.2152
G01 X19.9242 Y4.2223
G01 X19.9231 Y4.2294
G01 X19.9215 Y4.2363
G01 X19.9018 Y4.3034
G01 X19.8993 Y4.3106
G01 X19.8960 Y4.3175
G01 X19.8921 Y4.3240
G01 X19.8875 Y4.3301
G01 X19.8824 Y4.3358
G01 X19.8431 Y4.3743
G01 X19.8368 Y4.3798
G01 X19.8300 Y4.3846
G01 X19.7782 Y4.4165
G01 X19.6665 Y4.5282
G01 X19.5836 Y4.6626
G01 X19.5338 Y4.8130
G01 X19.5245 Y4.9038
G01 X19.5245 Y5.8962
G01 X19.5338 Y5.9870
G01 X19.5836 Y6.1374
G01 X19.6665 Y6.2718
G01 X19.7782 Y6.3835
G01 X19.8050 Y6.4000
G01 X19.8109 Y6.4040
G01 X19.8163 Y6.4086
G01 X19.8214 Y6.4137
G01 X19.8681 Y6.4656
G01 X19.8729 Y6.4716
G01 X19.8771 Y6.4779
G01 X19.8806 Y6.4847
G01 X19.8834 Y6.4918
G01 X19.8855 Y6.4992
G01 X19.8976 Y6.5528
G01 X19.8990 Y6.5610
G01 X19.8995 Y6.5694
G01 X19.8995 Y8.9741
G01 X19.9245 Y9.0997
G01 X19.9336 Y9.1218
G01 X19.9735 Y9.2181
G01 X20.0447 Y9.3247
G01 X21.1788 Y10.4588
G01 X21.1836 Y10.4641
G01 X21.1879 Y10.4698
G01 X21.1916 Y10.4759
G01 X21.2251 Y10.5372
G01 X21.2282 Y10.5436
G01 X21.2298 Y10.5479
G01 X25.7801 Y10.5479
G01 X25.8034 Y10.5490
G01 X25.8107 Y10.5497
G01 X25.8313 Y10.5527
G01 X25.8373 Y10.5540
G01 X25.8564 Y10.5588
G01 X25.8634 Y10.5609
G01 X25.8819 Y10.5675
G01 X25.8887 Y10.5703
G01 X25.9065 Y10.5787
G01 X25.9130 Y10.5822
G01 X25.9298 Y10.5923
G01 X25.9359 Y10.5964
G01 X25.9517 Y10.6081
G01 X25.9574 Y10.6127
G01 X25.9719 Y10.6259
G01 X25.9966 Y10.6505
G01 X26.7481 Y10.6505
G01 X26.7553 Y10.6508
G01 X26.7623 Y10.6519
G01 X26.7693 Y10.6535
G01 X26.8363 Y10.6732
G01 X26.8432 Y10.6756
G01 X26.8499 Y10.6787
G01 X26.8563 Y10.6825
G01 X26.8622 Y10.6868
G01 X26.8829 Y10.7034
G01 X26.8888 Y10.7088
G01 X27.2648 Y11.0848
G01 X27.2696 Y11.0901
G01 X27.2739 Y11.0958
G01 X27.2776 Y11.1019
G01 X27.3111 Y11.1632
G01 X27.3142 Y11.1696
G01 X27.3167 Y11.1763
G01 X27.3186 Y11.1832
G01 X27.3198 Y11.1902
G01 X27.3203 Y11.1974
G01 X27.3201 Y11.2045
G01 X27.3151 Y11.2742
G01 X27.3143 Y11.2813
G01 X27.3128 Y11.2882
G01 X27.3106 Y11.2950
G01 X27.3078 Y11.3016
G01 X27.3043 Y11.3079
G01 X27.3003 Y11.3138
G01 X27.2585 Y11.3697
G01 X27.2539 Y11.3752
G01 X27.2489 Y11.3803
G01 X27.2434 Y11.3848
G01 X27.2375 Y11.3888
G01 X27.2312 Y11.3922
G01 X27.2246 Y11.3950
G01 X27.1592 Y11.4195
G01 X27.1515 Y11.4219
G01 X27.1436 Y11.4234
G01 X27.1356 Y11.4241
G01 X27.1241 Y11.4245
G01 X26.3130 Y11.4245
G01 X26.2959 Y11.4372
G01 X26.2898 Y11.4413
G01 X26.2646 Y11.4564
G01 X26.2581 Y11.4599
G01 X26.2314 Y11.4725
G01 X26.2246 Y11.4753
G01 X26.1969 Y11.4852
G01 X26.1899 Y11.4873
G01 X26.1613 Y11.4945
G01 X26.1541 Y11.4959
G01 X26.1250 Y11.5002
G01 X26.1177 Y11.5010
G01 X26.0883 Y11.5024
G01 X26.0809 Y11.5024
G01 X26.0515 Y11.5010
G01 X26.0442 Y11.5002
G01 X26.0150 Y11.4959
G01 X26.0078 Y11.4945
G01 X25.9793 Y11.4873
G01 X25.9722 Y11.4852
G01 X25.9445 Y11.4753
G01 X25.9377 Y11.4725
G01 X25.9111 Y11.4599
G01 X25.9046 Y11.4564
G01 X25.8793 Y11.4413
G01 X25.8732 Y11.4372
G01 X25.8561 Y11.4245
G01 X23.1061 Y11.4245
G01 X23.0990 Y11.4242
G01 X23.0919 Y11.4231
G01 X23.0850 Y11.4215
G01 X23.0179 Y11.4018
G01 X23.0110 Y11.3994
G01 X23.0043 Y11.3963
G01 X22.9980 Y11.3925
G01 X22.9920 Y11.3882
G01 X22.9714 Y11.3716
G01 X22.9654 Y11.3662
G01 X22.6973 Y11.0981
G01 X18.9730 Y11.0981
G01 X18.9497 Y11.0970
G01 X18.9424 Y11.0963
G01 X18.9217 Y11.0933
G01 X18.9157 Y11.0920
G01 X18.8967 Y11.0872
G01 X18.8896 Y11.0851
G01 X18.8712 Y11.0785
G01 X18.8644 Y11.0757
G01 X18.8466 Y11.0673
G01 X18.8401 Y11.0638
G01 X18.8233 Y11.0537
G01 X18.8172 Y11.0496
G01 X18.8014 Y11.0379
G01 X18.7957 Y11.0333
G01 X18.7785 Y11.0175
G01 X18.5594 Y10.7985
G01 X7.3755 Y10.7985
G01 X7.3684 Y10.7982
G01 X7.3613 Y10.7971
G01 X7.3544 Y10.7955
G01 X7.2873 Y10.7758
G01 X7.2804 Y10.7734
G01 X7.2737 Y10.7703
G01 X7.2674 Y10.7665
G01 X7.2614 Y10.7622
G01 X7.2408 Y10.7456
G01 X7.2348 Y10.7402
G01 X6.6838 Y10.1892
G01 X6.6790 Y10.1839
G01 X6.6747 Y10.1782
G01 X6.6710 Y10.1721
G01 X6.6375 Y10.1108
G01 X6.6343 Y10.1042
G01 X6.6318 Y10.0973
G01 X6.6299 Y10.0901
G01 X6.6288 Y10.0829
G01 X6.6259 Y10.0565
G01 X6.6255 Y10.0485
G01 X6.6255 Y6.6223
G01 X6.6258 Y6.6152
G01 X6.6269 Y6.6081
G01 X6.6285 Y6.6012
G01 X6.6482 Y6.5341
G01 X6.6508 Y6.5268
G01 X6.6541 Y6.5198
G01 X6.6581 Y6.5132
G01 X6.6627 Y6.5071
G01 X6.6750 Y6.4924
G01 X6.6750 Y6.1591
G01 X6.6757 Y6.1485
G01 X6.6807 Y6.1139
G01 X6.6829 Y6.1035
G01 X6.7005 Y6.0429
G01 X6.6884 Y6.0314
G01 X6.6738 Y6.0148
G01 X6.6610 Y5.9969
G01 X6.6499 Y5.9778
G01 X6.6408 Y5.9577
G01 X6.6337 Y5.9368
G01 X6.6287 Y5.9153
G01 X6.6258 Y5.8934
G01 X6.6250 Y5.8750
G01 X6.6250 Y4.6250
G01 X6.6258 Y4.6066
G01 X6.6265 Y4.5993
G01 X6.6301 Y4.5775
G01 X6.6358 Y4.5562
G01 X6.6436 Y4.5355
G01 X6.6534 Y4.5157
G01 X6.6650 Y4.4970
G01 X6.6785 Y4.4795
G01 X6.6884 Y4.4686
G01 X6.7005 Y4.4571
G01 X6.6829 Y4.3965
G01 X6.6807 Y4.3861
G01 X6.6757 Y4.3515
G01 X6.6750 Y4.3409
G01 X6.6750 Y4.0771
G01 X6.6198 Y4.0931
G01 X6.6018 Y4.1038
G01 X6.5955 Y4.1071
G01 X6.5889 Y4.1098
G01 X6.5820 Y4.1119
G01 X6.5143 Y4.1291
G01 X6.5065 Y4.1306
G01 X6.4985 Y4.1313
G01 X6.4905 Y4.1312
G01 X6.4825 Y4.1302
G01 X6.4748 Y4.1283
G01 X6.4126 Y4.1100
G01 X6.4057 Y4.1072
G01 X6.3992 Y4.1038
G01 X6.3804 Y4.0926
G01 X6.2390 Y4.0516
G01 X6.2128 Y4.0495
G01 X5.7872 Y4.0495
G01 X5.7610 Y4.0516
G01 X5.6196 Y4.0926
G01 X5.6013 Y4.1035
G01 X5.5950 Y4.1068
G01 X5.5884 Y4.1095
G01 X5.5816 Y4.1116
G01 X5.5138 Y4.1288
G01 X5.5060 Y4.1303
G01 X5.4980 Y4.1311
G01 X5.4900 Y4.1309
G01 X5.4821 Y4.1299
G01 X5.4743 Y4.1281
G01 X5.4158 Y4.1109
G01 X5.4052 Y4.1069
G01 X5.3987 Y4.1035
G01 X5.3804 Y4.0926
G01 X5.2390 Y4.0516
G01 X5.2128 Y4.0495
G01 X4.7872 Y4.0495
G01 X4.7610 Y4.0516
G01 X4.6196 Y4.0926
G01 X4.6013 Y4.1035
G01 X4.5950 Y4.1068
G01 X4.5884 Y4.1095
G01 X4.5816 Y4.1116
G01 X4.5138 Y4.1288
G01 X4.5060 Y4.1303
G01 X4.4980 Y4.1311
G01 X4.4900 Y4.1309
G01 X4.4821 Y4.1299
G01 X4.4743 Y4.1281
G01 X4.4158 Y4.1109
G01 X4.4052 Y4.1069
G01 X4.3987 Y4.1035
G01 X4.3804 Y4.0926
G01 X4.2390 Y4.0516
G01 X4.2128 Y4.0495
G01 X3.7872 Y4.0495
G01 X3.7610 Y4.0516
G01 X3.6196 Y4.0926
G01 X3.4945 Y4.1666
G01 X3.3917 Y4.2695
G01 X3.3152 Y4.3987
G01 X3.3107 Y4.4081
G01 X3.3069 Y4.4144
G01 X3.3024 Y4.4202
G01 X3.2959 Y4.4269
G01 X3.2752 Y4.4594
G01 X3.2710 Y4.4652
G01 X3.2664 Y4.4706
G01 X3.2612 Y4.4755
G01 X3.2556 Y4.4800
G01 X3.2496 Y4.4838
G01 X3.2433 Y4.4871
G01 X3.1798 Y4.5163
G01 X3.1736 Y4.5189
G01 X3.1672 Y4.5208
G01 X3.1606 Y4.5222
G01 X3.1539 Y4.5230
G01 X3.1305 Y4.5245
G01 X0.9785 Y4.5245
G01 X0.8384 Y4.5524
G01 X0.7007 Y4.6094
G01 X0.6939 Y4.6118
G01 X0.6870 Y4.6136
G01 X0.6800 Y4.6147
G01 X0.6105 Y4.6222
G01 X0.6034 Y4.6226
G01 X0.5962 Y4.6223
G01 X0.5892 Y4.6214
G01 X0.5822 Y4.6198
G01 X0.5754 Y4.6176
G01 X0.5689 Y4.6147
G01 X0.5064 Y4.5834
G01 X0.5002 Y4.5799
G01 X0.4943 Y4.5758
G01 X0.4889 Y4.5712
G01 X0.4839 Y4.5661
G01 X0.4794 Y4.5606
G01 X0.4755 Y4.5546
G01 X0.4398 Y4.4945
G01 X0.4363 Y4.4877
G01 X0.4334 Y4.4806
G01 X0.4313 Y4.4732
G01 X0.4299 Y4.4656
G01 X0.4261 Y4.4349
G01 X0.4255 Y4.4256
G01 X0.4255 Y-0.2755
G00 Z2.0000
G00 X1.6745 Y0.6788
G01 F60.00
G01 Z-0.0390
G01 F120.00
G01 X1.6838 Y0.5880
G01 X1.7336 Y0.4376
G01 X1.8165 Y0.3032
G01 X1.9282 Y0.1915
G01 X2.0626 Y0.1086
G01 X2.2130 Y0.0588
G01 X2.3038 Y0.0495
G01 X3.0962 Y0.0495
G01 X3.1870 Y0.0588
G01 X3.3374 Y0.1086
G01 X3.4718 Y0.1915
G01 X3.5835 Y0.3032
G01 X3.6664 Y0.4376
G01 X3.7162 Y0.5880
G01 X3.7255 Y0.6788
G01 X3.7255 Y2.0712
G01 X3.7162 Y2.1620
G01 X3.6664 Y2.3124
G01 X3.5835 Y2.4468
G01 X3.4718 Y2.5585
G01 X3.3374 Y2.6414
G01 X3.1870 Y2.6912
G01 X3.0962 Y2.7005
G01 X2.3038 Y2.7005
G01 X2.2130 Y2.6912
G01 X2.0626 Y2.6414
G01 X1.9282 Y2.5585
G01 X1.8165 Y2.4468
G01 X1.7336 Y2.3124
G01 X1.6838 Y2.1620
G01 X1.6745 Y2.0712
G01 X1.6745 Y0.6788
G00 Z2.0000
G00 X2.0250 Y0.7250
G01 F60.00
G01 Z-0.0390
G01 F120.00
G01 X2.0263 Y0.6968
G01 X2.0270 Y0.6895
G01 X2.0306 Y0.6652
G01 X2.0321 Y0.6580
G01 X2.0380 Y0.6342
G01 X2.0401 Y0.6272
G01 X2.0484 Y0.6041
G01 X2.0512 Y0.5973
G01 X2.0617 Y0.5751
G01 X2.0652 Y0.5686
G01 X2.0778 Y0.5475
G01 X2.0819 Y0.5414
G01 X2.0965 Y0.5217
G01 X2.1012 Y0.5160
G01 X2.1177 Y0.4979
G01 X2.1229 Y0.4927
G01 X2.1410 Y0.4762
G01 X2.1467 Y0.4715
G01 X2.1664 Y0.4569
G01 X2.1725 Y0.4528
G01 X2.1942 Y0.4398
G01 X2.2223 Y0.4262
G01 X2.2291 Y0.4234
G01 X2.2522 Y0.4151
G01 X2.2592 Y0.4130
G01 X2.2830 Y0.4071
G01 X2.2902 Y0.4056
G01 X2.3145 Y0.4020
G01 X2.3218 Y0.4013
G01 X2.3500 Y0.4000
G01 X3.0500 Y0.4000
G01 X3.0782 Y0.4013
G01 X3.0855 Y0.4020
G01 X3.1098 Y0.4056
G01 X3.1170 Y0.4071
G01 X3.1408 Y0.4130
G01 X3.1478 Y0.4151
G01 X3.1709 Y0.4234
G01 X3.1777 Y0.4262
G01 X3.1999 Y0.4367
G01 X3.2064 Y0.4402
G01 X3.2275 Y0.4528
G01 X3.2336 Y0.4569
G01 X3.2533 Y0.4715
G01 X3.2590 Y0.4762
G01 X3.2771 Y0.4927
G01 X3.2823 Y0.4979
G01 X3.2988 Y0.5160
G01 X3.3035 Y0.5217
G01 X3.3181 Y0.5414
G01 X3.3222 Y0.5475
G01 X3.3352 Y0.5692
G01 X3.3488 Y0.5973
G01 X3.3516 Y0.6041
G01 X3.3599 Y0.6272
G01 X3.3620 Y0.6342
G01 X3.3679 Y0.6580
G01 X3.3694 Y0.6652
G01 X3.3730 Y0.6895
G01 X3.3737 Y0.6968
G01 X3.3749 Y0.7213
G01 X3.3749 Y2.0287
G01 X3.3737 Y2.0532
G01 X3.3730 Y2.0605
G01 X3.3694 Y2.0848
G01 X3.3679 Y2.0920
G01 X3.3620 Y2.1158
G01 X3.3599 Y2.1228
G01 X3.3516 Y2.1459
G01 X3.3488 Y2.1527
G01 X3.3383 Y2.1749
G01 X3.3348 Y2.1814
G01 X3.3222 Y2.2025
G01 X3.3181 Y2.2086
G01 X3.3035 Y2.2283
G01 X3.2988 Y2.2340
G01 X3.2823 Y2.2521
G01 X3.2771 Y2.2573
G01 X3.2590 Y2.2738
G01 X3.2533 Y2.2785
G01 X3.2336 Y2.2931
G01 X3.2275 Y2.2972
G01 X3.2058 Y2.3102
G01 X3.1777 Y2.3238
G01 X3.1709 Y2.3266
G01 X3.1478 Y2.3349
G01 X3.1408 Y2.3370
G01 X3.1170 Y2.3429
G01 X3.1098 Y2.3444
G01 X3.0855 Y2.3480
G01 X3.0782 Y2.3487
G01 X3.0500 Y2.3500
G01 X2.3463 Y2.3499
G01 X2.3218 Y2.3487
G01 X2.3145 Y2.3480
G01 X2.2902 Y2.3444
G01 X2.2830 Y2.3429
G01 X2.2592 Y2.3370
G01 X2.2522 Y2.3349
G01 X2.2291 Y2.3266
G01 X2.2223 Y2.3238
G01 X2.2001 Y2.3133
G01 X2.1936 Y2.3098
G01 X2.1725 Y2.2972
G01 X2.1664 Y2.2931
G01 X2.1467 Y2.2785
G01 X2.1410 Y2.2738
G01 X2.1229 Y2.2573
G01 X2.1177 Y2.2521
G01 X2.1012 Y2.2340
G01 X2.0965 Y2.2283
G01 X2.0819 Y2.2086
G01 X2.0778 Y2.2025
G01 X2.0648 Y2.1808
G01 X2.0512 Y2.1527
G01 X2.0484 Y2.1459
G01 X2.0401 Y2.1228
G01 X2.0380 Y2.1158
G01 X2.0321 Y2.0920
G01 X2.0306 Y2.0848
G01 X2.0270 Y2.0605
G01 X2.0263 Y2.0532
G01 X2.0251 Y2.0287
G01 X2.0250 Y0.7250
G00 Z2.0000
G00 X4.6250 Y4.6250
G01 F60.00
G01 Z-0.0390
G01 F120.00
G01 X4.6258 Y4.6066
G01 X4.6287 Y4.5847
G01 X4.6338 Y4.5629
G01 X4.6408 Y4.5423
G01 X4.6499 Y4.5222
G01 X4.6610 Y4.5031
G01 X4.6738 Y4.4852
G01 X4.6884 Y4.4686
G01 X4.7045 Y4.4535
G01 X4.7220 Y4.4400
G01 X4.7407 Y4.4284
G01 X4.7605 Y4.4186
G01 X4.7812 Y4.4108
G01 X4.8025 Y4.4051
G01 X4.8243 Y4.4015
G01 X4.8463 Y4.4001
G01 X5.1537 Y4.4001
G01 X5.1757 Y4.4015
G01 X5.1903 Y4.4037
G01 X5.2118 Y4.4087
G01 X5.2327 Y4.4158
G01 X5.2395 Y4.4186
G01 X5.2593 Y4.4284
G01 X5.2780 Y4.4400
G01 X5.2898 Y4.4488
G01 X5.3064 Y4.4634
G01 X5.3215 Y4.4795
G01 X5.3262 Y4.4852
G01 X5.3350 Y4.4970
G01 X5.3466 Y4.5157
G01 X5.3501 Y4.5222
G01 X5.3592 Y4.5423
G01 X5.3663 Y4.5632
G01 X5.3699 Y4.5775
G01 X5.3735 Y4.5993
G01 X5.3742 Y4.6066
G01 X5.3750 Y4.6250
G01 X5.3750 Y5.8750
G01 X5.3742 Y5.8934
G01 X5.3735 Y5.9007
G01 X5.3699 Y5.9225
G01 X5.3642 Y5.9438
G01 X5.3592 Y5.9577
G01 X5.3564 Y5.9645
G01 X5.3466 Y5.9843
G01 X5.3350 Y6.0030
G01 X5.3215 Y6.0205
G01 X5.3064 Y6.0366
G01 X5.2955 Y6.0465
G01 X5.2898 Y6.0512
G01 X5.2719 Y6.0640
G01 X5.2593 Y6.0716
G01 X5.2501 Y6.0764
G01 X5.2501 Y10.2464
G01 X6.7536 Y11.7499
G01 X21.9000 Y11.7499
G01 X21.9208 Y11.7508
G01 X21.9282 Y11.7516
G01 X21.9452 Y11.7541
G01 X21.9524 Y11.7555
G01 X21.9690 Y11.7597
G01 X21.9761 Y11.7618
G01 X21.9923 Y11.7676
G01 X21.9991 Y11.7704
G01 X22.0146 Y11.7778
G01 X22.0211 Y11.7813
G01 X22.0358 Y11.7901
G01 X22.0420 Y11.7942
G01 X22.0558 Y11.8044
G01 X22.0614 Y11.8091
G01 X22.0742 Y11.8206
G01 X22.9536 Y12.6999
G01 X29.2197 Y12.6999
G01 X29.2294 Y12.6794
G01 X29.2329 Y12.6729
G01 X29.2531 Y12.6392
G01 X29.2572 Y12.6331
G01 X29.2806 Y12.6016
G01 X29.2852 Y12.5959
G01 X29.3116 Y12.5668
G01 X29.3168 Y12.5616
G01 X29.3459 Y12.5352
G01 X29.3516 Y12.5306
G01 X29.3831 Y12.5072
G01 X29.3892 Y12.5031
G01 X29.4229 Y12.4829
G01 X29.4294 Y12.4794
G01 X29.4649 Y12.4626
G01 X29.4717 Y12.4598
G01 X29.5086 Y12.4466
G01 X29.5157 Y12.4445
G01 X29.5537 Y12.4349
G01 X29.5610 Y12.4335
G01 X29.5998 Y12.4277
G01 X29.6071 Y12.4270
G01 X29.6463 Y12.4251
G01 X29.6537 Y12.4251
G01 X29.6929 Y12.4270
G01 X29.7002 Y12.4277
G01 X29.7390 Y12.4335
G01 X29.7463 Y12.4349
G01 X29.7843 Y12.4445
G01 X29.7914 Y12.4466
G01 X29.8283 Y12.4598
G01 X29.8351 Y12.4626
G01 X29.8706 Y12.4794
G01 X29.8771 Y12.4829
G01 X29.9108 Y12.5031
G01 X29.9169 Y12.5072
G01 X29.9484 Y12.5306
G01 X29.9541 Y12.5352
G01 X29.9832 Y12.5616
G01 X29.9884 Y12.5668
G01 X30.0148 Y12.5959
G01 X30.0194 Y12.6016
G01 X30.0428 Y12.6331
G01 X30.0469 Y12.6392
G01 X30.0671 Y12.6729
G01 X30.0706 Y12.6794
G01 X30.0874 Y12.7149
G01 X30.0902 Y12.7217
G01 X30.1034 Y12.7586
G01 X30.1055 Y12.7657
G01 X30.1151 Y12.8037
G01 X30.1165 Y12.8110
G01 X30.1223 Y12.8498
G01 X30.1230 Y12.8571
G01 X30.1249 Y12.8963
G01 X30.1249 Y12.9037
G01 X30.1230 Y12.9429
G01 X30.1223 Y12.9502
G01 X30.1165 Y12.9890
G01 X30.1151 Y12.9963
G01 X30.1055 Y13.0343
G01 X30.1034 Y13.0414
G01 X30.0902 Y13.0783
G01 X30.0874 Y13.0851
G01 X30.0706 Y13.1206
G01 X30.0671 Y13.1271
G01 X30.0469 Y13.1608
G01 X30.0428 Y13.1669
G01 X30.0194 Y13.1984
G01 X30.0148 Y13.2041
G01 X29.9884 Y13.2332
G01 X29.9832 Y13.2384
G01 X29.9541 Y13.2648
G01 X29.9484 Y13.2694
G01 X29.9169 Y13.2928
G01 X29.9108 Y13.2969
G01 X29.8771 Y13.3171
G01 X29.8706 Y13.3206
G01 X29.8351 Y13.3374
G01 X29.8283 Y13.3402
G01 X29.7914 Y13.3534
G01 X29.7843 Y13.3555
G01 X29.7463 Y13.3651
G01 X29.7390 Y13.3665
G01 X29.7002 Y13.3723
G01 X29.6929 Y13.3730
G01 X29.6537 Y13.3749
G01 X29.6463 Y13.3749
G01 X29.6071 Y13.3730
G01 X29.5998 Y13.3723
G01 X29.5610 Y13.3665
G01 X29.5537 Y13.3651
G01 X29.5157 Y13.3555
G01 X29.5086 Y13.3534
G01 X29.4717 Y13.3402
G01 X29.4649 Y13.3374
G01 X29.4294 Y13.3206
G01 X29.4229 Y13.3171
G01 X29.3892 Y13.2969
G01 X29.3831 Y13.2928
G01 X29.3516 Y13.2694
G01 X29.3459 Y13.2648
G01 X29.3168 Y13.2384
G01 X29.3116 Y13.2332
G01 X29.2819 Y13.2001
G01 X22.8500 Y13.2001
G01 X22.8292 Y13.1992
G01 X22.8218 Y13.1984
G01 X22.8048 Y13.1959
G01 X22.7976 Y13.1945
G01 X22.7810 Y13.1903
G01 X22.7739 Y13.1882
G01 X22.7577 Y13.1824
G01 X22.7509 Y13.1796
G01 X22.7354 Y13.1722
G01 X22.7289 Y13.1687
G01 X22.7142 Y13.1599
G01 X22.7080 Y13.1558
G01 X22.6942 Y13.1456
G01 X22.6886 Y13.1409
G01 X22.6758 Y13.1294
G01 X21.7964 Y12.2501
G01 X6.6500 Y12.2501
G01 X6.6292 Y12.2492
G01 X6.6218 Y12.2484
G01 X6.6048 Y12.2459
G01 X6.5976 Y12.2445
G01 X6.5810 Y12.2403
G01 X6.5739 Y12.2382
G01 X6.5577 Y12.2324
G01 X6.5509 Y12.2296
G01 X6.5354 Y12.2222
G01 X6.5289 Y12.2187
G01 X6.5142 Y12.2099
G01 X6.5080 Y12.2058
G01 X6.4942 Y12.1956
G01 X6.4886 Y12.1909
G01 X6.4732 Y12.1768
G01 X4.8232 Y10.5268
G01 X4.8091 Y10.5114
G01 X4.8044 Y10.5058
G01 X4.7942 Y10.4920
G01 X4.7901 Y10.4858
G01 X4.7813 Y10.4711
G01 X4.7778 Y10.4646
G01 X4.7704 Y10.4491
G01 X4.7676 Y10.4423
G01 X4.7618 Y10.4261
G01 X4.7597 Y10.4190
G01 X4.7555 Y10.4024
G01 X4.7541 Y10.3952
G01 X4.7516 Y10.3782
G01 X4.7508 Y10.3708
G01 X4.7499 Y10.3500
G01 X4.7499 Y6.0764
G01 X4.7407 Y6.0716
G01 X4.7281 Y6.0640
G01 X4.7102 Y6.0512
G01 X4.7045 Y6.0465
G01 X4.6936 Y6.0366
G01 X4.6785 Y6.0205
G01 X4.6650 Y6.0030
G01 X4.6534 Y5.9843
G01 X4.6499 Y5.9778
G01 X4.6408 Y5.9577
G01 X4.6358 Y5.9438
G01 X4.6301 Y5.9225
G01 X4.6265 Y5.9007
G01 X4.6258 Y5.8934
G01 X4.6250 Y5.8750
G01 X4.6250 Y4.6250
G00 Z2.0000
G00 X5.6250 Y4.6250
G01 F60.00
G01 Z-0.0390
G01 F120.00
G01 X5.6258 Y4.6066
G01 X5.6287 Y4.5847
G01 X5.6338 Y4.5629
G01 X5.6408 Y4.5423
G01 X5.6499 Y4.5222
G01 X5.6610 Y4.5031
G01 X5.6738 Y4.4852
G01 X5.6884 Y4.4686
G01 X5.7045 Y4.4535
G01 X5.7220 Y4.4400
G01 X5.7407 Y4.4284
G01 X5.7605 Y4.4186
G01 X5.7673 Y4.4158
G01 X5.7882 Y4.4087
G01 X5.8097 Y4.4037
G01 X5.8316 Y4.4008
G01 X5.8500 Y4.4000
G01 X6.1537 Y4.4001
G01 X6.1757 Y4.4015
G01 X6.1903 Y4.4037
G01 X6.2118 Y4.4087
G01 X6.2188 Y4.4108
G01 X6.2395 Y4.4186
G01 X6.2528 Y4.4249
G01 X6.2719 Y4.4360
G01 X6.2898 Y4.4488
G01 X6.2955 Y4.4535
G01 X6.3064 Y4.4634
G01 X6.3215 Y4.4795
G01 X6.3350 Y4.4970
G01 X6.3466 Y4.5157
G01 X6.3501 Y4.5222
G01 X6.3564 Y4.5355
G01 X6.3642 Y4.5562
G01 X6.3699 Y4.5775
G01 X6.3735 Y4.5993
G01 X6.3742 Y4.6066
G01 X6.3750 Y4.6250
G01 X6.3750 Y5.8750
G01 X6.3742 Y5.8934
G01 X6.3713 Y5.9153
G01 X6.3663 Y5.9368
G01 X6.3642 Y5.9438
G01 X6.3564 Y5.9645
G01 X6.3466 Y5.9843
G01 X6.3350 Y6.0030
G01 X6.3262 Y6.0148
G01 X6.3116 Y6.0314
G01 X6.2955 Y6.0465
G01 X6.2898 Y6.0512
G01 X6.2751 Y6.0619
G01 X6.2751 Y10.2760
G01 X7.1480 Y11.1489
G01 X22.1423 Y11.1490
G01 X22.1675 Y11.1504
G01 X22.1886 Y11.1536
G01 X22.1957 Y11.1549
G01 X22.2183 Y11.1607
G01 X22.2404 Y11.1685
G01 X22.2472 Y11.1713
G01 X22.2653 Y11.1799
G01 X22.2715 Y11.1832
G01 X22.2914 Y11.1952
G01 X22.3135 Y11.2117
G01 X22.3331 Y11.2295
G01 X22.8785 Y11.7749
G01 X30.2042 Y11.7749
G01 X30.2168 Y11.7616
G01 X30.2459 Y11.7352
G01 X30.2516 Y11.7306
G01 X30.2831 Y11.7072
G01 X30.2892 Y11.7031
G01 X30.3229 Y11.6829
G01 X30.3294 Y11.6794
G01 X30.3649 Y11.6626
G01 X30.3717 Y11.6598
G01 X30.4086 Y11.6466
G01 X30.4157 Y11.6445
G01 X30.4537 Y11.6349
G01 X30.4610 Y11.6335
G01 X30.4998 Y11.6277
G01 X30.5071 Y11.6270
G01 X30.5463 Y11.6251
G01 X30.5537 Y11.6251
G01 X30.5929 Y11.6270
G01 X30.6002 Y11.6277
G01 X30.6390 Y11.6335
G01 X30.6463 Y11.6349
G01 X30.6843 Y11.6445
G01 X30.6914 Y11.6466
G01 X30.7283 Y11.6598
G01 X30.7351 Y11.6626
G01 X30.7706 Y11.6794
G01 X30.7771 Y11.6829
G01 X30.8108 Y11.7031
G01 X30.8169 Y11.7072
G01 X30.8484 Y11.7306
G01 X30.8541 Y11.7352
G01 X30.8832 Y11.7616
G01 X30.8884 Y11.7668
G01 X30.9148 Y11.7959
G01 X30.9194 Y11.8016
G01 X30.9428 Y11.8331
G01 X30.9469 Y11.8392
G01 X30.9671 Y11.8729
G01 X30.9706 Y11.8794
G01 X30.9874 Y11.9149
G01 X30.9902 Y11.9217
G01 X31.0034 Y11.9586
G01 X31.0055 Y11.9657
G01 X31.0151 Y12.0037
G01 X31.0165 Y12.0110
G01 X31.0223 Y12.0498
G01 X31.0230 Y12.0571
G01 X31.0249 Y12.0963
G01 X31.0249 Y12.1037
G01 X31.0230 Y12.1429
G01 X31.0223 Y12.1502
G01 X31.0165 Y12.1890
G01 X31.0151 Y12.1963
G01 X31.0055 Y12.2343
G01 X31.0034 Y12.2414
G01 X30.9902 Y12.2783
G01 X30.9874 Y12.2851
G01 X30.9706 Y12.3206
G01 X30.9671 Y12.3271
G01 X30.9469 Y12.3608
G01 X30.9428 Y12.3669
G01 X30.9194 Y12.3984
G01 X30.9148 Y12.4041
G01 X30.8884 Y12.4332
G01 X30.8832 Y12.4384
G01 X30.8541 Y12.4648
G01 X30.8484 Y12.4694
G01 X30.8169 Y12.4928
G01 X30.8108 Y12.4969
G01 X30.7771 Y12.5171
G01 X30.7706 Y12.5206
G01 X30.7351 Y12.5374
G01 X30.7283 Y12.5402
G01 X30.6914 Y12.5534
G01 X30.6843 Y12.5555
G01 X30.6463 Y12.5651
G01 X30.6390 Y12.5665
G01 X30.6002 Y12.5723
G01 X30.5929 Y12.5730
G01 X30.5537 Y12.5749
G01 X30.5463 Y12.5749
G01 X30.5071 Y12.5730
G01 X30.4998 Y12.5723
G01 X30.4610 Y12.5665
G01 X30.4537 Y12.5651
G01 X30.4157 Y12.5555
G01 X30.4086 Y12.5534
G01 X30.3717 Y12.5402
G01 X30.3649 Y12.5374
G01 X30.3294 Y12.5206
G01 X30.3229 Y12.5171
G01 X30.2892 Y12.4969
G01 X30.2831 Y12.4928
G01 X30.2516 Y12.4694
G01 X30.2459 Y12.4648
G01 X30.2168 Y12.4384
G01 X30.2116 Y12.4332
G01 X30.1852 Y12.4041
G01 X30.1806 Y12.3984
G01 X30.1572 Y12.3669
G01 X30.1531 Y12.3608
G01 X30.1318 Y12.3251
G01 X22.7646 Y12.3251
G01 X22.7357 Y12.3236
G01 X22.7145 Y12.3204
G01 X22.7075 Y12.3191
G01 X22.6883 Y12.3142
G01 X22.6812 Y12.3121
G01 X22.6601 Y12.3045
G01 X22.6379 Y12.2941
G01 X22.6149 Y12.2807
G01 X22.6087 Y12.2766
G01 X22.5930 Y12.2649
G01 X22.5873 Y12.2603
G01 X22.5701 Y12.2445
G01 X22.0246 Y11.6991
G01 X7.0340 Y11.6991
G01 X7.0107 Y11.6980
G01 X7.0034 Y11.6973
G01 X6.9827 Y11.6943
G01 X6.9577 Y11.6882
G01 X6.9506 Y11.6861
G01 X6.9322 Y11.6795
G01 X6.9254 Y11.6767
G01 X6.9076 Y11.6683
G01 X6.9011 Y11.6648
G01 X6.8843 Y11.6547
G01 X6.8782 Y11.6506
G01 X6.8624 Y11.6389
G01 X6.8567 Y11.6343
G01 X6.8395 Y11.6185
G01 X5.8055 Y10.5845
G01 X5.7897 Y10.5673
G01 X5.7851 Y10.5616
G01 X5.7734 Y10.5458
G01 X5.7693 Y10.5397
G01 X5.7592 Y10.5229
G01 X5.7557 Y10.5164
G01 X5.7473 Y10.4986
G01 X5.7445 Y10.4918
G01 X5.7379 Y10.4734
G01 X5.7358 Y10.4663
G01 X5.7310 Y10.4473
G01 X5.7296 Y10.4400
G01 X5.7267 Y10.4206
G01 X5.7260 Y10.4133
G01 X5.7249 Y10.3900
G01 X5.7249 Y6.0619
G01 X5.7102 Y6.0512
G01 X5.7045 Y6.0465
G01 X5.6884 Y6.0314
G01 X5.6738 Y6.0148
G01 X5.6650 Y6.0030
G01 X5.6534 Y5.9843
G01 X5.6436 Y5.9645
G01 X5.6358 Y5.9438
G01 X5.6337 Y5.9368
G01 X5.6287 Y5.9153
G01 X5.6258 Y5.8934
G01 X5.6250 Y5.8750
G01 X5.6250 Y4.6250
G00 Z2.0000
G00 X7.6250 Y4.6250
G01 F60.00
G01 Z-0.0390
G01 F120.00
G01 X7.6258 Y4.6066
G01 X7.6287 Y4.5847
G01 X7.6338 Y4.5629
G01 X7.6408 Y4.5423
G01 X7.6499 Y4.5222
G01 X7.6534 Y4.5157
G01 X7.6650 Y4.4970
G01 X7.6785 Y4.4795
G01 X7.6936 Y4.4634
G01 X7.7102 Y4.4488
G01 X7.7281 Y4.4360
G01 X7.7472 Y4.4249
G01 X7.7605 Y4.4186
G01 X7.7812 Y4.4108
G01 X7.8025 Y4.4051
G01 X7.8243 Y4.4015
G01 X7.8316 Y4.4008
G01 X7.8500 Y4.4000
G01 X8.1500 Y4.4000
G01 X8.1684 Y4.4008
G01 X8.1757 Y4.4015
G01 X8.1903 Y4.4037
G01 X8.2118 Y4.4087
G01 X8.2327 Y4.4158
G01 X8.2528 Y4.4249
G01 X8.2593 Y4.4284
G01 X8.2780 Y4.4400
G01 X8.2955 Y4.4535
G01 X8.3116 Y4.4686
G01 X8.3262 Y4.4852
G01 X8.3350 Y4.4970
G01 X8.3466 Y4.5157
G01 X8.3564 Y4.5355
G01 X8.3642 Y4.5562
G01 X8.3699 Y4.5775
G01 X8.3735 Y4.5993
G01 X8.3742 Y4.6066
G01 X8.3750 Y4.6250
G01 X8.3750 Y5.8750
G01 X8.3742 Y5.8934
G01 X8.3735 Y5.9007
G01 X8.3699 Y5.9225
G01 X8.3642 Y5.9438
G01 X8.3592 Y5.9577
G01 X8.3564 Y5.9645
G01 X8.3466 Y5.9843
G01 X8.3350 Y6.0030
G01 X8.3215 Y6.0205
G01 X8.3116 Y6.0314
G01 X8.2955 Y6.0465
G01 X8.2898 Y6.0512
G01 X8.2780 Y6.0600
G01 X8.2593 Y6.0716
G01 X8.2395 Y6.0814
G01 X8.2188 Y6.0892
G01 X8.1975 Y6.0949
G01 X8.1757 Y6.0985
G01 X8.1537 Y6.0999
G01 X7.8500 Y6.1000
G01 X7.8316 Y6.0992
G01 X7.8097 Y6.0963
G01 X7.7882 Y6.0913
G01 X7.7812 Y6.0892
G01 X7.7605 Y6.0814
G01 X7.7407 Y6.0716
G01 X7.7220 Y6.0600
G01 X7.7102 Y6.0512
G01 X7.6936 Y6.0366
G01 X7.6785 Y6.0205
G01 X7.6738 Y6.0148
G01 X7.6650 Y6.0030
G01 X7.6534 Y5.9843
G01 X7.6436 Y5.9645
G01 X7.6358 Y5.9438
G01 X7.6301 Y5.9225
G01 X7.6265 Y5.9007
G01 X7.6258 Y5.8934
G01 X7.6250 Y5.8750
G01 X7.6250 Y4.6250
G00 Z2.0000
G00 X8.6250 Y4.6250
G01 F60.00
G01 Z-0.0390
G01 F120.00
G01 X8.6258 Y4.6066
G01 X8.6265 Y4.5993
G01 X8.6301 Y4.5775
G01 X8.6358 Y4.5562
G01 X8.6436 Y4.5355
G01 X8.6499 Y4.5222
G01 X8.6534 Y4.5157
G01 X8.6650 Y4.4970
G01 X8.6785 Y4.4795
G01 X8.6936 Y4.4634
G01 X8.7045 Y4.4535
G01 X8.7102 Y4.4488
G01 X8.7249 Y4.4381
G01 X8.7249 Y3.4500
G01 X8.7260 Y3.4267
G01 X8.7267 Y3.4194
G01 X8.7297 Y3.3987
G01 X8.7358 Y3.3737
G01 X8.7379 Y3.3666
G01 X8.7445 Y3.3482
G01 X8.7473 Y3.3414
G01 X8.7557 Y3.3236
G01 X8.7592 Y3.3171
G01 X8.7693 Y3.3003
G01 X8.7734 Y3.2942
G01 X8.7851 Y3.2784
G01 X8.7897 Y3.2727
G01 X8.8029 Y3.2581
G01 X8.8081 Y3.2529
G01 X8.8227 Y3.2397
G01 X8.8322 Y3.2322
G01 X8.8397 Y3.2227
G01 X8.8555 Y3.2055
G01 X9.1555 Y2.9055
G01 X9.1727 Y2.8897
G01 X9.1784 Y2.8851
G01 X9.1942 Y2.8734
G01 X9.2003 Y2.8693
G01 X9.2171 Y2.8592
G01 X9.2236 Y2.8557
G01 X9.2414 Y2.8473
G01 X9.2482 Y2.8445
G01 X9.2666 Y2.8379
G01 X9.2737 Y2.8358
G01 X9.2927 Y2.8310
G01 X9.3000 Y2.8296
G01 X9.3194 Y2.8267
G01 X9.3267 Y2.8260
G01 X9.3500 Y2.8249
G01 X15.1360 Y2.8249
G01 X17.2555 Y0.7055
G01 X17.2727 Y0.6897
G01 X17.2784 Y0.6851
G01 X17.2942 Y0.6734
G01 X17.3003 Y0.6693
G01 X17.3171 Y0.6592
G01 X17.3236 Y0.6557
G01 X17.3414 Y0.6473
G01 X17.3482 Y0.6445
G01 X17.3666 Y0.6379
G01 X17.3737 Y0.6358
G01 X17.3927 Y0.6310
G01 X17.4000 Y0.6296
G01 X17.4194 Y0.6267
G01 X17.4267 Y0.6260
G01 X17.4500 Y0.6249
G01 X17.8500 Y0.6249
G01 X17.8500 Y0.5750
G01 X17.8504 Y0.5676
G01 X17.8514 Y0.5604
G01 X17.8532 Y0.5532
G01 X17.8557 Y0.5463
G01 X17.8589 Y0.5396
G01 X17.8626 Y0.5333
G01 X17.8670 Y0.5274
G01 X17.8720 Y0.5220
G01 X17.8774 Y0.5170
G01 X17.8833 Y0.5126
G01 X17.8896 Y0.5089
G01 X17.8963 Y0.5057
G01 X17.9032 Y0.5032
G01 X17.9104 Y0.5014
G01 X17.9176 Y0.5004
G01 X17.9250 Y0.5000
G01 X18.9750 Y0.5000
G01 X18.9824 Y0.5004
G01 X18.9896 Y0.5014
G01 X18.9968 Y0.5032
G01 X19.0037 Y0.5057
G01 X19.0104 Y0.5089
G01 X19.0167 Y0.5126
G01 X19.0226 Y0.5170
G01 X19.0280 Y0.5220
G01 X19.0330 Y0.5274
G01 X19.0374 Y0.5333
G01 X19.0411 Y0.5396
G01 X19.0443 Y0.5463
G01 X19.0468 Y0.5532
G01 X19.0486 Y0.5604
G01 X19.0496 Y0.5676
G01 X19.0500 Y0.5750
G01 X19.0500 Y0.5999
G01 X22.0000 Y0.5999
G01 X22.0000 Y0.5750
G01 X22.0004 Y0.5676
G01 X22.0014 Y0.5604
G01 X22.0032 Y0.5532
G01 X22.0057 Y0.5463
G01 X22.0089 Y0.5396
G01 X22.0126 Y0.5333
G01 X22.0170 Y0.5274
G01 X22.0220 Y0.5220
G01 X22.0274 Y0.5170
G01 X22.0333 Y0.5126
G01 X22.0396 Y0.5089
G01 X22.0463 Y0.5057
G01 X22.0532 Y0.5032
G01 X22.0604 Y0.5014
G01 X22.0676 Y0.5004
G01 X22.0750 Y0.5000
G01 X23.1250 Y0.5000
G01 X23.1324 Y0.5004
G01 X23.1396 Y0.5014
G01 X23.1468 Y0.5032
G01 X23.1537 Y0.5057
G01 X23.1604 Y0.5089
G01 X23.1667 Y0.5126
G01 X23.1726 Y0.5170
G01 X23.1780 Y0.5220
G01 X23.1830 Y0.5274
G01 X23.1874 Y0.5333
G01 X23.1911 Y0.5396
G01 X23.1943 Y0.5463
G01 X23.1968 Y0.5532
G01 X23.1986 Y0.5604
G01 X23.1996 Y0.5676
G01 X23.2000 Y0.5750
G01 X23.2000 Y1.2250
G01 X23.1996 Y1.2324
G01 X23.1986 Y1.2396
G01 X23.1968 Y1.2468
G01 X23.1943 Y1.2537
G01 X23.1911 Y1.2604
G01 X23.1874 Y1.2667
G01 X23.1830 Y1.2726
G01 X23.1780 Y1.2780
G01 X23.1726 Y1.2830
G01 X23.1667 Y1.2874
G01 X23.1604 Y1.2911
G01 X23.1537 Y1.2943
G01 X23.1468 Y1.2968
G01 X23.1396 Y1.2986
G01 X23.1324 Y1.2996
G01 X23.1250 Y1.3000
G01 X22.0750 Y1.3000
G01 X22.0676 Y1.2996
G01 X22.0604 Y1.2986
G01 X22.0532 Y1.2968
G01 X22.0463 Y1.2943
G01 X22.0396 Y1.2911
G01 X22.0333 Y1.2874
G01 X22.0274 Y1.2830
G01 X22.0220 Y1.2780
G01 X22.0170 Y1.2726
G01 X22.0126 Y1.2667
G01 X22.0089 Y1.2604
G01 X22.0057 Y1.2537
G01 X22.0032 Y1.2468
G01 X22.0014 Y1.2396
G01 X22.0004 Y1.2324
G01 X22.0000 Y1.2250
G01 X22.0000 Y1.2001
G01 X20.8251 Y1.2001
G01 X20.8251 Y4.6250
G01 X20.9000 Y4.6250
G01 X20.9282 Y4.6263
G01 X20.9355 Y4.6270
G01 X20.9598 Y4.6306
G01 X20.9670 Y4.6321
G01 X20.9908 Y4.6380
G01 X20.9978 Y4.6401
G01 X21.0209 Y4.6484
G01 X21.0277 Y4.6512
G01 X21.0499 Y4.6617
G01 X21.0564 Y4.6652
G01 X21.0775 Y4.6778
G01 X21.0836 Y4.6819
G01 X21.1033 Y4.6965
G01 X21.1090 Y4.7012
G01 X21.1271 Y4.7177
G01 X21.1323 Y4.7229
G01 X21.1488 Y4.7410
G01 X21.1535 Y4.7467
G01 X21.1681 Y4.7664
G01 X21.1722 Y4.7725
G01 X21.1852 Y4.7942
G01 X21.1883 Y4.8001
G01 X21.1988 Y4.8223
G01 X21.2016 Y4.8291
G01 X21.2099 Y4.8522
G01 X21.2120 Y4.8592
G01 X21.2179 Y4.8830
G01 X21.2194 Y4.8902
G01 X21.2230 Y4.9145
G01 X21.2237 Y4.9218
G01 X21.2250 Y4.9500
G01 X21.2250 Y5.8500
G01 X21.2237 Y5.8782
G01 X21.2230 Y5.8855
G01 X21.2194 Y5.9098
G01 X21.2179 Y5.9170
G01 X21.2120 Y5.9408
G01 X21.2099 Y5.9478
G01 X21.2016 Y5.9709
G01 X21.1988 Y5.9777
G01 X21.1883 Y5.9999
G01 X21.1848 Y6.0064
G01 X21.1722 Y6.0275
G01 X21.1681 Y6.0336
G01 X21.1535 Y6.0533
G01 X21.1488 Y6.0590
G01 X21.1323 Y6.0771
G01 X21.1271 Y6.0823
G01 X21.1090 Y6.0988
G01 X21.1033 Y6.1035
G01 X21.0836 Y6.1181
G01 X21.0775 Y6.1222
G01 X21.0558 Y6.1352
G01 X21.0277 Y6.1488
G01 X21.0209 Y6.1516
G01 X20.9978 Y6.1599
G01 X20.9908 Y6.1620
G01 X20.9670 Y6.1679
G01 X20.9598 Y6.1694
G01 X20.9355 Y6.1730
G01 X20.9282 Y6.1737
G01 X20.9000 Y6.1750
G01 X20.8501 Y6.1750
G01 X20.8501 Y8.7857
G01 X21.7643 Y9.6999
G01 X27.1000 Y9.6999
G01 X27.1257 Y9.7011
G01 X27.1331 Y9.7018
G01 X27.1549 Y9.7050
G01 X27.1621 Y9.7065
G01 X27.1836 Y9.7118
G01 X27.1906 Y9.7140
G01 X27.2114 Y9.7214
G01 X27.2182 Y9.7242
G01 X27.2382 Y9.7337
G01 X27.2447 Y9.7371
G01 X27.2636 Y9.7485
G01 X27.2697 Y9.7526
G01 X27.2875 Y9.7657
G01 X27.2932 Y9.7704
G01 X27.3095 Y9.7853
G01 X28.2243 Y10.6999
G01 X29.4310 Y10.6999
G01 X29.4490 Y10.6865
G01 X29.4552 Y10.6824
G01 X29.4888 Y10.6622
G01 X29.4953 Y10.6587
G01 X29.5308 Y10.6419
G01 X29.5376 Y10.6391
G01 X29.5746 Y10.6259
G01 X29.5816 Y10.6238
G01 X29.6197 Y10.6142
G01 X29.6269 Y10.6128
G01 X29.6657 Y10.6070
G01 X29.6731 Y10.6063
G01 X29.7123 Y10.6044
G01 X29.7196 Y10.6044
G01 X29.7588 Y10.6063
G01 X29.7662 Y10.6070
G01 X29.8050 Y10.6128
G01 X29.8122 Y10.6142
G01 X29.8503 Y10.6238
G01 X29.8573 Y10.6259
G01 X29.8943 Y10.6391
G01 X29.9011 Y10.6419
G01 X29.9366 Y10.6587
G01 X29.9431 Y10.6622
G01 X29.9767 Y10.6824
G01 X29.9829 Y10.6865
G01 X30.0144 Y10.7099
G01 X30.0201 Y10.7145
G01 X30.0492 Y10.7409
G01 X30.0544 Y10.7461
G01 X30.0807 Y10.7752
G01 X30.0854 Y10.7809
G01 X30.1088 Y10.8124
G01 X30.1129 Y10.8185
G01 X30.1331 Y10.8522
G01 X30.1365 Y10.8587
G01 X30.1533 Y10.8942
G01 X30.1561 Y10.9010
G01 X30.1693 Y10.9379
G01 X30.1715 Y10.9450
G01 X30.1810 Y10.9830
G01 X30.1825 Y10.9903
G01 X30.1882 Y11.0291
G01 X30.1889 Y11.0364
G01 X30.1909 Y11.0756
G01 X30.1909 Y11.0830
G01 X30.1889 Y11.1222
G01 X30.1882 Y11.1295
G01 X30.1825 Y11.1683
G01 X30.1810 Y11.1756
G01 X30.1715 Y11.2136
G01 X30.1693 Y11.2207
G01 X30.1561 Y11.2576
G01 X30.1533 Y11.2644
G01 X30.1365 Y11.2999
G01 X30.1331 Y11.3064
G01 X30.1129 Y11.3401
G01 X30.1088 Y11.3462
G01 X30.0854 Y11.3777
G01 X30.0807 Y11.3834
G01 X30.0544 Y11.4125
G01 X30.0492 Y11.4177
G01 X30.0201 Y11.4441
G01 X30.0144 Y11.4487
G01 X29.9829 Y11.4721
G01 X29.9767 Y11.4762
G01 X29.9431 Y11.4964
G01 X29.9366 Y11.4999
G01 X29.9011 Y11.5166
G01 X29.8943 Y11.5195
G01 X29.8573 Y11.5327
G01 X29.8503 Y11.5348
G01 X29.8122 Y11.5444
G01 X29.8050 Y11.5458
G01 X29.7662 Y11.5516
G01 X29.7588 Y11.5523
G01 X29.7196 Y11.5542
G01 X29.7123 Y11.5542
G01 X29.6731 Y11.5523
G01 X29.6657 Y11.5516
G01 X29.6269 Y11.5458
G01 X29.6197 Y11.5444
G01 X29.5816 Y11.5348
G01 X29.5746 Y11.5327
G01 X29.5376 Y11.5195
G01 X29.5308 Y11.5166
G01 X29.4953 Y11.4999
G01 X29.4888 Y11.4964
G01 X29.4552 Y11.4762
G01 X29.4490 Y11.4721
G01 X29.4175 Y11.4487
G01 X29.4118 Y11.4441
G01 X29.3827 Y11.4177
G01 X29.3775 Y11.4125
G01 X29.3512 Y11.3834
G01 X29.3465 Y11.3777
G01 X29.3231 Y11.3462
G01 X29.3190 Y11.3401
G01 X29.2989 Y11.3064
G01 X29.2955 Y11.3001
G01 X28.1000 Y11.3001
G01 X28.0743 Y11.2989
G01 X28.0669 Y11.2982
G01 X28.0451 Y11.2950
G01 X28.0379 Y11.2935
G01 X28.0164 Y11.2882
G01 X28.0094 Y11.2860
G01 X27.9886 Y11.2786
G01 X27.9818 Y11.2758
G01 X27.9618 Y11.2663
G01 X27.9553 Y11.2629
G01 X27.9364 Y11.2515
G01 X27.9303 Y11.2474
G01 X27.9125 Y11.2343
G01 X27.9068 Y11.2296
G01 X27.8905 Y11.2147
G01 X26.9757 Y10.3001
G01 X21.6400 Y10.3001
G01 X21.6143 Y10.2989
G01 X21.6069 Y10.2982
G01 X21.5851 Y10.2950
G01 X21.5779 Y10.2935
G01 X21.5564 Y10.2882
G01 X21.5494 Y10.2860
G01 X21.5286 Y10.2786
G01 X21.5218 Y10.2758
G01 X21.5018 Y10.2663
G01 X21.4953 Y10.2629
G01 X21.4764 Y10.2515
G01 X21.4703 Y10.2474
G01 X21.4525 Y10.2343
G01 X21.4468 Y10.2296
G01 X21.4305 Y10.2147
G01 X20.3378 Y9.1222
G01 X20.3204 Y9.1032
G01 X20.3157 Y9.0975
G01 X20.3026 Y9.0797
G01 X20.2985 Y9.0736
G01 X20.2871 Y9.0547
G01 X20.2837 Y9.0482
G01 X20.2742 Y9.0282
G01 X20.2714 Y9.0214
G01 X20.2640 Y9.0006
G01 X20.2618 Y8.9936
G01 X20.2565 Y8.9721
G01 X20.2550 Y8.9649
G01 X20.2518 Y8.9431
G01 X20.2511 Y8.9357
G01 X20.2500 Y8.9137
G01 X20.2499 Y6.1750
G01 X20.2000 Y6.1750
G01 X20.1718 Y6.1737
G01 X20.1645 Y6.1730
G01 X20.1402 Y6.1694
G01 X20.1330 Y6.1679
G01 X20.1092 Y6.1620
G01 X20.1022 Y6.1599
G01 X20.0791 Y6.1516
G01 X20.0723 Y6.1488
G01 X20.0501 Y6.1383
G01 X20.0436 Y6.1348
G01 X20.0225 Y6.1222
G01 X20.0164 Y6.1181
G01 X19.9967 Y6.1035
G01 X19.9910 Y6.0988
G01 X19.9729 Y6.0823
G01 X19.9677 Y6.0771
G01 X19.9512 Y6.0590
G01 X19.9465 Y6.0533
G01 X19.9319 Y6.0336
G01 X19.9278 Y6.0275
G01 X19.9148 Y6.0058
G01 X19.9012 Y5.9777
G01 X19.8984 Y5.9709
G01 X19.8901 Y5.9478
G01 X19.8880 Y5.9408
G01 X19.8821 Y5.9170
G01 X19.8806 Y5.9098
G01 X19.8770 Y5.8855
G01 X19.8763 Y5.8782
G01 X19.8750 Y5.8500
G01 X19.8750 Y4.9500
G01 X19.8763 Y4.9218
