(G-CODE GENERATED BY FLATCAM v8.991 - www.flatcam.org - Version Date: 2019/12/27)

(Name: 4.mill08)
(Type: G-code from Geometry)
(Units: MM)

(Created on Friday, 28 November 2025 at 22:14)

(TOOL DIAMETER: 0.8 mm)
(Feedrate: 120.0 mm/min)
(Feedrate_Z: 60.0 mm/min)
(Feedrate rapids 1500.0 mm/min)

(Z_Cut: -1.8 mm)
(DepthPerCut: 0.45 mm <=>4 passes)
(Z_Move: 2.0 mm)
(Z Toolchange: 15.0 mm)
(X,Y Toolchange: 0.0000, 0.0000 mm)
(Z Start: None mm)
(Z End: 15.0 mm)
(Steps per circle: 64)
(Preprocessor Geometry: default)

(X range:   23.9509 ...   49.1503  mm)
(Y range:    9.6990 ...   25.8992  mm)

(Spindle Speed: 10000 RPM)
G21
G90
G94




G01 F120.00
G00 Z2.0000

M03 S10000
G4 P3.0
G00 X24.1516 Y19.6495
G01 F60.00
G01 Z-0.4500
G01 F120.00
G01 X24.1512 Y19.6397
G01 X24.1497 Y19.6299
G01 X24.1473 Y19.6204
G01 X24.1440 Y19.6111
G01 X24.1398 Y19.6022
G01 X24.1347 Y19.5937
G01 X24.1289 Y19.5858
G01 X24.1222 Y19.5785
G01 X24.1149 Y19.5719
G01 X24.1070 Y19.5660
G01 X24.0986 Y19.5610
G01 X24.0897 Y19.5568
G01 X24.0804 Y19.5534
G01 X24.0708 Y19.5510
G01 X24.0611 Y19.5496
G01 X24.0513 Y19.5491
G01 X24.0414 Y19.5496
G01 X24.0317 Y19.5510
G01 X24.0221 Y19.5534
G01 X24.0128 Y19.5568
G01 X24.0039 Y19.5610
G01 X23.9955 Y19.5660
G01 X23.9876 Y19.5719
G01 X23.9803 Y19.5785
G01 X23.9737 Y19.5858
G01 X23.9678 Y19.5937
G01 X23.9627 Y19.6022
G01 X23.9585 Y19.6111
G01 X23.9552 Y19.6204
G01 X23.9528 Y19.6299
G01 X23.9514 Y19.6397
G01 X23.9509 Y19.6495
G01 X23.9514 Y19.6593
G01 X23.9528 Y19.6691
G01 X23.9552 Y19.6786
G01 X23.9585 Y19.6879
G01 X23.9627 Y19.6968
G01 X23.9678 Y19.7053
G01 X23.9737 Y19.7132
G01 X23.9803 Y19.7205
G01 X23.9876 Y19.7271
G01 X23.9955 Y19.7330
G01 X24.0039 Y19.7380
G01 X24.0128 Y19.7422
G01 X24.0221 Y19.7456
G01 X24.0317 Y19.7480
G01 X24.0414 Y19.7494
G01 X24.0513 Y19.7499
G01 X24.0611 Y19.7494
G01 X24.0708 Y19.7480
G01 X24.0804 Y19.7456
G01 X24.0897 Y19.7422
G01 X24.0986 Y19.7380
G01 X24.1070 Y19.7330
G01 X24.1149 Y19.7271
G01 X24.1222 Y19.7205
G01 X24.1289 Y19.7132
G01 X24.1347 Y19.7053
G01 X24.1398 Y19.6968
G01 X24.1440 Y19.6879
G01 X24.1473 Y19.6786
G01 X24.1497 Y19.6691
G01 X24.1512 Y19.6593
G01 X24.1516 Y19.6495
G00 X24.1516 Y19.6495
G01 F60.00
G01 Z-0.9000
G01 F120.00
G01 X24.1512 Y19.6397
G01 X24.1497 Y19.6299
G01 X24.1473 Y19.6204
G01 X24.1440 Y19.6111
G01 X24.1398 Y19.6022
G01 X24.1347 Y19.5937
G01 X24.1289 Y19.5858
G01 X24.1222 Y19.5785
G01 X24.1149 Y19.5719
G01 X24.1070 Y19.5660
G01 X24.0986 Y19.5610
G01 X24.0897 Y19.5568
G01 X24.0804 Y19.5534
G01 X24.0708 Y19.5510
G01 X24.0611 Y19.5496
G01 X24.0513 Y19.5491
G01 X24.0414 Y19.5496
G01 X24.0317 Y19.5510
G01 X24.0221 Y19.5534
G01 X24.0128 Y19.5568
G01 X24.0039 Y19.5610
G01 X23.9955 Y19.5660
G01 X23.9876 Y19.5719
G01 X23.9803 Y19.5785
G01 X23.9737 Y19.5858
G01 X23.9678 Y19.5937
G01 X23.9627 Y19.6022
G01 X23.9585 Y19.6111
G01 X23.9552 Y19.6204
G01 X23.9528 Y19.6299
G01 X23.9514 Y19.6397
G01 X23.9509 Y19.6495
G01 X23.9514 Y19.6593
G01 X23.9528 Y19.6691
G01 X23.9552 Y19.6786
G01 X23.9585 Y19.6879
G01 X23.9627 Y19.6968
G01 X23.9678 Y19.7053
G01 X23.9737 Y19.7132
G01 X23.9803 Y19.7205
G01 X23.9876 Y19.7271
G01 X23.9955 Y19.7330
G01 X24.0039 Y19.7380
G01 X24.0128 Y19.7422
G01 X24.0221 Y19.7456
G01 X24.0317 Y19.7480
G01 X24.0414 Y19.7494
G01 X24.0513 Y19.7499
G01 X24.0611 Y19.7494
G01 X24.0708 Y19.7480
G01 X24.0804 Y19.7456
G01 X24.0897 Y19.7422
G01 X24.0986 Y19.7380
G01 X24.1070 Y19.7330
G01 X24.1149 Y19.7271
G01 X24.1222 Y19.7205
G01 X24.1289 Y19.7132
G01 X24.1347 Y19.7053
G01 X24.1398 Y19.6968
G01 X24.1440 Y19.6879
G01 X24.1473 Y19.6786
G01 X24.1497 Y19.6691
G01 X24.1512 Y19.6593
G01 X24.1516 Y19.6495
G00 X24.1516 Y19.6495
G01 F60.00
G01 Z-1.3500
G01 F120.00
G01 X24.1512 Y19.6397
G01 X24.1497 Y19.6299
G01 X24.1473 Y19.6204
G01 X24.1440 Y19.6111
G01 X24.1398 Y19.6022
G01 X24.1347 Y19.5937
G01 X24.1289 Y19.5858
G01 X24.1222 Y19.5785
G01 X24.1149 Y19.5719
G01 X24.1070 Y19.5660
G01 X24.0986 Y19.5610
G01 X24.0897 Y19.5568
G01 X24.0804 Y19.5534
G01 X24.0708 Y19.5510
G01 X24.0611 Y19.5496
G01 X24.0513 Y19.5491
G01 X24.0414 Y19.5496
G01 X24.0317 Y19.5510
G01 X24.0221 Y19.5534
G01 X24.0128 Y19.5568
G01 X24.0039 Y19.5610
G01 X23.9955 Y19.5660
G01 X23.9876 Y19.5719
G01 X23.9803 Y19.5785
G01 X23.9737 Y19.5858
G01 X23.9678 Y19.5937
G01 X23.9627 Y19.6022
G01 X23.9585 Y19.6111
G01 X23.9552 Y19.6204
G01 X23.9528 Y19.6299
G01 X23.9514 Y19.6397
G01 X23.9509 Y19.6495
G01 X23.9514 Y19.6593
G01 X23.9528 Y19.6691
G01 X23.9552 Y19.6786
G01 X23.9585 Y19.6879
G01 X23.9627 Y19.6968
G01 X23.9678 Y19.7053
G01 X23.9737 Y19.7132
G01 X23.9803 Y19.7205
G01 X23.9876 Y19.7271
G01 X23.9955 Y19.7330
G01 X24.0039 Y19.7380
G01 X24.0128 Y19.7422
G01 X24.0221 Y19.7456
G01 X24.0317 Y19.7480
G01 X24.0414 Y19.7494
G01 X24.0513 Y19.7499
G01 X24.0611 Y19.7494
G01 X24.0708 Y19.7480
G01 X24.0804 Y19.7456
G01 X24.0897 Y19.7422
G01 X24.0986 Y19.7380
G01 X24.1070 Y19.7330
G01 X24.1149 Y19.7271
G01 X24.1222 Y19.7205
G01 X24.1289 Y19.7132
G01 X24.1347 Y19.7053
G01 X24.1398 Y19.6968
G01 X24.1440 Y19.6879
G01 X24.1473 Y19.6786
G01 X24.1497 Y19.6691
G01 X24.1512 Y19.6593
G01 X24.1516 Y19.6495
G00 X24.1516 Y19.6495
G01 F60.00
G01 Z-1.8000
G01 F120.00
G01 X24.1512 Y19.6397
G01 X24.1497 Y19.6299
G01 X24.1473 Y19.6204
G01 X24.1440 Y19.6111
G01 X24.1398 Y19.6022
G01 X24.1347 Y19.5937
G01 X24.1289 Y19.5858
G01 X24.1222 Y19.5785
G01 X24.1149 Y19.5719
G01 X24.1070 Y19.5660
G01 X24.0986 Y19.5610
G01 X24.0897 Y19.5568
G01 X24.0804 Y19.5534
G01 X24.0708 Y19.5510
G01 X24.0611 Y19.5496
G01 X24.0513 Y19.5491
G01 X24.0414 Y19.5496
G01 X24.0317 Y19.5510
G01 X24.0221 Y19.5534
G01 X24.0128 Y19.5568
G01 X24.0039 Y19.5610
G01 X23.9955 Y19.5660
G01 X23.9876 Y19.5719
G01 X23.9803 Y19.5785
G01 X23.9737 Y19.5858
G01 X23.9678 Y19.5937
G01 X23.9627 Y19.6022
G01 X23.9585 Y19.6111
G01 X23.9552 Y19.6204
G01 X23.9528 Y19.6299
G01 X23.9514 Y19.6397
G01 X23.9509 Y19.6495
G01 X23.9514 Y19.6593
G01 X23.9528 Y19.6691
G01 X23.9552 Y19.6786
G01 X23.9585 Y19.6879
G01 X23.9627 Y19.6968
G01 X23.9678 Y19.7053
G01 X23.9737 Y19.7132
G01 X23.9803 Y19.7205
G01 X23.9876 Y19.7271
G01 X23.9955 Y19.7330
G01 X24.0039 Y19.7380
G01 X24.0128 Y19.7422
G01 X24.0221 Y19.7456
G01 X24.0317 Y19.7480
G01 X24.0414 Y19.7494
G01 X24.0513 Y19.7499
G01 X24.0611 Y19.7494
G01 X24.0708 Y19.7480
G01 X24.0804 Y19.7456
G01 X24.0897 Y19.7422
G01 X24.0986 Y19.7380
G01 X24.1070 Y19.7330
G01 X24.1149 Y19.7271
G01 X24.1222 Y19.7205
G01 X24.1289 Y19.7132
G01 X24.1347 Y19.7053
G01 X24.1398 Y19.6968
G01 X24.1440 Y19.6879
G01 X24.1473 Y19.6786
G01 X24.1497 Y19.6691
G01 X24.1512 Y19.6593
G01 X24.1516 Y19.6495
G00 Z2.0000
G00 X29.1504 Y19.6495
G01 F60.00
G01 Z-0.4500
G01 F120.00
G01 X29.1499 Y19.6397
G01 X29.1484 Y19.6299
G01 X29.1460 Y19.6204
G01 X29.1427 Y19.6111
G01 X29.1385 Y19.6022
G01 X29.1334 Y19.5937
G01 X29.1276 Y19.5858
G01 X29.1210 Y19.5785
G01 X29.1137 Y19.5719
G01 X29.1057 Y19.5660
G01 X29.0973 Y19.5610
G01 X29.0884 Y19.5568
G01 X29.0791 Y19.5534
G01 X29.0696 Y19.5510
G01 X29.0598 Y19.5496
G01 X29.0500 Y19.5491
G01 X29.0401 Y19.5496
G01 X29.0304 Y19.5510
G01 X29.0208 Y19.5534
G01 X29.0116 Y19.5568
G01 X29.0027 Y19.5610
G01 X28.9942 Y19.5660
G01 X28.9863 Y19.5719
G01 X28.9790 Y19.5785
G01 X28.9724 Y19.5858
G01 X28.9665 Y19.5937
G01 X28.9615 Y19.6022
G01 X28.9572 Y19.6111
G01 X28.9539 Y19.6204
G01 X28.9515 Y19.6299
G01 X28.9501 Y19.6397
G01 X28.9496 Y19.6495
G01 X28.9501 Y19.6593
G01 X28.9515 Y19.6691
G01 X28.9539 Y19.6786
G01 X28.9572 Y19.6879
G01 X28.9615 Y19.6968
G01 X28.9665 Y19.7053
G01 X28.9724 Y19.7132
G01 X28.9790 Y19.7205
G01 X28.9863 Y19.7271
G01 X28.9942 Y19.7330
G01 X29.0027 Y19.7380
G01 X29.0116 Y19.7422
G01 X29.0208 Y19.7456
G01 X29.0304 Y19.7480
G01 X29.0401 Y19.7494
G01 X29.0500 Y19.7499
G01 X29.0598 Y19.7494
G01 X29.0696 Y19.7480
G01 X29.0791 Y19.7456
G01 X29.0884 Y19.7422
G01 X29.0973 Y19.7380
G01 X29.1057 Y19.7330
G01 X29.1137 Y19.7271
G01 X29.1210 Y19.7205
G01 X29.1276 Y19.7132
G01 X29.1334 Y19.7053
G01 X29.1385 Y19.6968
G01 X29.1427 Y19.6879
G01 X29.1460 Y19.6786
G01 X29.1484 Y19.6691
G01 X29.1499 Y19.6593
G01 X29.1504 Y19.6495
G00 X29.1504 Y19.6495
G01 F60.00
G01 Z-0.9000
G01 F120.00
G01 X29.1499 Y19.6397
G01 X29.1484 Y19.6299
G01 X29.1460 Y19.6204
G01 X29.1427 Y19.6111
G01 X29.1385 Y19.6022
G01 X29.1334 Y19.5937
G01 X29.1276 Y19.5858
G01 X29.1210 Y19.5785
G01 X29.1137 Y19.5719
G01 X29.1057 Y19.5660
G01 X29.0973 Y19.5610
G01 X29.0884 Y19.5568
G01 X29.0791 Y19.5534
G01 X29.0696 Y19.5510
G01 X29.0598 Y19.5496
G01 X29.0500 Y19.5491
G01 X29.0401 Y19.5496
G01 X29.0304 Y19.5510
G01 X29.0208 Y19.5534
G01 X29.0116 Y19.5568
G01 X29.0027 Y19.5610
G01 X28.9942 Y19.5660
G01 X28.9863 Y19.5719
G01 X28.9790 Y19.5785
G01 X28.9724 Y19.5858
G01 X28.9665 Y19.5937
G01 X28.9615 Y19.6022
G01 X28.9572 Y19.6111
G01 X28.9539 Y19.6204
G01 X28.9515 Y19.6299
G01 X28.9501 Y19.6397
G01 X28.9496 Y19.6495
G01 X28.9501 Y19.6593
G01 X28.9515 Y19.6691
G01 X28.9539 Y19.6786
G01 X28.9572 Y19.6879
G01 X28.9615 Y19.6968
G01 X28.9665 Y19.7053
G01 X28.9724 Y19.7132
G01 X28.9790 Y19.7205
G01 X28.9863 Y19.7271
G01 X28.9942 Y19.7330
G01 X29.0027 Y19.7380
G01 X29.0116 Y19.7422
G01 X29.0208 Y19.7456
G01 X29.0304 Y19.7480
G01 X29.0401 Y19.7494
G01 X29.0500 Y19.7499
G01 X29.0598 Y19.7494
G01 X29.0696 Y19.7480
G01 X29.0791 Y19.7456
G01 X29.0884 Y19.7422
G01 X29.0973 Y19.7380
G01 X29.1057 Y19.7330
G01 X29.1137 Y19.7271
G01 X29.1210 Y19.7205
G01 X29.1276 Y19.7132
G01 X29.1334 Y19.7053
G01 X29.1385 Y19.6968
G01 X29.1427 Y19.6879
G01 X29.1460 Y19.6786
G01 X29.1484 Y19.6691
G01 X29.1499 Y19.6593
G01 X29.1504 Y19.6495
G00 X29.1504 Y19.6495
G01 F60.00
G01 Z-1.3500
G01 F120.00
G01 X29.1499 Y19.6397
G01 X29.1484 Y19.6299
G01 X29.1460 Y19.6204
G01 X29.1427 Y19.6111
G01 X29.1385 Y19.6022
G01 X29.1334 Y19.5937
G01 X29.1276 Y19.5858
G01 X29.1210 Y19.5785
G01 X29.1137 Y19.5719
G01 X29.1057 Y19.5660
G01 X29.0973 Y19.5610
G01 X29.0884 Y19.5568
G01 X29.0791 Y19.5534
G01 X29.0696 Y19.5510
G01 X29.0598 Y19.5496
G01 X29.0500 Y19.5491
G01 X29.0401 Y19.5496
G01 X29.0304 Y19.5510
G01 X29.0208 Y19.5534
G01 X29.0116 Y19.5568
G01 X29.0027 Y19.5610
G01 X28.9942 Y19.5660
G01 X28.9863 Y19.5719
G01 X28.9790 Y19.5785
G01 X28.9724 Y19.5858
G01 X28.9665 Y19.5937
G01 X28.9615 Y19.6022
G01 X28.9572 Y19.6111
G01 X28.9539 Y19.6204
G01 X28.9515 Y19.6299
G01 X28.9501 Y19.6397
G01 X28.9496 Y19.6495
G01 X28.9501 Y19.6593
G01 X28.9515 Y19.6691
G01 X28.9539 Y19.6786
G01 X28.9572 Y19.6879
G01 X28.9615 Y19.6968
G01 X28.9665 Y19.7053
G01 X28.9724 Y19.7132
G01 X28.9790 Y19.7205
G01 X28.9863 Y19.7271
G01 X28.9942 Y19.7330
G01 X29.0027 Y19.7380
G01 X29.0116 Y19.7422
G01 X29.0208 Y19.7456
G01 X29.0304 Y19.7480
G01 X29.0401 Y19.7494
G01 X29.0500 Y19.7499
G01 X29.0598 Y19.7494
G01 X29.0696 Y19.7480
G01 X29.0791 Y19.7456
G01 X29.0884 Y19.7422
G01 X29.0973 Y19.7380
G01 X29.1057 Y19.7330
G01 X29.1137 Y19.7271
G01 X29.1210 Y19.7205
G01 X29.1276 Y19.7132
G01 X29.1334 Y19.7053
G01 X29.1385 Y19.6968
G01 X29.1427 Y19.6879
G01 X29.1460 Y19.6786
G01 X29.1484 Y19.6691
G01 X29.1499 Y19.6593
G01 X29.1504 Y19.6495
G00 X29.1504 Y19.6495
G01 F60.00
G01 Z-1.8000
G01 F120.00
G01 X29.1499 Y19.6397
G01 X29.1484 Y19.6299
G01 X29.1460 Y19.6204
G01 X29.1427 Y19.6111
G01 X29.1385 Y19.6022
G01 X29.1334 Y19.5937
G01 X29.1276 Y19.5858
G01 X29.1210 Y19.5785
G01 X29.1137 Y19.5719
G01 X29.1057 Y19.5660
G01 X29.0973 Y19.5610
G01 X29.0884 Y19.5568
G01 X29.0791 Y19.5534
G01 X29.0696 Y19.5510
G01 X29.0598 Y19.5496
G01 X29.0500 Y19.5491
G01 X29.0401 Y19.5496
G01 X29.0304 Y19.5510
G01 X29.0208 Y19.5534
G01 X29.0116 Y19.5568
G01 X29.0027 Y19.5610
G01 X28.9942 Y19.5660
G01 X28.9863 Y19.5719
G01 X28.9790 Y19.5785
G01 X28.9724 Y19.5858
G01 X28.9665 Y19.5937
G01 X28.9615 Y19.6022
G01 X28.9572 Y19.6111
G01 X28.9539 Y19.6204
G01 X28.9515 Y19.6299
G01 X28.9501 Y19.6397
G01 X28.9496 Y19.6495
G01 X28.9501 Y19.6593
G01 X28.9515 Y19.6691
G01 X28.9539 Y19.6786
G01 X28.9572 Y19.6879
G01 X28.9615 Y19.6968
G01 X28.9665 Y19.7053
G01 X28.9724 Y19.7132
G01 X28.9790 Y19.7205
G01 X28.9863 Y19.7271
G01 X28.9942 Y19.7330
G01 X29.0027 Y19.7380
G01 X29.0116 Y19.7422
G01 X29.0208 Y19.7456
G01 X29.0304 Y19.7480
G01 X29.0401 Y19.7494
G01 X29.0500 Y19.7499
G01 X29.0598 Y19.7494
G01 X29.0696 Y19.7480
G01 X29.0791 Y19.7456
G01 X29.0884 Y19.7422
G01 X29.0973 Y19.7380
G01 X29.1057 Y19.7330
G01 X29.1137 Y19.7271
G01 X29.1210 Y19.7205
G01 X29.1276 Y19.7132
G01 X29.1334 Y19.7053
G01 X29.1385 Y19.6968
G01 X29.1427 Y19.6879
G01 X29.1460 Y19.6786
G01 X29.1484 Y19.6691
G01 X29.1499 Y19.6593
G01 X29.1504 Y19.6495
G00 Z2.0000
G00 X35.3505 Y19.3498
G01 F60.00
G01 Z-0.4500
G01 F120.00
G01 X35.3500 Y19.3399
G01 X35.3486 Y19.3302
G01 X35.3462 Y19.3206
G01 X35.3429 Y19.3114
G01 X35.3386 Y19.3025
G01 X35.3336 Y19.2940
G01 X35.3277 Y19.2861
G01 X35.3211 Y19.2788
G01 X35.3138 Y19.2722
G01 X35.3059 Y19.2663
G01 X35.2974 Y19.2613
G01 X35.2885 Y19.2570
G01 X35.2793 Y19.2537
G01 X35.2697 Y19.2513
G01 X35.2600 Y19.2499
G01 X35.2501 Y19.2494
G01 X35.2403 Y19.2499
G01 X35.2305 Y19.2513
G01 X35.2210 Y19.2537
G01 X35.2117 Y19.2570
G01 X35.2028 Y19.2613
G01 X35.1944 Y19.2663
G01 X35.1864 Y19.2722
G01 X35.1791 Y19.2788
G01 X35.1725 Y19.2861
G01 X35.1667 Y19.2940
G01 X35.1616 Y19.3025
G01 X35.1574 Y19.3114
G01 X35.1541 Y19.3206
G01 X35.1517 Y19.3302
G01 X35.1502 Y19.3399
G01 X35.1497 Y19.3498
G01 X35.1502 Y19.3596
G01 X35.1517 Y19.3694
G01 X35.1541 Y19.3789
G01 X35.1574 Y19.3882
G01 X35.1616 Y19.3971
G01 X35.1667 Y19.4055
G01 X35.1725 Y19.4135
G01 X35.1791 Y19.4208
G01 X35.1864 Y19.4274
G01 X35.1944 Y19.4332
G01 X35.2028 Y19.4383
G01 X35.2117 Y19.4425
G01 X35.2210 Y19.4458
G01 X35.2305 Y19.4482
G01 X35.2403 Y19.4497
G01 X35.2501 Y19.4502
G01 X35.2600 Y19.4497
G01 X35.2697 Y19.4482
G01 X35.2793 Y19.4458
G01 X35.2885 Y19.4425
G01 X35.2974 Y19.4383
G01 X35.3059 Y19.4332
G01 X35.3138 Y19.4274
G01 X35.3211 Y19.4208
G01 X35.3277 Y19.4135
G01 X35.3336 Y19.4055
G01 X35.3386 Y19.3971
G01 X35.3429 Y19.3882
G01 X35.3462 Y19.3789
G01 X35.3486 Y19.3694
G01 X35.3500 Y19.3596
G01 X35.3505 Y19.3498
G00 X35.3505 Y19.3498
G01 F60.00
G01 Z-0.9000
G01 F120.00
G01 X35.3500 Y19.3399
G01 X35.3486 Y19.3302
G01 X35.3462 Y19.3206
G01 X35.3429 Y19.3114
G01 X35.3386 Y19.3025
G01 X35.3336 Y19.2940
G01 X35.3277 Y19.2861
G01 X35.3211 Y19.2788
G01 X35.3138 Y19.2722
G01 X35.3059 Y19.2663
G01 X35.2974 Y19.2613
G01 X35.2885 Y19.2570
G01 X35.2793 Y19.2537
G01 X35.2697 Y19.2513
G01 X35.2600 Y19.2499
G01 X35.2501 Y19.2494
G01 X35.2403 Y19.2499
G01 X35.2305 Y19.2513
G01 X35.2210 Y19.2537
G01 X35.2117 Y19.2570
G01 X35.2028 Y19.2613
G01 X35.1944 Y19.2663
G01 X35.1864 Y19.2722
G01 X35.1791 Y19.2788
G01 X35.1725 Y19.2861
G01 X35.1667 Y19.2940
G01 X35.1616 Y19.3025
G01 X35.1574 Y19.3114
G01 X35.1541 Y19.3206
G01 X35.1517 Y19.3302
G01 X35.1502 Y19.3399
G01 X35.1497 Y19.3498
G01 X35.1502 Y19.3596
G01 X35.1517 Y19.3694
G01 X35.1541 Y19.3789
G01 X35.1574 Y19.3882
G01 X35.1616 Y19.3971
G01 X35.1667 Y19.4055
G01 X35.1725 Y19.4135
G01 X35.1791 Y19.4208
G01 X35.1864 Y19.4274
G01 X35.1944 Y19.4332
G01 X35.2028 Y19.4383
G01 X35.2117 Y19.4425
G01 X35.2210 Y19.4458
G01 X35.2305 Y19.4482
G01 X35.2403 Y19.4497
G01 X35.2501 Y19.4502
G01 X35.2600 Y19.4497
G01 X35.2697 Y19.4482
G01 X35.2793 Y19.4458
G01 X35.2885 Y19.4425
G01 X35.2974 Y19.4383
G01 X35.3059 Y19.4332
G01 X35.3138 Y19.4274
G01 X35.3211 Y19.4208
G01 X35.3277 Y19.4135
G01 X35.3336 Y19.4055
G01 X35.3386 Y19.3971
G01 X35.3429 Y19.3882
G01 X35.3462 Y19.3789
G01 X35.3486 Y19.3694
G01 X35.3500 Y19.3596
G01 X35.3505 Y19.3498
G00 X35.3505 Y19.3498
G01 F60.00
G01 Z-1.3500
G01 F120.00
G01 X35.3500 Y19.3399
G01 X35.3486 Y19.3302
G01 X35.3462 Y19.3206
G01 X35.3429 Y19.3114
G01 X35.3386 Y19.3025
G01 X35.3336 Y19.2940
G01 X35.3277 Y19.2861
G01 X35.3211 Y19.2788
G01 X35.3138 Y19.2722
G01 X35.3059 Y19.2663
G01 X35.2974 Y19.2613
G01 X35.2885 Y19.2570
G01 X35.2793 Y19.2537
G01 X35.2697 Y19.2513
G01 X35.2600 Y19.2499
G01 X35.2501 Y19.2494
G01 X35.2403 Y19.2499
G01 X35.2305 Y19.2513
G01 X35.2210 Y19.2537
G01 X35.2117 Y19.2570
G01 X35.2028 Y19.2613
G01 X35.1944 Y19.2663
G01 X35.1864 Y19.2722
G01 X35.1791 Y19.2788
G01 X35.1725 Y19.2861
G01 X35.1667 Y19.2940
G01 X35.1616 Y19.3025
G01 X35.1574 Y19.3114
G01 X35.1541 Y19.3206
G01 X35.1517 Y19.3302
G01 X35.1502 Y19.3399
G01 X35.1497 Y19.3498
G01 X35.1502 Y19.3596
G01 X35.1517 Y19.3694
G01 X35.1541 Y19.3789
G01 X35.1574 Y19.3882
G01 X35.1616 Y19.3971
G01 X35.1667 Y19.4055
G01 X35.1725 Y19.4135
G01 X35.1791 Y19.4208
G01 X35.1864 Y19.4274
G01 X35.1944 Y19.4332
G01 X35.2028 Y19.4383
G01 X35.2117 Y19.4425
G01 X35.2210 Y19.4458
G01 X35.2305 Y19.4482
G01 X35.2403 Y19.4497
G01 X35.2501 Y19.4502
G01 X35.2600 Y19.4497
G01 X35.2697 Y19.4482
G01 X35.2793 Y19.4458
G01 X35.2885 Y19.4425
G01 X35.2974 Y19.4383
G01 X35.3059 Y19.4332
G01 X35.3138 Y19.4274
G01 X35.3211 Y19.4208
G01 X35.3277 Y19.4135
G01 X35.3336 Y19.4055
G01 X35.3386 Y19.3971
G01 X35.3429 Y19.3882
G01 X35.3462 Y19.3789
G01 X35.3486 Y19.3694
G01 X35.3500 Y19.3596
G01 X35.3505 Y19.3498
G00 X35.3505 Y19.3498
G01 F60.00
G01 Z-1.8000
G01 F120.00
G01 X35.3500 Y19.3399
G01 X35.3486 Y19.3302
G01 X35.3462 Y19.3206
G01 X35.3429 Y19.3114
G01 X35.3386 Y19.3025
G01 X35.3336 Y19.2940
G01 X35.3277 Y19.2861
G01 X35.3211 Y19.2788
G01 X35.3138 Y19.2722
G01 X35.3059 Y19.2663
G01 X35.2974 Y19.2613
G01 X35.2885 Y19.2570
G01 X35.2793 Y19.2537
G01 X35.2697 Y19.2513
G01 X35.2600 Y19.2499
G01 X35.2501 Y19.2494
G01 X35.2403 Y19.2499
G01 X35.2305 Y19.2513
G01 X35.2210 Y19.2537
G01 X35.2117 Y19.2570
G01 X35.2028 Y19.2613
G01 X35.1944 Y19.2663
G01 X35.1864 Y19.2722
G01 X35.1791 Y19.2788
G01 X35.1725 Y19.2861
G01 X35.1667 Y19.2940
G01 X35.1616 Y19.3025
G01 X35.1574 Y19.3114
G01 X35.1541 Y19.3206
G01 X35.1517 Y19.3302
G01 X35.1502 Y19.3399
G01 X35.1497 Y19.3498
G01 X35.1502 Y19.3596
G01 X35.1517 Y19.3694
G01 X35.1541 Y19.3789
G01 X35.1574 Y19.3882
G01 X35.1616 Y19.3971
G01 X35.1667 Y19.4055
G01 X35.1725 Y19.4135
G01 X35.1791 Y19.4208
G01 X35.1864 Y19.4274
G01 X35.1944 Y19.4332
G01 X35.2028 Y19.4383
G01 X35.2117 Y19.4425
G01 X35.2210 Y19.4458
G01 X35.2305 Y19.4482
G01 X35.2403 Y19.4497
G01 X35.2501 Y19.4502
G01 X35.2600 Y19.4497
G01 X35.2697 Y19.4482
G01 X35.2793 Y19.4458
G01 X35.2885 Y19.4425
G01 X35.2974 Y19.4383
G01 X35.3059 Y19.4332
G01 X35.3138 Y19.4274
G01 X35.3211 Y19.4208
G01 X35.3277 Y19.4135
G01 X35.3336 Y19.4055
G01 X35.3386 Y19.3971
G01 X35.3429 Y19.3882
G01 X35.3462 Y19.3789
G01 X35.3486 Y19.3694
G01 X35.3500 Y19.3596
G01 X35.3505 Y19.3498
G00 Z2.0000
G00 X40.3492 Y19.3498
G01 F60.00
G01 Z-0.4500
G01 F120.00
G01 X40.3487 Y19.3399
G01 X40.3473 Y19.3302
G01 X40.3449 Y19.3206
G01 X40.3416 Y19.3114
G01 X40.3374 Y19.3025
G01 X40.3323 Y19.2940
G01 X40.3264 Y19.2861
G01 X40.3198 Y19.2788
G01 X40.3125 Y19.2722
G01 X40.3046 Y19.2663
G01 X40.2962 Y19.2613
G01 X40.2873 Y19.2570
G01 X40.2780 Y19.2537
G01 X40.2684 Y19.2513
G01 X40.2587 Y19.2499
G01 X40.2488 Y19.2494
G01 X40.2390 Y19.2499
G01 X40.2293 Y19.2513
G01 X40.2197 Y19.2537
G01 X40.2104 Y19.2570
G01 X40.2015 Y19.2613
G01 X40.1931 Y19.2663
G01 X40.1852 Y19.2722
G01 X40.1779 Y19.2788
G01 X40.1712 Y19.2861
G01 X40.1654 Y19.2940
G01 X40.1603 Y19.3025
G01 X40.1561 Y19.3114
G01 X40.1528 Y19.3206
G01 X40.1504 Y19.3302
G01 X40.1489 Y19.3399
G01 X40.1485 Y19.3498
G01 X40.1489 Y19.3596
G01 X40.1504 Y19.3694
G01 X40.1528 Y19.3789
G01 X40.1561 Y19.3882
G01 X40.1603 Y19.3971
G01 X40.1654 Y19.4055
G01 X40.1712 Y19.4135
G01 X40.1779 Y19.4208
G01 X40.1852 Y19.4274
G01 X40.1931 Y19.4332
G01 X40.2015 Y19.4383
G01 X40.2104 Y19.4425
G01 X40.2197 Y19.4458
G01 X40.2293 Y19.4482
G01 X40.2390 Y19.4497
G01 X40.2488 Y19.4502
G01 X40.2587 Y19.4497
G01 X40.2684 Y19.4482
G01 X40.2780 Y19.4458
G01 X40.2873 Y19.4425
G01 X40.2962 Y19.4383
G01 X40.3046 Y19.4332
G01 X40.3125 Y19.4274
G01 X40.3198 Y19.4208
G01 X40.3264 Y19.4135
G01 X40.3323 Y19.4055
G01 X40.3374 Y19.3971
G01 X40.3416 Y19.3882
G01 X40.3449 Y19.3789
G01 X40.3473 Y19.3694
G01 X40.3487 Y19.3596
G01 X40.3492 Y19.3498
G00 X40.3492 Y19.3498
G01 F60.00
G01 Z-0.9000
G01 F120.00
G01 X40.3487 Y19.3399
G01 X40.3473 Y19.3302
G01 X40.3449 Y19.3206
G01 X40.3416 Y19.3114
G01 X40.3374 Y19.3025
G01 X40.3323 Y19.2940
G01 X40.3264 Y19.2861
G01 X40.3198 Y19.2788
G01 X40.3125 Y19.2722
G01 X40.3046 Y19.2663
G01 X40.2962 Y19.2613
G01 X40.2873 Y19.2570
G01 X40.2780 Y19.2537
G01 X40.2684 Y19.2513
G01 X40.2587 Y19.2499
G01 X40.2488 Y19.2494
G01 X40.2390 Y19.2499
G01 X40.2293 Y19.2513
G01 X40.2197 Y19.2537
G01 X40.2104 Y19.2570
G01 X40.2015 Y19.2613
G01 X40.1931 Y19.2663
G01 X40.1852 Y19.2722
G01 X40.1779 Y19.2788
G01 X40.1712 Y19.2861
G01 X40.1654 Y19.2940
G01 X40.1603 Y19.3025
G01 X40.1561 Y19.3114
G01 X40.1528 Y19.3206
G01 X40.1504 Y19.3302
G01 X40.1489 Y19.3399
G01 X40.1485 Y19.3498
G01 X40.1489 Y19.3596
G01 X40.1504 Y19.3694
G01 X40.1528 Y19.3789
G01 X40.1561 Y19.3882
G01 X40.1603 Y19.3971
G01 X40.1654 Y19.4055
G01 X40.1712 Y19.4135
G01 X40.1779 Y19.4208
G01 X40.1852 Y19.4274
G01 X40.1931 Y19.4332
G01 X40.2015 Y19.4383
G01 X40.2104 Y19.4425
G01 X40.2197 Y19.4458
G01 X40.2293 Y19.4482
G01 X40.2390 Y19.4497
G01 X40.2488 Y19.4502
G01 X40.2587 Y19.4497
G01 X40.2684 Y19.4482
G01 X40.2780 Y19.4458
G01 X40.2873 Y19.4425
G01 X40.2962 Y19.4383
G01 X40.3046 Y19.4332
G01 X40.3125 Y19.4274
G01 X40.3198 Y19.4208
G01 X40.3264 Y19.4135
G01 X40.3323 Y19.4055
G01 X40.3374 Y19.3971
G01 X40.3416 Y19.3882
G01 X40.3449 Y19.3789
G01 X40.3473 Y19.3694
G01 X40.3487 Y19.3596
G01 X40.3492 Y19.3498
G00 X40.3492 Y19.3498
G01 F60.00
G01 Z-1.3500
G01 F120.00
G01 X40.3487 Y19.3399
G01 X40.3473 Y19.3302
G01 X40.3449 Y19.3206
G01 X40.3416 Y19.3114
G01 X40.3374 Y19.3025
G01 X40.3323 Y19.2940
G01 X40.3264 Y19.2861
G01 X40.3198 Y19.2788
G01 X40.3125 Y19.2722
G01 X40.3046 Y19.2663
G01 X40.2962 Y19.2613
G01 X40.2873 Y19.2570
G01 X40.2780 Y19.2537
G01 X40.2684 Y19.2513
G01 X40.2587 Y19.2499
G01 X40.2488 Y19.2494
G01 X40.2390 Y19.2499
G01 X40.2293 Y19.2513
G01 X40.2197 Y19.2537
G01 X40.2104 Y19.2570
G01 X40.2015 Y19.2613
G01 X40.1931 Y19.2663
G01 X40.1852 Y19.2722
G01 X40.1779 Y19.2788
G01 X40.1712 Y19.2861
G01 X40.1654 Y19.2940
G01 X40.1603 Y19.3025
G01 X40.1561 Y19.3114
G01 X40.1528 Y19.3206
G01 X40.1504 Y19.3302
G01 X40.1489 Y19.3399
G01 X40.1485 Y19.3498
G01 X40.1489 Y19.3596
G01 X40.1504 Y19.3694
G01 X40.1528 Y19.3789
G01 X40.1561 Y19.3882
G01 X40.1603 Y19.3971
G01 X40.1654 Y19.4055
G01 X40.1712 Y19.4135
G01 X40.1779 Y19.4208
G01 X40.1852 Y19.4274
G01 X40.1931 Y19.4332
G01 X40.2015 Y19.4383
G01 X40.2104 Y19.4425
G01 X40.2197 Y19.4458
G01 X40.2293 Y19.4482
G01 X40.2390 Y19.4497
G01 X40.2488 Y19.4502
G01 X40.2587 Y19.4497
G01 X40.2684 Y19.4482
G01 X40.2780 Y19.4458
G01 X40.2873 Y19.4425
G01 X40.2962 Y19.4383
G01 X40.3046 Y19.4332
G01 X40.3125 Y19.4274
G01 X40.3198 Y19.4208
G01 X40.3264 Y19.4135
G01 X40.3323 Y19.4055
G01 X40.3374 Y19.3971
G01 X40.3416 Y19.3882
G01 X40.3449 Y19.3789
G01 X40.3473 Y19.3694
G01 X40.3487 Y19.3596
G01 X40.3492 Y19.3498
G00 X40.3492 Y19.3498
G01 F60.00
G01 Z-1.8000
G01 F120.00
G01 X40.3487 Y19.3399
G01 X40.3473 Y19.3302
G01 X40.3449 Y19.3206
G01 X40.3416 Y19.3114
G01 X40.3374 Y19.3025
G01 X40.3323 Y19.2940
G01 X40.3264 Y19.2861
G01 X40.3198 Y19.2788
G01 X40.3125 Y19.2722
G01 X40.3046 Y19.2663
G01 X40.2962 Y19.2613
G01 X40.2873 Y19.2570
G01 X40.2780 Y19.2537
G01 X40.2684 Y19.2513
G01 X40.2587 Y19.2499
G01 X40.2488 Y19.2494
G01 X40.2390 Y19.2499
G01 X40.2293 Y19.2513
G01 X40.2197 Y19.2537
G01 X40.2104 Y19.2570
G01 X40.2015 Y19.2613
G01 X40.1931 Y19.2663
G01 X40.1852 Y19.2722
G01 X40.1779 Y19.2788
G01 X40.1712 Y19.2861
G01 X40.1654 Y19.2940
G01 X40.1603 Y19.3025
G01 X40.1561 Y19.3114
G01 X40.1528 Y19.3206
G01 X40.1504 Y19.3302
G01 X40.1489 Y19.3399
G01 X40.1485 Y19.3498
G01 X40.1489 Y19.3596
G01 X40.1504 Y19.3694
G01 X40.1528 Y19.3789
G01 X40.1561 Y19.3882
G01 X40.1603 Y19.3971
G01 X40.1654 Y19.4055
G01 X40.1712 Y19.4135
G01 X40.1779 Y19.4208
G01 X40.1852 Y19.4274
G01 X40.1931 Y19.4332
G01 X40.2015 Y19.4383
G01 X40.2104 Y19.4425
G01 X40.2197 Y19.4458
G01 X40.2293 Y19.4482
G01 X40.2390 Y19.4497
G01 X40.2488 Y19.4502
G01 X40.2587 Y19.4497
G01 X40.2684 Y19.4482
G01 X40.2780 Y19.4458
G01 X40.2873 Y19.4425
G01 X40.2962 Y19.4383
G01 X40.3046 Y19.4332
G01 X40.3125 Y19.4274
G01 X40.3198 Y19.4208
G01 X40.3264 Y19.4135
G01 X40.3323 Y19.4055
G01 X40.3374 Y19.3971
G01 X40.3416 Y19.3882
G01 X40.3449 Y19.3789
G01 X40.3473 Y19.3694
G01 X40.3487 Y19.3596
G01 X40.3492 Y19.3498
G00 Z2.0000
G00 X44.1516 Y12.2987
G01 F60.00
G01 Z-0.4500
G01 F120.00
G01 X44.1511 Y12.2889
G01 X44.1497 Y12.2792
G01 X44.1473 Y12.2696
G01 X44.1440 Y12.2603
G01 X44.1397 Y12.2514
G01 X44.1347 Y12.2430
G01 X44.1288 Y12.2351
G01 X44.1222 Y12.2278
G01 X44.1149 Y12.2211
G01 X44.1070 Y12.2153
G01 X44.0985 Y12.2102
G01 X44.0896 Y12.2060
G01 X44.0804 Y12.2027
G01 X44.0708 Y12.2003
G01 X44.0611 Y12.1988
G01 X44.0512 Y12.1984
G01 X44.0414 Y12.1988
G01 X44.0316 Y12.2003
G01 X44.0221 Y12.2027
G01 X44.0128 Y12.2060
G01 X44.0039 Y12.2102
G01 X43.9955 Y12.2153
G01 X43.9875 Y12.2211
G01 X43.9802 Y12.2278
G01 X43.9736 Y12.2351
G01 X43.9678 Y12.2430
G01 X43.9627 Y12.2514
G01 X43.9585 Y12.2603
G01 X43.9552 Y12.2696
G01 X43.9528 Y12.2792
G01 X43.9513 Y12.2889
G01 X43.9508 Y12.2987
G01 X43.9513 Y12.3086
G01 X43.9528 Y12.3183
G01 X43.9552 Y12.3279
G01 X43.9585 Y12.3372
G01 X43.9627 Y12.3461
G01 X43.9678 Y12.3545
G01 X43.9736 Y12.3624
G01 X43.9802 Y12.3697
G01 X43.9875 Y12.3763
G01 X43.9955 Y12.3822
G01 X44.0039 Y12.3873
G01 X44.0128 Y12.3915
G01 X44.0221 Y12.3948
G01 X44.0316 Y12.3972
G01 X44.0414 Y12.3986
G01 X44.0512 Y12.3991
G01 X44.0611 Y12.3986
G01 X44.0708 Y12.3972
G01 X44.0804 Y12.3948
G01 X44.0896 Y12.3915
G01 X44.0985 Y12.3873
G01 X44.1070 Y12.3822
G01 X44.1149 Y12.3763
G01 X44.1222 Y12.3697
G01 X44.1288 Y12.3624
G01 X44.1347 Y12.3545
G01 X44.1397 Y12.3461
G01 X44.1440 Y12.3372
G01 X44.1473 Y12.3279
G01 X44.1497 Y12.3183
G01 X44.1511 Y12.3086
G01 X44.1516 Y12.2987
G00 X44.1516 Y12.2987
G01 F60.00
G01 Z-0.9000
G01 F120.00
G01 X44.1511 Y12.2889
G01 X44.1497 Y12.2792
G01 X44.1473 Y12.2696
G01 X44.1440 Y12.2603
G01 X44.1397 Y12.2514
G01 X44.1347 Y12.2430
G01 X44.1288 Y12.2351
G01 X44.1222 Y12.2278
G01 X44.1149 Y12.2211
G01 X44.1070 Y12.2153
G01 X44.0985 Y12.2102
G01 X44.0896 Y12.2060
G01 X44.0804 Y12.2027
G01 X44.0708 Y12.2003
G01 X44.0611 Y12.1988
G01 X44.0512 Y12.1984
G01 X44.0414 Y12.1988
G01 X44.0316 Y12.2003
G01 X44.0221 Y12.2027
G01 X44.0128 Y12.2060
G01 X44.0039 Y12.2102
G01 X43.9955 Y12.2153
G01 X43.9875 Y12.2211
G01 X43.9802 Y12.2278
G01 X43.9736 Y12.2351
G01 X43.9678 Y12.2430
G01 X43.9627 Y12.2514
G01 X43.9585 Y12.2603
G01 X43.9552 Y12.2696
G01 X43.9528 Y12.2792
G01 X43.9513 Y12.2889
G01 X43.9508 Y12.2987
G01 X43.9513 Y12.3086
G01 X43.9528 Y12.3183
G01 X43.9552 Y12.3279
G01 X43.9585 Y12.3372
G01 X43.9627 Y12.3461
G01 X43.9678 Y12.3545
G01 X43.9736 Y12.3624
G01 X43.9802 Y12.3697
G01 X43.9875 Y12.3763
G01 X43.9955 Y12.3822
G01 X44.0039 Y12.3873
G01 X44.0128 Y12.3915
G01 X44.0221 Y12.3948
G01 X44.0316 Y12.3972
G01 X44.0414 Y12.3986
G01 X44.0512 Y12.3991
G01 X44.0611 Y12.3986
G01 X44.0708 Y12.3972
G01 X44.0804 Y12.3948
G01 X44.0896 Y12.3915
G01 X44.0985 Y12.3873
G01 X44.1070 Y12.3822
G01 X44.1149 Y12.3763
G01 X44.1222 Y12.3697
G01 X44.1288 Y12.3624
G01 X44.1347 Y12.3545
G01 X44.1397 Y12.3461
G01 X44.1440 Y12.3372
G01 X44.1473 Y12.3279
G01 X44.1497 Y12.3183
G01 X44.1511 Y12.3086
G01 X44.1516 Y12.2987
G00 X44.1516 Y12.2987
G01 F60.00
G01 Z-1.3500
G01 F120.00
G01 X44.1511 Y12.2889
G01 X44.1497 Y12.2792
G01 X44.1473 Y12.2696
G01 X44.1440 Y12.2603
G01 X44.1397 Y12.2514
G01 X44.1347 Y12.2430
G01 X44.1288 Y12.2351
G01 X44.1222 Y12.2278
G01 X44.1149 Y12.2211
G01 X44.1070 Y12.2153
G01 X44.0985 Y12.2102
G01 X44.0896 Y12.2060
G01 X44.0804 Y12.2027
G01 X44.0708 Y12.2003
G01 X44.0611 Y12.1988
G01 X44.0512 Y12.1984
G01 X44.0414 Y12.1988
G01 X44.0316 Y12.2003
G01 X44.0221 Y12.2027
G01 X44.0128 Y12.2060
G01 X44.0039 Y12.2102
G01 X43.9955 Y12.2153
G01 X43.9875 Y12.2211
G01 X43.9802 Y12.2278
G01 X43.9736 Y12.2351
G01 X43.9678 Y12.2430
G01 X43.9627 Y12.2514
G01 X43.9585 Y12.2603
G01 X43.9552 Y12.2696
G01 X43.9528 Y12.2792
G01 X43.9513 Y12.2889
G01 X43.9508 Y12.2987
G01 X43.9513 Y12.3086
G01 X43.9528 Y12.3183
G01 X43.9552 Y12.3279
G01 X43.9585 Y12.3372
G01 X43.9627 Y12.3461
G01 X43.9678 Y12.3545
G01 X43.9736 Y12.3624
G01 X43.9802 Y12.3697
G01 X43.9875 Y12.3763
G01 X43.9955 Y12.3822
G01 X44.0039 Y12.3873
G01 X44.0128 Y12.3915
G01 X44.0221 Y12.3948
G01 X44.0316 Y12.3972
G01 X44.0414 Y12.3986
G01 X44.0512 Y12.3991
G01 X44.0611 Y12.3986
G01 X44.0708 Y12.3972
G01 X44.0804 Y12.3948
G01 X44.0896 Y12.3915
G01 X44.0985 Y12.3873
G01 X44.1070 Y12.3822
G01 X44.1149 Y12.3763
G01 X44.1222 Y12.3697
G01 X44.1288 Y12.3624
G01 X44.1347 Y12.3545
G01 X44.1397 Y12.3461
G01 X44.1440 Y12.3372
G01 X44.1473 Y12.3279
G01 X44.1497 Y12.3183
G01 X44.1511 Y12.3086
G01 X44.1516 Y12.2987
G00 X44.1516 Y12.2987
G01 F60.00
G01 Z-1.8000
G01 F120.00
G01 X44.1511 Y12.2889
G01 X44.1497 Y12.2792
G01 X44.1473 Y12.2696
G01 X44.1440 Y12.2603
G01 X44.1397 Y12.2514
G01 X44.1347 Y12.2430
G01 X44.1288 Y12.2351
G01 X44.1222 Y12.2278
G01 X44.1149 Y12.2211
G01 X44.1070 Y12.2153
G01 X44.0985 Y12.2102
G01 X44.0896 Y12.2060
G01 X44.0804 Y12.2027
G01 X44.0708 Y12.2003
G01 X44.0611 Y12.1988
G01 X44.0512 Y12.1984
G01 X44.0414 Y12.1988
G01 X44.0316 Y12.2003
G01 X44.0221 Y12.2027
G01 X44.0128 Y12.2060
G01 X44.0039 Y12.2102
G01 X43.9955 Y12.2153
G01 X43.9875 Y12.2211
G01 X43.9802 Y12.2278
G01 X43.9736 Y12.2351
G01 X43.9678 Y12.2430
G01 X43.9627 Y12.2514
G01 X43.9585 Y12.2603
G01 X43.9552 Y12.2696
G01 X43.9528 Y12.2792
G01 X43.9513 Y12.2889
G01 X43.9508 Y12.2987
G01 X43.9513 Y12.3086
G01 X43.9528 Y12.3183
G01 X43.9552 Y12.3279
G01 X43.9585 Y12.3372
G01 X43.9627 Y12.3461
G01 X43.9678 Y12.3545
G01 X43.9736 Y12.3624
G01 X43.9802 Y12.3697
G01 X43.9875 Y12.3763
G01 X43.9955 Y12.3822
G01 X44.0039 Y12.3873
G01 X44.0128 Y12.3915
G01 X44.0221 Y12.3948
G01 X44.0316 Y12.3972
G01 X44.0414 Y12.3986
G01 X44.0512 Y12.3991
G01 X44.0611 Y12.3986
G01 X44.0708 Y12.3972
G01 X44.0804 Y12.3948
G01 X44.0896 Y12.3915
G01 X44.0985 Y12.3873
G01 X44.1070 Y12.3822
G01 X44.1149 Y12.3763
G01 X44.1222 Y12.3697
G01 X44.1288 Y12.3624
G01 X44.1347 Y12.3545
G01 X44.1397 Y12.3461
G01 X44.1440 Y12.3372
G01 X44.1473 Y12.3279
G01 X44.1497 Y12.3183
G01 X44.1511 Y12.3086
G01 X44.1516 Y12.2987
G00 Z2.0000
G00 X49.1503 Y9.7994
G01 F60.00
G01 Z-0.4500
G01 F120.00
G01 X49.1498 Y9.7895
G01 X49.1484 Y9.7798
G01 X49.1460 Y9.7702
G01 X49.1427 Y9.7610
G01 X49.1385 Y9.7521
G01 X49.1334 Y9.7436
G01 X49.1275 Y9.7357
G01 X49.1209 Y9.7284
G01 X49.1136 Y9.7218
G01 X49.1057 Y9.7159
G01 X49.0973 Y9.7109
G01 X49.0884 Y9.7066
G01 X49.0791 Y9.7033
G01 X49.0695 Y9.7009
G01 X49.0598 Y9.6995
G01 X49.0499 Y9.6990
G01 X49.0401 Y9.6995
G01 X49.0304 Y9.7009
G01 X49.0208 Y9.7033
G01 X49.0115 Y9.7066
G01 X49.0026 Y9.7109
G01 X48.9942 Y9.7159
G01 X48.9863 Y9.7218
G01 X48.9790 Y9.7284
G01 X48.9723 Y9.7357
G01 X48.9665 Y9.7436
G01 X48.9614 Y9.7521
G01 X48.9572 Y9.7610
G01 X48.9539 Y9.7702
G01 X48.9515 Y9.7798
G01 X48.9500 Y9.7895
G01 X48.9496 Y9.7994
G01 X48.9500 Y9.8092
G01 X48.9515 Y9.8190
G01 X48.9539 Y9.8285
G01 X48.9572 Y9.8378
G01 X48.9614 Y9.8467
G01 X48.9665 Y9.8551
G01 X48.9723 Y9.8631
G01 X48.9790 Y9.8704
G01 X48.9863 Y9.8770
G01 X48.9942 Y9.8828
G01 X49.0026 Y9.8879
G01 X49.0115 Y9.8921
G01 X49.0208 Y9.8954
G01 X49.0304 Y9.8978
G01 X49.0401 Y9.8993
G01 X49.0499 Y9.8998
G01 X49.0598 Y9.8993
G01 X49.0695 Y9.8978
G01 X49.0791 Y9.8954
G01 X49.0884 Y9.8921
G01 X49.0973 Y9.8879
G01 X49.1057 Y9.8828
G01 X49.1136 Y9.8770
G01 X49.1209 Y9.8704
G01 X49.1275 Y9.8631
G01 X49.1334 Y9.8551
G01 X49.1385 Y9.8467
G01 X49.1427 Y9.8378
G01 X49.1460 Y9.8285
G01 X49.1484 Y9.8190
G01 X49.1498 Y9.8092
G01 X49.1503 Y9.7994
G00 X49.1503 Y9.7994
G01 F60.00
G01 Z-0.9000
G01 F120.00
G01 X49.1498 Y9.7895
G01 X49.1484 Y9.7798
G01 X49.1460 Y9.7702
G01 X49.1427 Y9.7610
G01 X49.1385 Y9.7521
G01 X49.1334 Y9.7436
G01 X49.1275 Y9.7357
G01 X49.1209 Y9.7284
G01 X49.1136 Y9.7218
G01 X49.1057 Y9.7159
G01 X49.0973 Y9.7109
G01 X49.0884 Y9.7066
G01 X49.0791 Y9.7033
G01 X49.0695 Y9.7009
G01 X49.0598 Y9.6995
G01 X49.0499 Y9.6990
G01 X49.0401 Y9.6995
G01 X49.0304 Y9.7009
G01 X49.0208 Y9.7033
G01 X49.0115 Y9.7066
G01 X49.0026 Y9.7109
G01 X48.9942 Y9.7159
G01 X48.9863 Y9.7218
G01 X48.9790 Y9.7284
G01 X48.9723 Y9.7357
G01 X48.9665 Y9.7436
G01 X48.9614 Y9.7521
G01 X48.9572 Y9.7610
G01 X48.9539 Y9.7702
G01 X48.9515 Y9.7798
G01 X48.9500 Y9.7895
G01 X48.9496 Y9.7994
G01 X48.9500 Y9.8092
G01 X48.9515 Y9.8190
G01 X48.9539 Y9.8285
G01 X48.9572 Y9.8378
G01 X48.9614 Y9.8467
G01 X48.9665 Y9.8551
G01 X48.9723 Y9.8631
G01 X48.9790 Y9.8704
G01 X48.9863 Y9.8770
G01 X48.9942 Y9.8828
G01 X49.0026 Y9.8879
G01 X49.0115 Y9.8921
G01 X49.0208 Y9.8954
G01 X49.0304 Y9.8978
G01 X49.0401 Y9.8993
G01 X49.0499 Y9.8998
G01 X49.0598 Y9.8993
G01 X49.0695 Y9.8978
G01 X49.0791 Y9.8954
G01 X49.0884 Y9.8921
G01 X49.0973 Y9.8879
G01 X49.1057 Y9.8828
G01 X49.1136 Y9.8770
G01 X49.1209 Y9.8704
G01 X49.1275 Y9.8631
G01 X49.1334 Y9.8551
G01 X49.1385 Y9.8467
G01 X49.1427 Y9.8378
G01 X49.1460 Y9.8285
G01 X49.1484 Y9.8190
G01 X49.1498 Y9.8092
G01 X49.1503 Y9.7994
G00 X49.1503 Y9.7994
G01 F60.00
G01 Z-1.3500
G01 F120.00
G01 X49.1498 Y9.7895
G01 X49.1484 Y9.7798
G01 X49.1460 Y9.7702
G01 X49.1427 Y9.7610
G01 X49.1385 Y9.7521
G01 X49.1334 Y9.7436
G01 X49.1275 Y9.7357
G01 X49.1209 Y9.7284
G01 X49.1136 Y9.7218
G01 X49.1057 Y9.7159
G01 X49.0973 Y9.7109
G01 X49.0884 Y9.7066
G01 X49.0791 Y9.7033
G01 X49.0695 Y9.7009
G01 X49.0598 Y9.6995
G01 X49.0499 Y9.6990
G01 X49.0401 Y9.6995
G01 X49.0304 Y9.7009
G01 X49.0208 Y9.7033
G01 X49.0115 Y9.7066
G01 X49.0026 Y9.7109
G01 X48.9942 Y9.7159
G01 X48.9863 Y9.7218
G01 X48.9790 Y9.7284
G01 X48.9723 Y9.7357
G01 X48.9665 Y9.7436
G01 X48.9614 Y9.7521
G01 X48.9572 Y9.7610
G01 X48.9539 Y9.7702
G01 X48.9515 Y9.7798
G01 X48.9500 Y9.7895
G01 X48.9496 Y9.7994
G01 X48.9500 Y9.8092
G01 X48.9515 Y9.8190
G01 X48.9539 Y9.8285
G01 X48.9572 Y9.8378
G01 X48.9614 Y9.8467
G01 X48.9665 Y9.8551
G01 X48.9723 Y9.8631
G01 X48.9790 Y9.8704
G01 X48.9863 Y9.8770
G01 X48.9942 Y9.8828
G01 X49.0026 Y9.8879
G01 X49.0115 Y9.8921
G01 X49.0208 Y9.8954
G01 X49.0304 Y9.8978
G01 X49.0401 Y9.8993
G01 X49.0499 Y9.8998
G01 X49.0598 Y9.8993
G01 X49.0695 Y9.8978
G01 X49.0791 Y9.8954
G01 X49.0884 Y9.8921
G01 X49.0973 Y9.8879
G01 X49.1057 Y9.8828
G01 X49.1136 Y9.8770
G01 X49.1209 Y9.8704
G01 X49.1275 Y9.8631
G01 X49.1334 Y9.8551
G01 X49.1385 Y9.8467
G01 X49.1427 Y9.8378
G01 X49.1460 Y9.8285
G01 X49.1484 Y9.8190
G01 X49.1498 Y9.8092
G01 X49.1503 Y9.7994
G00 X49.1503 Y9.7994
G01 F60.00
G01 Z-1.8000
G01 F120.00
G01 X49.1498 Y9.7895
G01 X49.1484 Y9.7798
G01 X49.1460 Y9.7702
G01 X49.1427 Y9.7610
G01 X49.1385 Y9.7521
G01 X49.1334 Y9.7436
G01 X49.1275 Y9.7357
G01 X49.1209 Y9.7284
G01 X49.1136 Y9.7218
G01 X49.1057 Y9.7159
G01 X49.0973 Y9.7109
G01 X49.0884 Y9.7066
G01 X49.0791 Y9.7033
G01 X49.0695 Y9.7009
G01 X49.0598 Y9.6995
G01 X49.0499 Y9.6990
G01 X49.0401 Y9.6995
G01 X49.0304 Y9.7009
G01 X49.0208 Y9.7033
G01 X49.0115 Y9.7066
G01 X49.0026 Y9.7109
G01 X48.9942 Y9.7159
G01 X48.9863 Y9.7218
G01 X48.9790 Y9.7284
G01 X48.9723 Y9.7357
G01 X48.9665 Y9.7436
G01 X48.9614 Y9.7521
G01 X48.9572 Y9.7610
G01 X48.9539 Y9.7702
G01 X48.9515 Y9.7798
G01 X48.9500 Y9.7895
G01 X48.9496 Y9.7994
G01 X48.9500 Y9.8092
G01 X48.9515 Y9.8190
G01 X48.9539 Y9.8285
G01 X48.9572 Y9.8378
G01 X48.9614 Y9.8467
G01 X48.9665 Y9.8551
G01 X48.9723 Y9.8631
G01 X48.9790 Y9.8704
G01 X48.9863 Y9.8770
G01 X48.9942 Y9.8828
G01 X49.0026 Y9.8879
G01 X49.0115 Y9.8921
G01 X49.0208 Y9.8954
G01 X49.0304 Y9.8978
G01 X49.0401 Y9.8993
G01 X49.0499 Y9.8998
G01 X49.0598 Y9.8993
G01 X49.0695 Y9.8978
G01 X49.0791 Y9.8954
G01 X49.0884 Y9.8921
G01 X49.0973 Y9.8879
G01 X49.1057 Y9.8828
G01 X49.1136 Y9.8770
G01 X49.1209 Y9.8704
G01 X49.1275 Y9.8631
G01 X49.1334 Y9.8551
G01 X49.1385 Y9.8467
G01 X49.1427 Y9.8378
G01 X49.1460 Y9.8285
G01 X49.1484 Y9.8190
G01 X49.1498 Y9.8092
G01 X49.1503 Y9.7994
G00 Z2.0000
G00 X49.1503 Y14.8006
G01 F60.00
G01 Z-0.4500
G01 F120.00
G01 X49.1498 Y14.7908
G01 X49.1484 Y14.7811
G01 X49.1460 Y14.7715
G01 X49.1427 Y14.7622
G01 X49.1385 Y14.7533
G01 X49.1334 Y14.7449
G01 X49.1275 Y14.7370
G01 X49.1209 Y14.7297
G01 X49.1136 Y14.7230
G01 X49.1057 Y14.7172
G01 X49.0973 Y14.7121
G01 X49.0884 Y14.7079
G01 X49.0791 Y14.7046
G01 X49.0695 Y14.7022
G01 X49.0598 Y14.7007
G01 X49.0499 Y14.7003
G01 X49.0401 Y14.7007
G01 X49.0304 Y14.7022
G01 X49.0208 Y14.7046
G01 X49.0115 Y14.7079
G01 X49.0026 Y14.7121
G01 X48.9942 Y14.7172
G01 X48.9863 Y14.7230
G01 X48.9790 Y14.7297
G01 X48.9723 Y14.7370
G01 X48.9665 Y14.7449
G01 X48.9614 Y14.7533
G01 X48.9572 Y14.7622
G01 X48.9539 Y14.7715
G01 X48.9515 Y14.7811
G01 X48.9500 Y14.7908
G01 X48.9496 Y14.8006
G01 X48.9500 Y14.8105
G01 X48.9515 Y14.8202
G01 X48.9539 Y14.8298
G01 X48.9572 Y14.8391
G01 X48.9614 Y14.8480
G01 X48.9665 Y14.8564
G01 X48.9723 Y14.8643
G01 X48.9790 Y14.8716
G01 X48.9863 Y14.8782
G01 X48.9942 Y14.8841
G01 X49.0026 Y14.8892
G01 X49.0115 Y14.8934
G01 X49.0208 Y14.8967
G01 X49.0304 Y14.8991
G01 X49.0401 Y14.9005
G01 X49.0499 Y14.9010
G01 X49.0598 Y14.9005
G01 X49.0695 Y14.8991
G01 X49.0791 Y14.8967
G01 X49.0884 Y14.8934
G01 X49.0973 Y14.8892
G01 X49.1057 Y14.8841
G01 X49.1136 Y14.8782
G01 X49.1209 Y14.8716
G01 X49.1275 Y14.8643
G01 X49.1334 Y14.8564
G01 X49.1385 Y14.8480
G01 X49.1427 Y14.8391
G01 X49.1460 Y14.8298
G01 X49.1484 Y14.8202
G01 X49.1498 Y14.8105
G01 X49.1503 Y14.8006
G00 X49.1503 Y14.8006
G01 F60.00
G01 Z-0.9000
G01 F120.00
G01 X49.1498 Y14.7908
G01 X49.1484 Y14.7811
G01 X49.1460 Y14.7715
G01 X49.1427 Y14.7622
G01 X49.1385 Y14.7533
G01 X49.1334 Y14.7449
G01 X49.1275 Y14.7370
G01 X49.1209 Y14.7297
G01 X49.1136 Y14.7230
G01 X49.1057 Y14.7172
G01 X49.0973 Y14.7121
G01 X49.0884 Y14.7079
G01 X49.0791 Y14.7046
G01 X49.0695 Y14.7022
G01 X49.0598 Y14.7007
G01 X49.0499 Y14.7003
G01 X49.0401 Y14.7007
G01 X49.0304 Y14.7022
G01 X49.0208 Y14.7046
G01 X49.0115 Y14.7079
G01 X49.0026 Y14.7121
G01 X48.9942 Y14.7172
G01 X48.9863 Y14.7230
G01 X48.9790 Y14.7297
G01 X48.9723 Y14.7370
G01 X48.9665 Y14.7449
G01 X48.9614 Y14.7533
G01 X48.9572 Y14.7622
G01 X48.9539 Y14.7715
G01 X48.9515 Y14.7811
G01 X48.9500 Y14.7908
G01 X48.9496 Y14.8006
G01 X48.9500 Y14.8105
G01 X48.9515 Y14.8202
G01 X48.9539 Y14.8298
G01 X48.9572 Y14.8391
G01 X48.9614 Y14.8480
G01 X48.9665 Y14.8564
G01 X48.9723 Y14.8643
G01 X48.9790 Y14.8716
G01 X48.9863 Y14.8782
G01 X48.9942 Y14.8841
G01 X49.0026 Y14.8892
G01 X49.0115 Y14.8934
G01 X49.0208 Y14.8967
G01 X49.0304 Y14.8991
G01 X49.0401 Y14.9005
G01 X49.0499 Y14.9010
G01 X49.0598 Y14.9005
G01 X49.0695 Y14.8991
G01 X49.0791 Y14.8967
G01 X49.0884 Y14.8934
G01 X49.0973 Y14.8892
G01 X49.1057 Y14.8841
G01 X49.1136 Y14.8782
G01 X49.1209 Y14.8716
G01 X49.1275 Y14.8643
G01 X49.1334 Y14.8564
G01 X49.1385 Y14.8480
G01 X49.1427 Y14.8391
G01 X49.1460 Y14.8298
G01 X49.1484 Y14.8202
G01 X49.1498 Y14.8105
G01 X49.1503 Y14.8006
G00 X49.1503 Y14.8006
G01 F60.00
G01 Z-1.3500
G01 F120.00
G01 X49.1498 Y14.7908
G01 X49.1484 Y14.7811
G01 X49.1460 Y14.7715
G01 X49.1427 Y14.7622
G01 X49.1385 Y14.7533
G01 X49.1334 Y14.7449
G01 X49.1275 Y14.7370
G01 X49.1209 Y14.7297
G01 X49.1136 Y14.7230
G01 X49.1057 Y14.7172
G01 X49.0973 Y14.7121
G01 X49.0884 Y14.7079
G01 X49.0791 Y14.7046
G01 X49.0695 Y14.7022
G01 X49.0598 Y14.7007
G01 X49.0499 Y14.7003
G01 X49.0401 Y14.7007
G01 X49.0304 Y14.7022
G01 X49.0208 Y14.7046
G01 X49.0115 Y14.7079
G01 X49.0026 Y14.7121
G01 X48.9942 Y14.7172
G01 X48.9863 Y14.7230
G01 X48.9790 Y14.7297
G01 X48.9723 Y14.7370
G01 X48.9665 Y14.7449
G01 X48.9614 Y14.7533
G01 X48.9572 Y14.7622
G01 X48.9539 Y14.7715
G01 X48.9515 Y14.7811
G01 X48.9500 Y14.7908
G01 X48.9496 Y14.8006
G01 X48.9500 Y14.8105
G01 X48.9515 Y14.8202
G01 X48.9539 Y14.8298
G01 X48.9572 Y14.8391
G01 X48.9614 Y14.8480
G01 X48.9665 Y14.8564
G01 X48.9723 Y14.8643
G01 X48.9790 Y14.8716
G01 X48.9863 Y14.8782
G01 X48.9942 Y14.8841
G01 X49.0026 Y14.8892
G01 X49.0115 Y14.8934
G01 X49.0208 Y14.8967
G01 X49.0304 Y14.8991
G01 X49.0401 Y14.9005
G01 X49.0499 Y14.9010
G01 X49.0598 Y14.9005
G01 X49.0695 Y14.8991
G01 X49.0791 Y14.8967
G01 X49.0884 Y14.8934
G01 X49.0973 Y14.8892
G01 X49.1057 Y14.8841
G01 X49.1136 Y14.8782
G01 X49.1209 Y14.8716
G01 X49.1275 Y14.8643
G01 X49.1334 Y14.8564
G01 X49.1385 Y14.8480
G01 X49.1427 Y14.8391
G01 X49.1460 Y14.8298
G01 X49.1484 Y14.8202
G01 X49.1498 Y14.8105
G01 X49.1503 Y14.8006
G00 X49.1503 Y14.8006
G01 F60.00
G01 Z-1.8000
G01 F120.00
G01 X49.1498 Y14.7908
G01 X49.1484 Y14.7811
G01 X49.1460 Y14.7715
G01 X49.1427 Y14.7622
G01 X49.1385 Y14.7533
G01 X49.1334 Y14.7449
G01 X49.1275 Y14.7370
G01 X49.1209 Y14.7297
G01 X49.1136 Y14.7230
G01 X49.1057 Y14.7172
G01 X49.0973 Y14.7121
G01 X49.0884 Y14.7079
G01 X49.0791 Y14.7046
G01 X49.0695 Y14.7022
G01 X49.0598 Y14.7007
G01 X49.0499 Y14.7003
G01 X49.0401 Y14.7007
G01 X49.0304 Y14.7022
G01 X49.0208 Y14.7046
G01 X49.0115 Y14.7079
G01 X49.0026 Y14.7121
G01 X48.9942 Y14.7172
G01 X48.9863 Y14.7230
G01 X48.9790 Y14.7297
G01 X48.9723 Y14.7370
G01 X48.9665 Y14.7449
G01 X48.9614 Y14.7533
G01 X48.9572 Y14.7622
G01 X48.9539 Y14.7715
G01 X48.9515 Y14.7811
G01 X48.9500 Y14.7908
G01 X48.9496 Y14.8006
G01 X48.9500 Y14.8105
G01 X48.9515 Y14.8202
G01 X48.9539 Y14.8298
G01 X48.9572 Y14.8391
G01 X48.9614 Y14.8480
G01 X48.9665 Y14.8564
G01 X48.9723 Y14.8643
G01 X48.9790 Y14.8716
G01 X48.9863 Y14.8782
G01 X48.9942 Y14.8841
G01 X49.0026 Y14.8892
G01 X49.0115 Y14.8934
G01 X49.0208 Y14.8967
G01 X49.0304 Y14.8991
G01 X49.0401 Y14.9005
G01 X49.0499 Y14.9010
G01 X49.0598 Y14.9005
G01 X49.0695 Y14.8991
G01 X49.0791 Y14.8967
G01 X49.0884 Y14.8934
G01 X49.0973 Y14.8892
G01 X49.1057 Y14.8841
G01 X49.1136 Y14.8782
G01 X49.1209 Y14.8716
G01 X49.1275 Y14.8643
G01 X49.1334 Y14.8564
G01 X49.1385 Y14.8480
G01 X49.1427 Y14.8391
G01 X49.1460 Y14.8298
G01 X49.1484 Y14.8202
G01 X49.1498 Y14.8105
G01 X49.1503 Y14.8006
G00 Z2.0000
G00 X47.6009 Y23.2995
G01 F60.00
G01 Z-0.4500
G01 F120.00
G01 X47.6004 Y23.2896
G01 X47.5990 Y23.2799
G01 X47.5966 Y23.2703
G01 X47.5933 Y23.2611
G01 X47.5891 Y23.2522
G01 X47.5840 Y23.2437
G01 X47.5781 Y23.2358
G01 X47.5715 Y23.2285
G01 X47.5642 Y23.2219
G01 X47.5563 Y23.2160
G01 X47.5479 Y23.2110
G01 X47.5390 Y23.2067
G01 X47.5297 Y23.2034
G01 X47.5201 Y23.2010
G01 X47.5104 Y23.1996
G01 X47.5005 Y23.1991
G01 X47.4907 Y23.1996
G01 X47.4810 Y23.2010
G01 X47.4714 Y23.2034
G01 X47.4621 Y23.2067
G01 X47.4532 Y23.2110
G01 X47.4448 Y23.2160
G01 X47.4369 Y23.2219
G01 X47.4296 Y23.2285
G01 X47.4229 Y23.2358
G01 X47.4171 Y23.2437
G01 X47.4120 Y23.2522
G01 X47.4078 Y23.2611
G01 X47.4045 Y23.2703
G01 X47.4021 Y23.2799
G01 X47.4006 Y23.2896
G01 X47.4002 Y23.2995
G01 X47.4006 Y23.3093
G01 X47.4021 Y23.3191
G01 X47.4045 Y23.3286
G01 X47.4078 Y23.3379
G01 X47.4120 Y23.3468
G01 X47.4171 Y23.3552
G01 X47.4229 Y23.3632
G01 X47.4296 Y23.3705
G01 X47.4369 Y23.3771
G01 X47.4448 Y23.3829
G01 X47.4532 Y23.3880
G01 X47.4621 Y23.3922
G01 X47.4714 Y23.3955
G01 X47.4810 Y23.3979
G01 X47.4907 Y23.3994
G01 X47.5005 Y23.3999
G01 X47.5104 Y23.3994
G01 X47.5201 Y23.3979
G01 X47.5297 Y23.3955
G01 X47.5390 Y23.3922
G01 X47.5479 Y23.3880
G01 X47.5563 Y23.3829
G01 X47.5642 Y23.3771
G01 X47.5715 Y23.3705
G01 X47.5781 Y23.3632
G01 X47.5840 Y23.3552
G01 X47.5891 Y23.3468
G01 X47.5933 Y23.3379
G01 X47.5966 Y23.3286
G01 X47.5990 Y23.3191
G01 X47.6004 Y23.3093
G01 X47.6009 Y23.2995
G00 X47.6009 Y23.2995
G01 F60.00
G01 Z-0.9000
G01 F120.00
G01 X47.6004 Y23.2896
G01 X47.5990 Y23.2799
G01 X47.5966 Y23.2703
G01 X47.5933 Y23.2611
G01 X47.5891 Y23.2522
G01 X47.5840 Y23.2437
G01 X47.5781 Y23.2358
G01 X47.5715 Y23.2285
G01 X47.5642 Y23.2219
G01 X47.5563 Y23.2160
G01 X47.5479 Y23.2110
G01 X47.5390 Y23.2067
G01 X47.5297 Y23.2034
G01 X47.5201 Y23.2010
G01 X47.5104 Y23.1996
G01 X47.5005 Y23.1991
G01 X47.4907 Y23.1996
G01 X47.4810 Y23.2010
G01 X47.4714 Y23.2034
G01 X47.4621 Y23.2067
G01 X47.4532 Y23.2110
G01 X47.4448 Y23.2160
G01 X47.4369 Y23.2219
G01 X47.4296 Y23.2285
G01 X47.4229 Y23.2358
G01 X47.4171 Y23.2437
G01 X47.4120 Y23.2522
G01 X47.4078 Y23.2611
G01 X47.4045 Y23.2703
G01 X47.4021 Y23.2799
G01 X47.4006 Y23.2896
G01 X47.4002 Y23.2995
G01 X47.4006 Y23.3093
G01 X47.4021 Y23.3191
G01 X47.4045 Y23.3286
G01 X47.4078 Y23.3379
G01 X47.4120 Y23.3468
G01 X47.4171 Y23.3552
G01 X47.4229 Y23.3632
G01 X47.4296 Y23.3705
G01 X47.4369 Y23.3771
G01 X47.4448 Y23.3829
G01 X47.4532 Y23.3880
G01 X47.4621 Y23.3922
G01 X47.4714 Y23.3955
G01 X47.4810 Y23.3979
G01 X47.4907 Y23.3994
G01 X47.5005 Y23.3999
G01 X47.5104 Y23.3994
G01 X47.5201 Y23.3979
G01 X47.5297 Y23.3955
G01 X47.5390 Y23.3922
G01 X47.5479 Y23.3880
G01 X47.5563 Y23.3829
G01 X47.5642 Y23.3771
G01 X47.5715 Y23.3705
G01 X47.5781 Y23.3632
G01 X47.5840 Y23.3552
G01 X47.5891 Y23.3468
G01 X47.5933 Y23.3379
G01 X47.5966 Y23.3286
G01 X47.5990 Y23.3191
G01 X47.6004 Y23.3093
G01 X47.6009 Y23.2995
G00 X47.6009 Y23.2995
G01 F60.00
G01 Z-1.3500
G01 F120.00
G01 X47.6004 Y23.2896
G01 X47.5990 Y23.2799
G01 X47.5966 Y23.2703
G01 X47.5933 Y23.2611
G01 X47.5891 Y23.2522
G01 X47.5840 Y23.2437
G01 X47.5781 Y23.2358
G01 X47.5715 Y23.2285
G01 X47.5642 Y23.2219
G01 X47.5563 Y23.2160
G01 X47.5479 Y23.2110
G01 X47.5390 Y23.2067
G01 X47.5297 Y23.2034
G01 X47.5201 Y23.2010
G01 X47.5104 Y23.1996
G01 X47.5005 Y23.1991
G01 X47.4907 Y23.1996
G01 X47.4810 Y23.2010
G01 X47.4714 Y23.2034
G01 X47.4621 Y23.2067
G01 X47.4532 Y23.2110
G01 X47.4448 Y23.2160
G01 X47.4369 Y23.2219
G01 X47.4296 Y23.2285
G01 X47.4229 Y23.2358
G01 X47.4171 Y23.2437
G01 X47.4120 Y23.2522
G01 X47.4078 Y23.2611
G01 X47.4045 Y23.2703
G01 X47.4021 Y23.2799
G01 X47.4006 Y23.2896
G01 X47.4002 Y23.2995
G01 X47.4006 Y23.3093
G01 X47.4021 Y23.3191
G01 X47.4045 Y23.3286
G01 X47.4078 Y23.3379
G01 X47.4120 Y23.3468
G01 X47.4171 Y23.3552
G01 X47.4229 Y23.3632
G01 X47.4296 Y23.3705
G01 X47.4369 Y23.3771
G01 X47.4448 Y23.3829
G01 X47.4532 Y23.3880
G01 X47.4621 Y23.3922
G01 X47.4714 Y23.3955
G01 X47.4810 Y23.3979
G01 X47.4907 Y23.3994
G01 X47.5005 Y23.3999
G01 X47.5104 Y23.3994
G01 X47.5201 Y23.3979
G01 X47.5297 Y23.3955
G01 X47.5390 Y23.3922
G01 X47.5479 Y23.3880
G01 X47.5563 Y23.3829
G01 X47.5642 Y23.3771
G01 X47.5715 Y23.3705
G01 X47.5781 Y23.3632
G01 X47.5840 Y23.3552
G01 X47.5891 Y23.3468
G01 X47.5933 Y23.3379
G01 X47.5966 Y23.3286
G01 X47.5990 Y23.3191
G01 X47.6004 Y23.3093
G01 X47.6009 Y23.2995
G00 X47.6009 Y23.2995
G01 F60.00
G01 Z-1.8000
G01 F120.00
G01 X47.6004 Y23.2896
G01 X47.5990 Y23.2799
G01 X47.5966 Y23.2703
G01 X47.5933 Y23.2611
G01 X47.5891 Y23.2522
G01 X47.5840 Y23.2437
G01 X47.5781 Y23.2358
G01 X47.5715 Y23.2285
G01 X47.5642 Y23.2219
G01 X47.5563 Y23.2160
G01 X47.5479 Y23.2110
G01 X47.5390 Y23.2067
G01 X47.5297 Y23.2034
G01 X47.5201 Y23.2010
G01 X47.5104 Y23.1996
G01 X47.5005 Y23.1991
G01 X47.4907 Y23.1996
G01 X47.4810 Y23.2010
G01 X47.4714 Y23.2034
G01 X47.4621 Y23.2067
G01 X47.4532 Y23.2110
G01 X47.4448 Y23.2160
G01 X47.4369 Y23.2219
G01 X47.4296 Y23.2285
G01 X47.4229 Y23.2358
G01 X47.4171 Y23.2437
G01 X47.4120 Y23.2522
G01 X47.4078 Y23.2611
G01 X47.4045 Y23.2703
G01 X47.4021 Y23.2799
G01 X47.4006 Y23.2896
G01 X47.4002 Y23.2995
G01 X47.4006 Y23.3093
G01 X47.4021 Y23.3191
G01 X47.4045 Y23.3286
G01 X47.4078 Y23.3379
G01 X47.4120 Y23.3468
G01 X47.4171 Y23.3552
G01 X47.4229 Y23.3632
G01 X47.4296 Y23.3705
G01 X47.4369 Y23.3771
G01 X47.4448 Y23.3829
G01 X47.4532 Y23.3880
G01 X47.4621 Y23.3922
G01 X47.4714 Y23.3955
G01 X47.4810 Y23.3979
G01 X47.4907 Y23.3994
G01 X47.5005 Y23.3999
G01 X47.5104 Y23.3994
G01 X47.5201 Y23.3979
G01 X47.5297 Y23.3955
G01 X47.5390 Y23.3922
G01 X47.5479 Y23.3880
G01 X47.5563 Y23.3829
G01 X47.5642 Y23.3771
G01 X47.5715 Y23.3705
G01 X47.5781 Y23.3632
G01 X47.5840 Y23.3552
G01 X47.5891 Y23.3468
G01 X47.5933 Y23.3379
G01 X47.5966 Y23.3286
G01 X47.5990 Y23.3191
G01 X47.6004 Y23.3093
G01 X47.6009 Y23.2995
G00 Z2.0000
G00 X47.6009 Y25.7988
G01 F60.00
G01 Z-0.4500
G01 F120.00
G01 X47.6004 Y25.7890
G01 X47.5990 Y25.7793
G01 X47.5966 Y25.7697
G01 X47.5933 Y25.7604
G01 X47.5891 Y25.7515
G01 X47.5840 Y25.7431
G01 X47.5781 Y25.7352
G01 X47.5715 Y25.7279
G01 X47.5642 Y25.7212
G01 X47.5563 Y25.7154
G01 X47.5479 Y25.7103
G01 X47.5390 Y25.7061
G01 X47.5297 Y25.7028
G01 X47.5201 Y25.7004
G01 X47.5104 Y25.6989
G01 X47.5005 Y25.6985
G01 X47.4907 Y25.6989
G01 X47.4810 Y25.7004
G01 X47.4714 Y25.7028
G01 X47.4621 Y25.7061
G01 X47.4532 Y25.7103
G01 X47.4448 Y25.7154
G01 X47.4369 Y25.7212
G01 X47.4296 Y25.7279
G01 X47.4229 Y25.7352
G01 X47.4171 Y25.7431
G01 X47.4120 Y25.7515
G01 X47.4078 Y25.7604
G01 X47.4045 Y25.7697
G01 X47.4021 Y25.7793
G01 X47.4006 Y25.7890
G01 X47.4002 Y25.7988
G01 X47.4006 Y25.8087
G01 X47.4021 Y25.8184
G01 X47.4045 Y25.8280
G01 X47.4078 Y25.8373
G01 X47.4120 Y25.8462
G01 X47.4171 Y25.8546
G01 X47.4229 Y25.8625
G01 X47.4296 Y25.8698
G01 X47.4369 Y25.8764
G01 X47.4448 Y25.8823
G01 X47.4532 Y25.8874
G01 X47.4621 Y25.8916
G01 X47.4714 Y25.8949
G01 X47.4810 Y25.8973
G01 X47.4907 Y25.8987
G01 X47.5005 Y25.8992
G01 X47.5104 Y25.8987
G01 X47.5201 Y25.8973
G01 X47.5297 Y25.8949
G01 X47.5390 Y25.8916
G01 X47.5479 Y25.8874
G01 X47.5563 Y25.8823
G01 X47.5642 Y25.8764
G01 X47.5715 Y25.8698
G01 X47.5781 Y25.8625
G01 X47.5840 Y25.8546
G01 X47.5891 Y25.8462
G01 X47.5933 Y25.8373
G01 X47.5966 Y25.8280
G01 X47.5990 Y25.8184
G01 X47.6004 Y25.8087
G01 X47.6009 Y25.7988
G00 X47.6009 Y25.7988
G01 F60.00
G01 Z-0.9000
G01 F120.00
G01 X47.6004 Y25.7890
G01 X47.5990 Y25.7793
G01 X47.5966 Y25.7697
G01 X47.5933 Y25.7604
G01 X47.5891 Y25.7515
G01 X47.5840 Y25.7431
G01 X47.5781 Y25.7352
G01 X47.5715 Y25.7279
G01 X47.5642 Y25.7212
G01 X47.5563 Y25.7154
G01 X47.5479 Y25.7103
G01 X47.5390 Y25.7061
G01 X47.5297 Y25.7028
G01 X47.5201 Y25.7004
G01 X47.5104 Y25.6989
G01 X47.5005 Y25.6985
G01 X47.4907 Y25.6989
G01 X47.4810 Y25.7004
G01 X47.4714 Y25.7028
G01 X47.4621 Y25.7061
G01 X47.4532 Y25.7103
G01 X47.4448 Y25.7154
G01 X47.4369 Y25.7212
G01 X47.4296 Y25.7279
G01 X47.4229 Y25.7352
G01 X47.4171 Y25.7431
G01 X47.4120 Y25.7515
G01 X47.4078 Y25.7604
G01 X47.4045 Y25.7697
G01 X47.4021 Y25.7793
G01 X47.4006 Y25.7890
G01 X47.4002 Y25.7988
G01 X47.4006 Y25.8087
G01 X47.4021 Y25.8184
G01 X47.4045 Y25.8280
G01 X47.4078 Y25.8373
G01 X47.4120 Y25.8462
G01 X47.4171 Y25.8546
G01 X47.4229 Y25.8625
G01 X47.4296 Y25.8698
G01 X47.4369 Y25.8764
G01 X47.4448 Y25.8823
G01 X47.4532 Y25.8874
G01 X47.4621 Y25.8916
G01 X47.4714 Y25.8949
G01 X47.4810 Y25.8973
G01 X47.4907 Y25.8987
G01 X47.5005 Y25.8992
G01 X47.5104 Y25.8987
G01 X47.5201 Y25.8973
G01 X47.5297 Y25.8949
G01 X47.5390 Y25.8916
G01 X47.5479 Y25.8874
G01 X47.5563 Y25.8823
G01 X47.5642 Y25.8764
G01 X47.5715 Y25.8698
G01 X47.5781 Y25.8625
G01 X47.5840 Y25.8546
G01 X47.5891 Y25.8462
G01 X47.5933 Y25.8373
G01 X47.5966 Y25.8280
G01 X47.5990 Y25.8184
G01 X47.6004 Y25.8087
G01 X47.6009 Y25.7988
G00 X47.6009 Y25.7988
G01 F60.00
G01 Z-1.3500
G01 F120.00
G01 X47.6004 Y25.7890
G01 X47.5990 Y25.7793
G01 X47.5966 Y25.7697
G01 X47.5933 Y25.7604
G01 X47.5891 Y25.7515
G01 X47.5840 Y25.7431
G01 X47.5781 Y25.7352
G01 X47.5715 Y25.7279
G01 X47.5642 Y25.7212
G01 X47.5563 Y25.7154
G01 X47.5479 Y25.7103
G01 X47.5390 Y25.7061
G01 X47.5297 Y25.7028
G01 X47.5201 Y25.7004
G01 X47.5104 Y25.6989
G01 X47.5005 Y25.6985
G01 X47.4907 Y25.6989
G01 X47.4810 Y25.7004
G01 X47.4714 Y25.7028
G01 X47.4621 Y25.7061
G01 X47.4532 Y25.7103
G01 X47.4448 Y25.7154
G01 X47.4369 Y25.7212
G01 X47.4296 Y25.7279
G01 X47.4229 Y25.7352
G01 X47.4171 Y25.7431
G01 X47.4120 Y25.7515
G01 X47.4078 Y25.7604
G01 X47.4045 Y25.7697
G01 X47.4021 Y25.7793
G01 X47.4006 Y25.7890
G01 X47.4002 Y25.7988
G01 X47.4006 Y25.8087
G01 X47.4021 Y25.8184
G01 X47.4045 Y25.8280
G01 X47.4078 Y25.8373
G01 X47.4120 Y25.8462
G01 X47.4171 Y25.8546
G01 X47.4229 Y25.8625
G01 X47.4296 Y25.8698
G01 X47.4369 Y25.8764
G01 X47.4448 Y25.8823
G01 X47.4532 Y25.8874
G01 X47.4621 Y25.8916
G01 X47.4714 Y25.8949
G01 X47.4810 Y25.8973
G01 X47.4907 Y25.8987
G01 X47.5005 Y25.8992
G01 X47.5104 Y25.8987
G01 X47.5201 Y25.8973
G01 X47.5297 Y25.8949
G01 X47.5390 Y25.8916
G01 X47.5479 Y25.8874
G01 X47.5563 Y25.8823
G01 X47.5642 Y25.8764
G01 X47.5715 Y25.8698
G01 X47.5781 Y25.8625
G01 X47.5840 Y25.8546
G01 X47.5891 Y25.8462
G01 X47.5933 Y25.8373
G01 X47.5966 Y25.8280
G01 X47.5990 Y25.8184
G01 X47.6004 Y25.8087
G01 X47.6009 Y25.7988
G00 X47.6009 Y25.7988
G01 F60.00
G01 Z-1.8000
G01 F120.00
G01 X47.6004 Y25.7890
G01 X47.5990 Y25.7793
G01 X47.5966 Y25.7697
G01 X47.5933 Y25.7604
G01 X47.5891 Y25.7515
G01 X47.5840 Y25.7431
G01 X47.5781 Y25.7352
G01 X47.5715 Y25.7279
G01 X47.5642 Y25.7212
G01 X47.5563 Y25.7154
G01 X47.5479 Y25.7103
G01 X47.5390 Y25.7061
G01 X47.5297 Y25.7028
G01 X47.5201 Y25.7004
G01 X47.5104 Y25.6989
G01 X47.5005 Y25.6985
G01 X47.4907 Y25.6989
G01 X47.4810 Y25.7004
G01 X47.4714 Y25.7028
G01 X47.4621 Y25.7061
G01 X47.4532 Y25.7103
G01 X47.4448 Y25.7154
G01 X47.4369 Y25.7212
G01 X47.4296 Y25.7279
G01 X47.4229 Y25.7352
G01 X47.4171 Y25.7431
G01 X47.4120 Y25.7515
G01 X47.4078 Y25.7604
G01 X47.4045 Y25.7697
G01 X47.4021 Y25.7793
G01 X47.4006 Y25.7890
G01 X47.4002 Y25.7988
G01 X47.4006 Y25.8087
G01 X47.4021 Y25.8184
G01 X47.4045 Y25.8280
G01 X47.4078 Y25.8373
G01 X47.4120 Y25.8462
G01 X47.4171 Y25.8546
G01 X47.4229 Y25.8625
G01 X47.4296 Y25.8698
G01 X47.4369 Y25.8764
G01 X47.4448 Y25.8823
G01 X47.4532 Y25.8874
G01 X47.4621 Y25.8916
G01 X47.4714 Y25.8949
G01 X47.4810 Y25.8973
G01 X47.4907 Y25.8987
G01 X47.5005 Y25.8992
G01 X47.5104 Y25.8987
G01 X47.5201 Y25.8973
G01 X47.5297 Y25.8949
G01 X47.5390 Y25.8916
G01 X47.5479 Y25.8874
G01 X47.5563 Y25.8823
G01 X47.5642 Y25.8764
G01 X47.5715 Y25.8698
G01 X47.5781 Y25.8625
G01 X47.5840 Y25.8546
G01 X47.5891 Y25.8462
G01 X47.5933 Y25.8373
G01 X47.5966 Y25.8280
G01 X47.5990 Y25.8184
G01 X47.6004 Y25.8087
G01 X47.6009 Y25.7988
G00 Z2.0000
M05
G00 Z2.0000
G00 Z15.00
G00 X0.0 Y0.0

