(G-CODE GENERATED BY FLATCAM v8.991 - www.flatcam.org - Version Date: 2019/12/27)

(Name: 5.ttt08)
(Type: G-code from Geometry)
(Units: MM)

(Created on Friday, 28 November 2025 at 22:17)

(TOOL DIAMETER: 0.8 mm)
(Feedrate: 120.0 mm/min)
(Feedrate_Z: 60.0 mm/min)
(Feedrate rapids 1500.0 mm/min)

(Z_Cut: -1.8 mm)
(DepthPerCut: 0.45 mm <=>4 passes)
(Z_Move: 2.0 mm)
(Z Toolchange: 15.0 mm)
(X,Y Toolchange: 0.0000, 0.0000 mm)
(Z Start: None mm)
(Z End: 15.0 mm)
(Steps per circle: 64)
(Preprocessor Geometry: default)

(X range:   28.8255 ...   34.0745  mm)
(Y range:    2.5255 ...    2.7745  mm)

(Spindle Speed: 10000 RPM)
G21
G90
G94




G01 F120.00
G00 Z2.0000

M03 S10000
G4 P3.0
G00 X28.8255 Y2.6500
G01 F60.00
G01 Z-0.4500
G01 F120.00
G01 X28.8261 Y2.6622
G01 X28.8279 Y2.6743
G01 X28.8309 Y2.6861
G01 X28.8350 Y2.6976
G01 X28.8402 Y2.7087
G01 X28.8465 Y2.7192
G01 X28.8538 Y2.7290
G01 X28.8620 Y2.7380
G01 X28.8710 Y2.7462
G01 X28.8808 Y2.7535
G01 X28.8913 Y2.7598
G01 X28.9024 Y2.7650
G01 X28.9139 Y2.7691
G01 X28.9257 Y2.7721
G01 X28.9378 Y2.7739
G01 X28.9500 Y2.7745
G01 X28.9622 Y2.7739
G01 X28.9743 Y2.7721
G01 X28.9861 Y2.7691
G01 X28.9976 Y2.7650
G01 X29.0087 Y2.7598
G01 X29.0192 Y2.7535
G01 X29.0290 Y2.7462
G01 X29.0380 Y2.7380
G01 X29.0462 Y2.7290
G01 X29.0535 Y2.7192
G01 X29.0598 Y2.7087
G01 X29.0650 Y2.6976
G01 X29.0691 Y2.6861
G01 X29.0721 Y2.6743
G01 X29.0739 Y2.6622
G01 X29.0745 Y2.6500
G01 X29.0739 Y2.6378
G01 X29.0721 Y2.6257
G01 X29.0691 Y2.6139
G01 X29.0650 Y2.6024
G01 X29.0598 Y2.5913
G01 X29.0535 Y2.5808
G01 X29.0462 Y2.5710
G01 X29.0380 Y2.5620
G01 X29.0290 Y2.5538
G01 X29.0192 Y2.5465
G01 X29.0087 Y2.5402
G01 X28.9976 Y2.5350
G01 X28.9861 Y2.5309
G01 X28.9743 Y2.5279
G01 X28.9622 Y2.5261
G01 X28.9500 Y2.5255
G01 X28.9378 Y2.5261
G01 X28.9257 Y2.5279
G01 X28.9139 Y2.5309
G01 X28.9024 Y2.5350
G01 X28.8913 Y2.5402
G01 X28.8808 Y2.5465
G01 X28.8710 Y2.5538
G01 X28.8620 Y2.5620
G01 X28.8538 Y2.5710
G01 X28.8465 Y2.5808
G01 X28.8402 Y2.5913
G01 X28.8350 Y2.6024
G01 X28.8309 Y2.6139
G01 X28.8279 Y2.6257
G01 X28.8261 Y2.6378
G01 X28.8255 Y2.6500
G00 X28.8255 Y2.6500
G01 F60.00
G01 Z-0.9000
G01 F120.00
G01 X28.8261 Y2.6622
G01 X28.8279 Y2.6743
G01 X28.8309 Y2.6861
G01 X28.8350 Y2.6976
G01 X28.8402 Y2.7087
G01 X28.8465 Y2.7192
G01 X28.8538 Y2.7290
G01 X28.8620 Y2.7380
G01 X28.8710 Y2.7462
G01 X28.8808 Y2.7535
G01 X28.8913 Y2.7598
G01 X28.9024 Y2.7650
G01 X28.9139 Y2.7691
G01 X28.9257 Y2.7721
G01 X28.9378 Y2.7739
G01 X28.9500 Y2.7745
G01 X28.9622 Y2.7739
G01 X28.9743 Y2.7721
G01 X28.9861 Y2.7691
G01 X28.9976 Y2.7650
G01 X29.0087 Y2.7598
G01 X29.0192 Y2.7535
G01 X29.0290 Y2.7462
G01 X29.0380 Y2.7380
G01 X29.0462 Y2.7290
G01 X29.0535 Y2.7192
G01 X29.0598 Y2.7087
G01 X29.0650 Y2.6976
G01 X29.0691 Y2.6861
G01 X29.0721 Y2.6743
G01 X29.0739 Y2.6622
G01 X29.0745 Y2.6500
G01 X29.0739 Y2.6378
G01 X29.0721 Y2.6257
G01 X29.0691 Y2.6139
G01 X29.0650 Y2.6024
G01 X29.0598 Y2.5913
G01 X29.0535 Y2.5808
G01 X29.0462 Y2.5710
G01 X29.0380 Y2.5620
G01 X29.0290 Y2.5538
G01 X29.0192 Y2.5465
G01 X29.0087 Y2.5402
G01 X28.9976 Y2.5350
G01 X28.9861 Y2.5309
G01 X28.9743 Y2.5279
G01 X28.9622 Y2.5261
G01 X28.9500 Y2.5255
G01 X28.9378 Y2.5261
G01 X28.9257 Y2.5279
G01 X28.9139 Y2.5309
G01 X28.9024 Y2.5350
G01 X28.8913 Y2.5402
G01 X28.8808 Y2.5465
G01 X28.8710 Y2.5538
G01 X28.8620 Y2.5620
G01 X28.8538 Y2.5710
G01 X28.8465 Y2.5808
G01 X28.8402 Y2.5913
G01 X28.8350 Y2.6024
G01 X28.8309 Y2.6139
G01 X28.8279 Y2.6257
G01 X28.8261 Y2.6378
G01 X28.8255 Y2.6500
G00 X28.8255 Y2.6500
G01 F60.00
G01 Z-1.3500
G01 F120.00
G01 X28.8261 Y2.6622
G01 X28.8279 Y2.6743
G01 X28.8309 Y2.6861
G01 X28.8350 Y2.6976
G01 X28.8402 Y2.7087
G01 X28.8465 Y2.7192
G01 X28.8538 Y2.7290
G01 X28.8620 Y2.7380
G01 X28.8710 Y2.7462
G01 X28.8808 Y2.7535
G01 X28.8913 Y2.7598
G01 X28.9024 Y2.7650
G01 X28.9139 Y2.7691
G01 X28.9257 Y2.7721
G01 X28.9378 Y2.7739
G01 X28.9500 Y2.7745
G01 X28.9622 Y2.7739
G01 X28.9743 Y2.7721
G01 X28.9861 Y2.7691
G01 X28.9976 Y2.7650
G01 X29.0087 Y2.7598
G01 X29.0192 Y2.7535
G01 X29.0290 Y2.7462
G01 X29.0380 Y2.7380
G01 X29.0462 Y2.7290
G01 X29.0535 Y2.7192
G01 X29.0598 Y2.7087
G01 X29.0650 Y2.6976
G01 X29.0691 Y2.6861
G01 X29.0721 Y2.6743
G01 X29.0739 Y2.6622
G01 X29.0745 Y2.6500
G01 X29.0739 Y2.6378
G01 X29.0721 Y2.6257
G01 X29.0691 Y2.6139
G01 X29.0650 Y2.6024
G01 X29.0598 Y2.5913
G01 X29.0535 Y2.5808
G01 X29.0462 Y2.5710
G01 X29.0380 Y2.5620
G01 X29.0290 Y2.5538
G01 X29.0192 Y2.5465
G01 X29.0087 Y2.5402
G01 X28.9976 Y2.5350
G01 X28.9861 Y2.5309
G01 X28.9743 Y2.5279
G01 X28.9622 Y2.5261
G01 X28.9500 Y2.5255
G01 X28.9378 Y2.5261
G01 X28.9257 Y2.5279
G01 X28.9139 Y2.5309
G01 X28.9024 Y2.5350
G01 X28.8913 Y2.5402
G01 X28.8808 Y2.5465
G01 X28.8710 Y2.5538
G01 X28.8620 Y2.5620
G01 X28.8538 Y2.5710
G01 X28.8465 Y2.5808
G01 X28.8402 Y2.5913
G01 X28.8350 Y2.6024
G01 X28.8309 Y2.6139
G01 X28.8279 Y2.6257
G01 X28.8261 Y2.6378
G01 X28.8255 Y2.6500
G00 X28.8255 Y2.6500
G01 F60.00
G01 Z-1.8000
G01 F120.00
G01 X28.8261 Y2.6622
G01 X28.8279 Y2.6743
G01 X28.8309 Y2.6861
G01 X28.8350 Y2.6976
G01 X28.8402 Y2.7087
G01 X28.8465 Y2.7192
G01 X28.8538 Y2.7290
G01 X28.8620 Y2.7380
G01 X28.8710 Y2.7462
G01 X28.8808 Y2.7535
G01 X28.8913 Y2.7598
G01 X28.9024 Y2.7650
G01 X28.9139 Y2.7691
G01 X28.9257 Y2.7721
G01 X28.9378 Y2.7739
G01 X28.9500 Y2.7745
G01 X28.9622 Y2.7739
G01 X28.9743 Y2.7721
G01 X28.9861 Y2.7691
G01 X28.9976 Y2.7650
G01 X29.0087 Y2.7598
G01 X29.0192 Y2.7535
G01 X29.0290 Y2.7462
G01 X29.0380 Y2.7380
G01 X29.0462 Y2.7290
G01 X29.0535 Y2.7192
G01 X29.0598 Y2.7087
G01 X29.0650 Y2.6976
G01 X29.0691 Y2.6861
G01 X29.0721 Y2.6743
G01 X29.0739 Y2.6622
G01 X29.0745 Y2.6500
G01 X29.0739 Y2.6378
G01 X29.0721 Y2.6257
G01 X29.0691 Y2.6139
G01 X29.0650 Y2.6024
G01 X29.0598 Y2.5913
G01 X29.0535 Y2.5808
G01 X29.0462 Y2.5710
G01 X29.0380 Y2.5620
G01 X29.0290 Y2.5538
G01 X29.0192 Y2.5465
G01 X29.0087 Y2.5402
G01 X28.9976 Y2.5350
G01 X28.9861 Y2.5309
G01 X28.9743 Y2.5279
G01 X28.9622 Y2.5261
G01 X28.9500 Y2.5255
G01 X28.9378 Y2.5261
G01 X28.9257 Y2.5279
G01 X28.9139 Y2.5309
G01 X28.9024 Y2.5350
G01 X28.8913 Y2.5402
G01 X28.8808 Y2.5465
G01 X28.8710 Y2.5538
G01 X28.8620 Y2.5620
G01 X28.8538 Y2.5710
G01 X28.8465 Y2.5808
G01 X28.8402 Y2.5913
G01 X28.8350 Y2.6024
G01 X28.8309 Y2.6139
G01 X28.8279 Y2.6257
G01 X28.8261 Y2.6378
G01 X28.8255 Y2.6500
G00 Z2.0000
G00 X33.8255 Y2.6500
G01 F60.00
G01 Z-0.4500
G01 F120.00
G01 X33.8261 Y2.6622
G01 X33.8279 Y2.6743
G01 X33.8309 Y2.6861
G01 X33.8350 Y2.6976
G01 X33.8402 Y2.7087
G01 X33.8465 Y2.7192
G01 X33.8538 Y2.7290
G01 X33.8620 Y2.7380
G01 X33.8710 Y2.7462
G01 X33.8808 Y2.7535
G01 X33.8913 Y2.7598
G01 X33.9024 Y2.7650
G01 X33.9139 Y2.7691
G01 X33.9257 Y2.7721
G01 X33.9378 Y2.7739
G01 X33.9500 Y2.7745
G01 X33.9622 Y2.7739
G01 X33.9743 Y2.7721
G01 X33.9861 Y2.7691
G01 X33.9976 Y2.7650
G01 X34.0087 Y2.7598
G01 X34.0192 Y2.7535
G01 X34.0290 Y2.7462
G01 X34.0380 Y2.7380
G01 X34.0462 Y2.7290
G01 X34.0535 Y2.7192
G01 X34.0598 Y2.7087
G01 X34.0650 Y2.6976
G01 X34.0691 Y2.6861
G01 X34.0721 Y2.6743
G01 X34.0739 Y2.6622
G01 X34.0745 Y2.6500
G01 X34.0739 Y2.6378
G01 X34.0721 Y2.6257
G01 X34.0691 Y2.6139
G01 X34.0650 Y2.6024
G01 X34.0598 Y2.5913
G01 X34.0535 Y2.5808
G01 X34.0462 Y2.5710
G01 X34.0380 Y2.5620
G01 X34.0290 Y2.5538
G01 X34.0192 Y2.5465
G01 X34.0087 Y2.5402
G01 X33.9976 Y2.5350
G01 X33.9861 Y2.5309
G01 X33.9743 Y2.5279
G01 X33.9622 Y2.5261
G01 X33.9500 Y2.5255
G01 X33.9378 Y2.5261
G01 X33.9257 Y2.5279
G01 X33.9139 Y2.5309
G01 X33.9024 Y2.5350
G01 X33.8913 Y2.5402
G01 X33.8808 Y2.5465
G01 X33.8710 Y2.5538
G01 X33.8620 Y2.5620
G01 X33.8538 Y2.5710
G01 X33.8465 Y2.5808
G01 X33.8402 Y2.5913
G01 X33.8350 Y2.6024
G01 X33.8309 Y2.6139
G01 X33.8279 Y2.6257
G01 X33.8261 Y2.6378
G01 X33.8255 Y2.6500
G00 X33.8255 Y2.6500
G01 F60.00
G01 Z-0.9000
G01 F120.00
G01 X33.8261 Y2.6622
G01 X33.8279 Y2.6743
G01 X33.8309 Y2.6861
G01 X33.8350 Y2.6976
G01 X33.8402 Y2.7087
G01 X33.8465 Y2.7192
G01 X33.8538 Y2.7290
G01 X33.8620 Y2.7380
G01 X33.8710 Y2.7462
G01 X33.8808 Y2.7535
G01 X33.8913 Y2.7598
G01 X33.9024 Y2.7650
G01 X33.9139 Y2.7691
G01 X33.9257 Y2.7721
G01 X33.9378 Y2.7739
G01 X33.9500 Y2.7745
G01 X33.9622 Y2.7739
G01 X33.9743 Y2.7721
G01 X33.9861 Y2.7691
G01 X33.9976 Y2.7650
G01 X34.0087 Y2.7598
G01 X34.0192 Y2.7535
G01 X34.0290 Y2.7462
G01 X34.0380 Y2.7380
G01 X34.0462 Y2.7290
G01 X34.0535 Y2.7192
G01 X34.0598 Y2.7087
G01 X34.0650 Y2.6976
G01 X34.0691 Y2.6861
G01 X34.0721 Y2.6743
G01 X34.0739 Y2.6622
G01 X34.0745 Y2.6500
G01 X34.0739 Y2.6378
G01 X34.0721 Y2.6257
G01 X34.0691 Y2.6139
G01 X34.0650 Y2.6024
G01 X34.0598 Y2.5913
G01 X34.0535 Y2.5808
G01 X34.0462 Y2.5710
G01 X34.0380 Y2.5620
G01 X34.0290 Y2.5538
G01 X34.0192 Y2.5465
G01 X34.0087 Y2.5402
G01 X33.9976 Y2.5350
G01 X33.9861 Y2.5309
G01 X33.9743 Y2.5279
G01 X33.9622 Y2.5261
G01 X33.9500 Y2.5255
G01 X33.9378 Y2.5261
G01 X33.9257 Y2.5279
G01 X33.9139 Y2.5309
G01 X33.9024 Y2.5350
G01 X33.8913 Y2.5402
G01 X33.8808 Y2.5465
G01 X33.8710 Y2.5538
G01 X33.8620 Y2.5620
G01 X33.8538 Y2.5710
G01 X33.8465 Y2.5808
G01 X33.8402 Y2.5913
G01 X33.8350 Y2.6024
G01 X33.8309 Y2.6139
G01 X33.8279 Y2.6257
G01 X33.8261 Y2.6378
G01 X33.8255 Y2.6500
G00 X33.8255 Y2.6500
G01 F60.00
G01 Z-1.3500
G01 F120.00
G01 X33.8261 Y2.6622
G01 X33.8279 Y2.6743
G01 X33.8309 Y2.6861
G01 X33.8350 Y2.6976
G01 X33.8402 Y2.7087
G01 X33.8465 Y2.7192
G01 X33.8538 Y2.7290
G01 X33.8620 Y2.7380
G01 X33.8710 Y2.7462
G01 X33.8808 Y2.7535
G01 X33.8913 Y2.7598
G01 X33.9024 Y2.7650
G01 X33.9139 Y2.7691
G01 X33.9257 Y2.7721
G01 X33.9378 Y2.7739
G01 X33.9500 Y2.7745
G01 X33.9622 Y2.7739
G01 X33.9743 Y2.7721
G01 X33.9861 Y2.7691
G01 X33.9976 Y2.7650
G01 X34.0087 Y2.7598
G01 X34.0192 Y2.7535
G01 X34.0290 Y2.7462
G01 X34.0380 Y2.7380
G01 X34.0462 Y2.7290
G01 X34.0535 Y2.7192
G01 X34.0598 Y2.7087
G01 X34.0650 Y2.6976
G01 X34.0691 Y2.6861
G01 X34.0721 Y2.6743
G01 X34.0739 Y2.6622
G01 X34.0745 Y2.6500
G01 X34.0739 Y2.6378
G01 X34.0721 Y2.6257
G01 X34.0691 Y2.6139
G01 X34.0650 Y2.6024
G01 X34.0598 Y2.5913
G01 X34.0535 Y2.5808
G01 X34.0462 Y2.5710
G01 X34.0380 Y2.5620
G01 X34.0290 Y2.5538
G01 X34.0192 Y2.5465
G01 X34.0087 Y2.5402
G01 X33.9976 Y2.5350
G01 X33.9861 Y2.5309
G01 X33.9743 Y2.5279
G01 X33.9622 Y2.5261
G01 X33.9500 Y2.5255
G01 X33.9378 Y2.5261
G01 X33.9257 Y2.5279
G01 X33.9139 Y2.5309
G01 X33.9024 Y2.5350
G01 X33.8913 Y2.5402
G01 X33.8808 Y2.5465
G01 X33.8710 Y2.5538
G01 X33.8620 Y2.5620
G01 X33.8538 Y2.5710
G01 X33.8465 Y2.5808
G01 X33.8402 Y2.5913
G01 X33.8350 Y2.6024
G01 X33.8309 Y2.6139
G01 X33.8279 Y2.6257
G01 X33.8261 Y2.6378
G01 X33.8255 Y2.6500
G00 X33.8255 Y2.6500
G01 F60.00
G01 Z-1.8000
G01 F120.00
G01 X33.8261 Y2.6622
G01 X33.8279 Y2.6743
G01 X33.8309 Y2.6861
G01 X33.8350 Y2.6976
G01 X33.8402 Y2.7087
G01 X33.8465 Y2.7192
G01 X33.8538 Y2.7290
G01 X33.8620 Y2.7380
G01 X33.8710 Y2.7462
G01 X33.8808 Y2.7535
G01 X33.8913 Y2.7598
G01 X33.9024 Y2.7650
G01 X33.9139 Y2.7691
G01 X33.9257 Y2.7721
G01 X33.9378 Y2.7739
G01 X33.9500 Y2.7745
G01 X33.9622 Y2.7739
G01 X33.9743 Y2.7721
G01 X33.9861 Y2.7691
G01 X33.9976 Y2.7650
G01 X34.0087 Y2.7598
G01 X34.0192 Y2.7535
G01 X34.0290 Y2.7462
G01 X34.0380 Y2.7380
G01 X34.0462 Y2.7290
G01 X34.0535 Y2.7192
G01 X34.0598 Y2.7087
G01 X34.0650 Y2.6976
G01 X34.0691 Y2.6861
G01 X34.0721 Y2.6743
G01 X34.0739 Y2.6622
G01 X34.0745 Y2.6500
G01 X34.0739 Y2.6378
G01 X34.0721 Y2.6257
G01 X34.0691 Y2.6139
G01 X34.0650 Y2.6024
G01 X34.0598 Y2.5913
G01 X34.0535 Y2.5808
G01 X34.0462 Y2.5710
G01 X34.0380 Y2.5620
G01 X34.0290 Y2.5538
G01 X34.0192 Y2.5465
G01 X34.0087 Y2.5402
G01 X33.9976 Y2.5350
G01 X33.9861 Y2.5309
G01 X33.9743 Y2.5279
G01 X33.9622 Y2.5261
G01 X33.9500 Y2.5255
G01 X33.9378 Y2.5261
G01 X33.9257 Y2.5279
G01 X33.9139 Y2.5309
G01 X33.9024 Y2.5350
G01 X33.8913 Y2.5402
G01 X33.8808 Y2.5465
G01 X33.8710 Y2.5538
G01 X33.8620 Y2.5620
G01 X33.8538 Y2.5710
G01 X33.8465 Y2.5808
G01 X33.8402 Y2.5913
G01 X33.8350 Y2.6024
G01 X33.8309 Y2.6139
G01 X33.8279 Y2.6257
G01 X33.8261 Y2.6378
G01 X33.8255 Y2.6500
G00 Z2.0000
M05
G00 Z2.0000
G00 Z15.00
G00 X0.0 Y0.0

