(G-CODE GENERATED BY FLATCAM v8.991 - www.flatcam.org - Version Date: 2019/12/27)

(Name: 6.cutout08)
(Type: G-code from Geometry)
(Units: MM)

(Created on Friday, 28 November 2025 at 22:19)

(TOOL DIAMETER: 0.8 mm)
(Feedrate: 120.0 mm/min)
(Feedrate_Z: 60.0 mm/min)
(Feedrate rapids 1500.0 mm/min)

(Z_Cut: -1.8 mm)
(DepthPerCut: 0.45 mm <=>4 passes)
(Z_Move: 2.0 mm)
(Z Toolchange: 15.0 mm)
(X,Y Toolchange: 0.0000, 0.0000 mm)
(Z Start: None mm)
(Z End: 15.0 mm)
(Steps per circle: 64)
(Preprocessor Geometry: default)

(X range:   -0.4250 ...   52.0750  mm)
(Y range:   -1.3250 ...   30.4250  mm)

(Spindle Speed: 10000 RPM)
G21
G90
G94




G01 F120.00
G00 Z2.0000

M03 S10000
G4 P3.0
G00 X-0.4250 Y-0.9000
G01 F60.00
G01 Z-0.4500
G01 F120.00
G01 X-0.4244 Y-0.9221
G01 X-0.4206 Y-0.9611
G01 X-0.4125 Y-1.0021
G01 X-0.4006 Y-1.0420
G01 X-0.3847 Y-1.0806
G01 X-0.3652 Y-1.1174
G01 X-0.3421 Y-1.1522
G01 X-0.3157 Y-1.1845
G01 X-0.2863 Y-1.2141
G01 X-0.2541 Y-1.2406
G01 X-0.2195 Y-1.2639
G01 X-0.1828 Y-1.2837
G01 X-0.1443 Y-1.2997
G01 X-0.1045 Y-1.3119
G01 X-0.0636 Y-1.3202
G01 X-0.0221 Y-1.3244
G01 X0.0000 Y-1.3250
G01 X51.6500 Y-1.3250
G01 X51.6721 Y-1.3244
G01 X51.7111 Y-1.3206
G01 X51.7545 Y-1.3119
G01 X51.7943 Y-1.2997
G01 X51.8306 Y-1.2847
G01 X51.8674 Y-1.2652
G01 X51.9022 Y-1.2421
G01 X51.9363 Y-1.2141
G01 X51.9641 Y-1.1863
G01 X51.9906 Y-1.1541
G01 X52.0152 Y-1.1174
G01 X52.0347 Y-1.0806
G01 X52.0497 Y-1.0443
G01 X52.0619 Y-1.0045
G01 X52.0706 Y-0.9611
G01 X52.0744 Y-0.9221
G01 X52.0750 Y-0.9000
G01 X52.0750 Y30.0000
G01 X52.0744 Y30.0221
G01 X52.0706 Y30.0611
G01 X52.0619 Y30.1045
G01 X52.0497 Y30.1443
G01 X52.0347 Y30.1806
G01 X52.0152 Y30.2174
G01 X51.9921 Y30.2522
G01 X51.9641 Y30.2863
G01 X51.9363 Y30.3141
G01 X51.9041 Y30.3406
G01 X51.8674 Y30.3652
G01 X51.8306 Y30.3847
G01 X51.7943 Y30.3997
G01 X51.7545 Y30.4119
G01 X51.7111 Y30.4206
G01 X51.6721 Y30.4244
G01 X51.6500 Y30.4250
G01 X0.0000 Y30.4250
G01 X-0.0221 Y30.4244
G01 X-0.0611 Y30.4206
G01 X-0.1045 Y30.4119
G01 X-0.1443 Y30.3997
G01 X-0.1806 Y30.3847
G01 X-0.2174 Y30.3652
G01 X-0.2522 Y30.3421
G01 X-0.2863 Y30.3141
G01 X-0.3141 Y30.2863
G01 X-0.3406 Y30.2541
G01 X-0.3652 Y30.2174
G01 X-0.3847 Y30.1806
G01 X-0.3997 Y30.1443
G01 X-0.4119 Y30.1045
G01 X-0.4206 Y30.0611
G01 X-0.4244 Y30.0221
G01 X-0.4250 Y30.0000
G01 X-0.4250 Y-0.9000
G00 X-0.4250 Y-0.9000
G01 F60.00
G01 Z-0.9000
G01 F120.00
G01 X-0.4244 Y-0.9221
G01 X-0.4206 Y-0.9611
G01 X-0.4125 Y-1.0021
G01 X-0.4006 Y-1.0420
G01 X-0.3847 Y-1.0806
G01 X-0.3652 Y-1.1174
G01 X-0.3421 Y-1.1522
G01 X-0.3157 Y-1.1845
G01 X-0.2863 Y-1.2141
G01 X-0.2541 Y-1.2406
G01 X-0.2195 Y-1.2639
G01 X-0.1828 Y-1.2837
G01 X-0.1443 Y-1.2997
G01 X-0.1045 Y-1.3119
G01 X-0.0636 Y-1.3202
G01 X-0.0221 Y-1.3244
G01 X0.0000 Y-1.3250
G01 X51.6500 Y-1.3250
G01 X51.6721 Y-1.3244
G01 X51.7111 Y-1.3206
G01 X51.7545 Y-1.3119
G01 X51.7943 Y-1.2997
G01 X51.8306 Y-1.2847
G01 X51.8674 Y-1.2652
G01 X51.9022 Y-1.2421
G01 X51.9363 Y-1.2141
G01 X51.9641 Y-1.1863
G01 X51.9906 Y-1.1541
G01 X52.0152 Y-1.1174
G01 X52.0347 Y-1.0806
G01 X52.0497 Y-1.0443
G01 X52.0619 Y-1.0045
G01 X52.0706 Y-0.9611
G01 X52.0744 Y-0.9221
G01 X52.0750 Y-0.9000
G01 X52.0750 Y30.0000
G01 X52.0744 Y30.0221
G01 X52.0706 Y30.0611
G01 X52.0619 Y30.1045
G01 X52.0497 Y30.1443
G01 X52.0347 Y30.1806
G01 X52.0152 Y30.2174
G01 X51.9921 Y30.2522
G01 X51.9641 Y30.2863
G01 X51.9363 Y30.3141
G01 X51.9041 Y30.3406
G01 X51.8674 Y30.3652
G01 X51.8306 Y30.3847
G01 X51.7943 Y30.3997
G01 X51.7545 Y30.4119
G01 X51.7111 Y30.4206
G01 X51.6721 Y30.4244
G01 X51.6500 Y30.4250
G01 X0.0000 Y30.4250
G01 X-0.0221 Y30.4244
G01 X-0.0611 Y30.4206
G01 X-0.1045 Y30.4119
G01 X-0.1443 Y30.3997
G01 X-0.1806 Y30.3847
G01 X-0.2174 Y30.3652
G01 X-0.2522 Y30.3421
G01 X-0.2863 Y30.3141
G01 X-0.3141 Y30.2863
G01 X-0.3406 Y30.2541
G01 X-0.3652 Y30.2174
G01 X-0.3847 Y30.1806
G01 X-0.3997 Y30.1443
G01 X-0.4119 Y30.1045
G01 X-0.4206 Y30.0611
G01 X-0.4244 Y30.0221
G01 X-0.4250 Y30.0000
G01 X-0.4250 Y-0.9000
G00 X-0.4250 Y-0.9000
G01 F60.00
G01 Z-1.3500
G01 F120.00
G01 X-0.4244 Y-0.9221
G01 X-0.4206 Y-0.9611
G01 X-0.4125 Y-1.0021
G01 X-0.4006 Y-1.0420
G01 X-0.3847 Y-1.0806
G01 X-0.3652 Y-1.1174
G01 X-0.3421 Y-1.1522
G01 X-0.3157 Y-1.1845
G01 X-0.2863 Y-1.2141
G01 X-0.2541 Y-1.2406
G01 X-0.2195 Y-1.2639
G01 X-0.1828 Y-1.2837
G01 X-0.1443 Y-1.2997
G01 X-0.1045 Y-1.3119
G01 X-0.0636 Y-1.3202
G01 X-0.0221 Y-1.3244
G01 X0.0000 Y-1.3250
G01 X51.6500 Y-1.3250
G01 X51.6721 Y-1.3244
G01 X51.7111 Y-1.3206
G01 X51.7545 Y-1.3119
G01 X51.7943 Y-1.2997
G01 X51.8306 Y-1.2847
G01 X51.8674 Y-1.2652
G01 X51.9022 Y-1.2421
G01 X51.9363 Y-1.2141
G01 X51.9641 Y-1.1863
G01 X51.9906 Y-1.1541
G01 X52.0152 Y-1.1174
G01 X52.0347 Y-1.0806
G01 X52.0497 Y-1.0443
G01 X52.0619 Y-1.0045
G01 X52.0706 Y-0.9611
G01 X52.0744 Y-0.9221
G01 X52.0750 Y-0.9000
G01 X52.0750 Y30.0000
G01 X52.0744 Y30.0221
G01 X52.0706 Y30.0611
G01 X52.0619 Y30.1045
G01 X52.0497 Y30.1443
G01 X52.0347 Y30.1806
G01 X52.0152 Y30.2174
G01 X51.9921 Y30.2522
G01 X51.9641 Y30.2863
G01 X51.9363 Y30.3141
G01 X51.9041 Y30.3406
G01 X51.8674 Y30.3652
G01 X51.8306 Y30.3847
G01 X51.7943 Y30.3997
G01 X51.7545 Y30.4119
G01 X51.7111 Y30.4206
G01 X51.6721 Y30.4244
G01 X51.6500 Y30.4250
G01 X0.0000 Y30.4250
G01 X-0.0221 Y30.4244
G01 X-0.0611 Y30.4206
G01 X-0.1045 Y30.4119
G01 X-0.1443 Y30.3997
G01 X-0.1806 Y30.3847
G01 X-0.2174 Y30.3652
G01 X-0.2522 Y30.3421
G01 X-0.2863 Y30.3141
G01 X-0.3141 Y30.2863
G01 X-0.3406 Y30.2541
G01 X-0.3652 Y30.2174
G01 X-0.3847 Y30.1806
G01 X-0.3997 Y30.1443
G01 X-0.4119 Y30.1045
G01 X-0.4206 Y30.0611
G01 X-0.4244 Y30.0221
G01 X-0.4250 Y30.0000
G01 X-0.4250 Y-0.9000
G00 X-0.4250 Y-0.9000
G01 F60.00
G01 Z-1.8000
G01 F120.00
G01 X-0.4244 Y-0.9221
G01 X-0.4206 Y-0.9611
G01 X-0.4125 Y-1.0021
G01 X-0.4006 Y-1.0420
G01 X-0.3847 Y-1.0806
G01 X-0.3652 Y-1.1174
G01 X-0.3421 Y-1.1522
G01 X-0.3157 Y-1.1845
G01 X-0.2863 Y-1.2141
G01 X-0.2541 Y-1.2406
G01 X-0.2195 Y-1.2639
G01 X-0.1828 Y-1.2837
G01 X-0.1443 Y-1.2997
G01 X-0.1045 Y-1.3119
G01 X-0.0636 Y-1.3202
G01 X-0.0221 Y-1.3244
G01 X0.0000 Y-1.3250
G01 X51.6500 Y-1.3250
G01 X51.6721 Y-1.3244
G01 X51.7111 Y-1.3206
G01 X51.7545 Y-1.3119
G01 X51.7943 Y-1.2997
G01 X51.8306 Y-1.2847
G01 X51.8674 Y-1.2652
G01 X51.9022 Y-1.2421
G01 X51.9363 Y-1.2141
G01 X51.9641 Y-1.1863
G01 X51.9906 Y-1.1541
G01 X52.0152 Y-1.1174
G01 X52.0347 Y-1.0806
G01 X52.0497 Y-1.0443
G01 X52.0619 Y-1.0045
G01 X52.0706 Y-0.9611
G01 X52.0744 Y-0.9221
G01 X52.0750 Y-0.9000
G01 X52.0750 Y30.0000
G01 X52.0744 Y30.0221
G01 X52.0706 Y30.0611
G01 X52.0619 Y30.1045
G01 X52.0497 Y30.1443
G01 X52.0347 Y30.1806
G01 X52.0152 Y30.2174
G01 X51.9921 Y30.2522
G01 X51.9641 Y30.2863
G01 X51.9363 Y30.3141
G01 X51.9041 Y30.3406
G01 X51.8674 Y30.3652
G01 X51.8306 Y30.3847
G01 X51.7943 Y30.3997
G01 X51.7545 Y30.4119
G01 X51.7111 Y30.4206
G01 X51.6721 Y30.4244
G01 X51.6500 Y30.4250
G01 X0.0000 Y30.4250
G01 X-0.0221 Y30.4244
G01 X-0.0611 Y30.4206
G01 X-0.1045 Y30.4119
G01 X-0.1443 Y30.3997
G01 X-0.1806 Y30.3847
G01 X-0.2174 Y30.3652
G01 X-0.2522 Y30.3421
G01 X-0.2863 Y30.3141
G01 X-0.3141 Y30.2863
G01 X-0.3406 Y30.2541
G01 X-0.3652 Y30.2174
G01 X-0.3847 Y30.1806
G01 X-0.3997 Y30.1443
G01 X-0.4119 Y30.1045
G01 X-0.4206 Y30.0611
G01 X-0.4244 Y30.0221
G01 X-0.4250 Y30.0000
G01 X-0.4250 Y-0.9000
G00 Z2.0000
M05
G00 Z2.0000
G00 Z15.00
G00 X0.0 Y0.0

