(G-CODE GENERATED BY FLATCAM v8.991 - www.flatcam.org - Version Date: 2019/12/27)

(Name: Alignment Drills_mill_cnc)
(Type: G-code from Geometry)
(Units: MM)

(Created on Friday, 28 November 2025 at 21:37)

(TOOL DIAMETER: 0.8 mm)
(Feedrate: 120.0 mm/min)
(Feedrate_Z: 60.0 mm/min)
(Feedrate rapids 1500.0 mm/min)

(Z_Cut: -6.0 mm)
(DepthPerCut: 0.5 mm <=>12 passes)
(Z_Move: 2.0 mm)
(Z Toolchange: 15.0 mm)
(X,Y Toolchange: 0.0000, 0.0000 mm)
(Z Start: None mm)
(Z End: 15.0 mm)
(Steps per circle: 64)
(Preprocessor Geometry: default)

(X range:   -7.1875 ...   57.1875  mm)
(Y range:    3.8125 ...   26.1875  mm)

(Spindle Speed: 10000 RPM)
G21
G90
G94




G01 F120.00
G00 Z2.0000

M03 S10000
G00 X-4.8125 Y5.0000
G01 F60.00
G01 Z-0.5000
G01 F120.00
G01 X-4.8182 Y4.8836
G01 X-4.8353 Y4.7683
G01 X-4.8636 Y4.6553
G01 X-4.9029 Y4.5456
G01 X-4.9527 Y4.4402
G01 X-5.0126 Y4.3403
G01 X-5.0821 Y4.2467
G01 X-5.1603 Y4.1603
G01 X-5.2467 Y4.0821
G01 X-5.3403 Y4.0126
G01 X-5.4402 Y3.9527
G01 X-5.5456 Y3.9029
G01 X-5.6553 Y3.8636
G01 X-5.7683 Y3.8353
G01 X-5.8836 Y3.8182
G01 X-6.0000 Y3.8125
G01 X-6.1164 Y3.8182
G01 X-6.2317 Y3.8353
G01 X-6.3447 Y3.8636
G01 X-6.4544 Y3.9029
G01 X-6.5598 Y3.9527
G01 X-6.6597 Y4.0126
G01 X-6.7533 Y4.0821
G01 X-6.8397 Y4.1603
G01 X-6.9179 Y4.2467
G01 X-6.9874 Y4.3403
G01 X-7.0473 Y4.4402
G01 X-7.0971 Y4.5456
G01 X-7.1364 Y4.6553
G01 X-7.1647 Y4.7683
G01 X-7.1818 Y4.8836
G01 X-7.1875 Y5.0000
G01 X-7.1818 Y5.1164
G01 X-7.1647 Y5.2317
G01 X-7.1364 Y5.3447
G01 X-7.0971 Y5.4544
G01 X-7.0473 Y5.5598
G01 X-6.9874 Y5.6597
G01 X-6.9179 Y5.7533
G01 X-6.8397 Y5.8397
G01 X-6.7533 Y5.9179
G01 X-6.6597 Y5.9874
G01 X-6.5598 Y6.0473
G01 X-6.4544 Y6.0971
G01 X-6.3447 Y6.1364
G01 X-6.2317 Y6.1647
G01 X-6.1164 Y6.1818
G01 X-6.0000 Y6.1875
G01 X-5.8836 Y6.1818
G01 X-5.7683 Y6.1647
G01 X-5.6553 Y6.1364
G01 X-5.5456 Y6.0971
G01 X-5.4402 Y6.0473
G01 X-5.3403 Y5.9874
G01 X-5.2467 Y5.9179
G01 X-5.1603 Y5.8397
G01 X-5.0821 Y5.7533
G01 X-5.0126 Y5.6597
G01 X-4.9527 Y5.5598
G01 X-4.9029 Y5.4544
G01 X-4.8636 Y5.3447
G01 X-4.8353 Y5.2317
G01 X-4.8182 Y5.1164
G01 X-4.8125 Y5.0000
G00 X-4.8125 Y5.0000
G01 F60.00
G01 Z-1.0000
G01 F120.00
G01 X-4.8182 Y4.8836
G01 X-4.8353 Y4.7683
G01 X-4.8636 Y4.6553
G01 X-4.9029 Y4.5456
G01 X-4.9527 Y4.4402
G01 X-5.0126 Y4.3403
G01 X-5.0821 Y4.2467
G01 X-5.1603 Y4.1603
G01 X-5.2467 Y4.0821
G01 X-5.3403 Y4.0126
G01 X-5.4402 Y3.9527
G01 X-5.5456 Y3.9029
G01 X-5.6553 Y3.8636
G01 X-5.7683 Y3.8353
G01 X-5.8836 Y3.8182
G01 X-6.0000 Y3.8125
G01 X-6.1164 Y3.8182
G01 X-6.2317 Y3.8353
G01 X-6.3447 Y3.8636
G01 X-6.4544 Y3.9029
G01 X-6.5598 Y3.9527
G01 X-6.6597 Y4.0126
G01 X-6.7533 Y4.0821
G01 X-6.8397 Y4.1603
G01 X-6.9179 Y4.2467
G01 X-6.9874 Y4.3403
G01 X-7.0473 Y4.4402
G01 X-7.0971 Y4.5456
G01 X-7.1364 Y4.6553
G01 X-7.1647 Y4.7683
G01 X-7.1818 Y4.8836
G01 X-7.1875 Y5.0000
G01 X-7.1818 Y5.1164
G01 X-7.1647 Y5.2317
G01 X-7.1364 Y5.3447
G01 X-7.0971 Y5.4544
G01 X-7.0473 Y5.5598
G01 X-6.9874 Y5.6597
G01 X-6.9179 Y5.7533
G01 X-6.8397 Y5.8397
G01 X-6.7533 Y5.9179
G01 X-6.6597 Y5.9874
G01 X-6.5598 Y6.0473
G01 X-6.4544 Y6.0971
G01 X-6.3447 Y6.1364
G01 X-6.2317 Y6.1647
G01 X-6.1164 Y6.1818
G01 X-6.0000 Y6.1875
G01 X-5.8836 Y6.1818
G01 X-5.7683 Y6.1647
G01 X-5.6553 Y6.1364
G01 X-5.5456 Y6.0971
G01 X-5.4402 Y6.0473
G01 X-5.3403 Y5.9874
G01 X-5.2467 Y5.9179
G01 X-5.1603 Y5.8397
G01 X-5.0821 Y5.7533
G01 X-5.0126 Y5.6597
G01 X-4.9527 Y5.5598
G01 X-4.9029 Y5.4544
G01 X-4.8636 Y5.3447
G01 X-4.8353 Y5.2317
G01 X-4.8182 Y5.1164
G01 X-4.8125 Y5.0000
G00 X-4.8125 Y5.0000
G01 F60.00
G01 Z-1.5000
G01 F120.00
G01 X-4.8182 Y4.8836
G01 X-4.8353 Y4.7683
G01 X-4.8636 Y4.6553
G01 X-4.9029 Y4.5456
G01 X-4.9527 Y4.4402
G01 X-5.0126 Y4.3403
G01 X-5.0821 Y4.2467
G01 X-5.1603 Y4.1603
G01 X-5.2467 Y4.0821
G01 X-5.3403 Y4.0126
G01 X-5.4402 Y3.9527
G01 X-5.5456 Y3.9029
G01 X-5.6553 Y3.8636
G01 X-5.7683 Y3.8353
G01 X-5.8836 Y3.8182
G01 X-6.0000 Y3.8125
G01 X-6.1164 Y3.8182
G01 X-6.2317 Y3.8353
G01 X-6.3447 Y3.8636
G01 X-6.4544 Y3.9029
G01 X-6.5598 Y3.9527
G01 X-6.6597 Y4.0126
G01 X-6.7533 Y4.0821
G01 X-6.8397 Y4.1603
G01 X-6.9179 Y4.2467
G01 X-6.9874 Y4.3403
G01 X-7.0473 Y4.4402
G01 X-7.0971 Y4.5456
G01 X-7.1364 Y4.6553
G01 X-7.1647 Y4.7683
G01 X-7.1818 Y4.8836
G01 X-7.1875 Y5.0000
G01 X-7.1818 Y5.1164
G01 X-7.1647 Y5.2317
G01 X-7.1364 Y5.3447
G01 X-7.0971 Y5.4544
G01 X-7.0473 Y5.5598
G01 X-6.9874 Y5.6597
G01 X-6.9179 Y5.7533
G01 X-6.8397 Y5.8397
G01 X-6.7533 Y5.9179
G01 X-6.6597 Y5.9874
G01 X-6.5598 Y6.0473
G01 X-6.4544 Y6.0971
G01 X-6.3447 Y6.1364
G01 X-6.2317 Y6.1647
G01 X-6.1164 Y6.1818
G01 X-6.0000 Y6.1875
G01 X-5.8836 Y6.1818
G01 X-5.7683 Y6.1647
G01 X-5.6553 Y6.1364
G01 X-5.5456 Y6.0971
G01 X-5.4402 Y6.0473
G01 X-5.3403 Y5.9874
G01 X-5.2467 Y5.9179
G01 X-5.1603 Y5.8397
G01 X-5.0821 Y5.7533
G01 X-5.0126 Y5.6597
G01 X-4.9527 Y5.5598
G01 X-4.9029 Y5.4544
G01 X-4.8636 Y5.3447
G01 X-4.8353 Y5.2317
G01 X-4.8182 Y5.1164
G01 X-4.8125 Y5.0000
G00 X-4.8125 Y5.0000
G01 F60.00
G01 Z-2.0000
G01 F120.00
G01 X-4.8182 Y4.8836
G01 X-4.8353 Y4.7683
G01 X-4.8636 Y4.6553
G01 X-4.9029 Y4.5456
G01 X-4.9527 Y4.4402
G01 X-5.0126 Y4.3403
G01 X-5.0821 Y4.2467
G01 X-5.1603 Y4.1603
G01 X-5.2467 Y4.0821
G01 X-5.3403 Y4.0126
G01 X-5.4402 Y3.9527
G01 X-5.5456 Y3.9029
G01 X-5.6553 Y3.8636
G01 X-5.7683 Y3.8353
G01 X-5.8836 Y3.8182
G01 X-6.0000 Y3.8125
G01 X-6.1164 Y3.8182
G01 X-6.2317 Y3.8353
G01 X-6.3447 Y3.8636
G01 X-6.4544 Y3.9029
G01 X-6.5598 Y3.9527
G01 X-6.6597 Y4.0126
G01 X-6.7533 Y4.0821
G01 X-6.8397 Y4.1603
G01 X-6.9179 Y4.2467
G01 X-6.9874 Y4.3403
G01 X-7.0473 Y4.4402
G01 X-7.0971 Y4.5456
G01 X-7.1364 Y4.6553
G01 X-7.1647 Y4.7683
G01 X-7.1818 Y4.8836
G01 X-7.1875 Y5.0000
G01 X-7.1818 Y5.1164
G01 X-7.1647 Y5.2317
G01 X-7.1364 Y5.3447
G01 X-7.0971 Y5.4544
G01 X-7.0473 Y5.5598
G01 X-6.9874 Y5.6597
G01 X-6.9179 Y5.7533
G01 X-6.8397 Y5.8397
G01 X-6.7533 Y5.9179
G01 X-6.6597 Y5.9874
G01 X-6.5598 Y6.0473
G01 X-6.4544 Y6.0971
G01 X-6.3447 Y6.1364
G01 X-6.2317 Y6.1647
G01 X-6.1164 Y6.1818
G01 X-6.0000 Y6.1875
G01 X-5.8836 Y6.1818
G01 X-5.7683 Y6.1647
G01 X-5.6553 Y6.1364
G01 X-5.5456 Y6.0971
G01 X-5.4402 Y6.0473
G01 X-5.3403 Y5.9874
G01 X-5.2467 Y5.9179
G01 X-5.1603 Y5.8397
G01 X-5.0821 Y5.7533
G01 X-5.0126 Y5.6597
G01 X-4.9527 Y5.5598
G01 X-4.9029 Y5.4544
G01 X-4.8636 Y5.3447
G01 X-4.8353 Y5.2317
G01 X-4.8182 Y5.1164
G01 X-4.8125 Y5.0000
G00 X-4.8125 Y5.0000
G01 F60.00
G01 Z-2.5000
G01 F120.00
G01 X-4.8182 Y4.8836
G01 X-4.8353 Y4.7683
G01 X-4.8636 Y4.6553
G01 X-4.9029 Y4.5456
G01 X-4.9527 Y4.4402
G01 X-5.0126 Y4.3403
G01 X-5.0821 Y4.2467
G01 X-5.1603 Y4.1603
G01 X-5.2467 Y4.0821
G01 X-5.3403 Y4.0126
G01 X-5.4402 Y3.9527
G01 X-5.5456 Y3.9029
G01 X-5.6553 Y3.8636
G01 X-5.7683 Y3.8353
G01 X-5.8836 Y3.8182
G01 X-6.0000 Y3.8125
G01 X-6.1164 Y3.8182
G01 X-6.2317 Y3.8353
G01 X-6.3447 Y3.8636
G01 X-6.4544 Y3.9029
G01 X-6.5598 Y3.9527
G01 X-6.6597 Y4.0126
G01 X-6.7533 Y4.0821
G01 X-6.8397 Y4.1603
G01 X-6.9179 Y4.2467
G01 X-6.9874 Y4.3403
G01 X-7.0473 Y4.4402
G01 X-7.0971 Y4.5456
G01 X-7.1364 Y4.6553
G01 X-7.1647 Y4.7683
G01 X-7.1818 Y4.8836
G01 X-7.1875 Y5.0000
G01 X-7.1818 Y5.1164
G01 X-7.1647 Y5.2317
G01 X-7.1364 Y5.3447
G01 X-7.0971 Y5.4544
G01 X-7.0473 Y5.5598
G01 X-6.9874 Y5.6597
G01 X-6.9179 Y5.7533
G01 X-6.8397 Y5.8397
G01 X-6.7533 Y5.9179
G01 X-6.6597 Y5.9874
G01 X-6.5598 Y6.0473
G01 X-6.4544 Y6.0971
G01 X-6.3447 Y6.1364
G01 X-6.2317 Y6.1647
G01 X-6.1164 Y6.1818
G01 X-6.0000 Y6.1875
G01 X-5.8836 Y6.1818
G01 X-5.7683 Y6.1647
G01 X-5.6553 Y6.1364
G01 X-5.5456 Y6.0971
G01 X-5.4402 Y6.0473
G01 X-5.3403 Y5.9874
G01 X-5.2467 Y5.9179
G01 X-5.1603 Y5.8397
G01 X-5.0821 Y5.7533
G01 X-5.0126 Y5.6597
G01 X-4.9527 Y5.5598
G01 X-4.9029 Y5.4544
G01 X-4.8636 Y5.3447
G01 X-4.8353 Y5.2317
G01 X-4.8182 Y5.1164
G01 X-4.8125 Y5.0000
G00 X-4.8125 Y5.0000
G01 F60.00
G01 Z-3.0000
G01 F120.00
G01 X-4.8182 Y4.8836
G01 X-4.8353 Y4.7683
G01 X-4.8636 Y4.6553
G01 X-4.9029 Y4.5456
G01 X-4.9527 Y4.4402
G01 X-5.0126 Y4.3403
G01 X-5.0821 Y4.2467
G01 X-5.1603 Y4.1603
G01 X-5.2467 Y4.0821
G01 X-5.3403 Y4.0126
G01 X-5.4402 Y3.9527
G01 X-5.5456 Y3.9029
G01 X-5.6553 Y3.8636
G01 X-5.7683 Y3.8353
G01 X-5.8836 Y3.8182
G01 X-6.0000 Y3.8125
G01 X-6.1164 Y3.8182
G01 X-6.2317 Y3.8353
G01 X-6.3447 Y3.8636
G01 X-6.4544 Y3.9029
G01 X-6.5598 Y3.9527
G01 X-6.6597 Y4.0126
G01 X-6.7533 Y4.0821
G01 X-6.8397 Y4.1603
G01 X-6.9179 Y4.2467
G01 X-6.9874 Y4.3403
G01 X-7.0473 Y4.4402
G01 X-7.0971 Y4.5456
G01 X-7.1364 Y4.6553
G01 X-7.1647 Y4.7683
G01 X-7.1818 Y4.8836
G01 X-7.1875 Y5.0000
G01 X-7.1818 Y5.1164
G01 X-7.1647 Y5.2317
G01 X-7.1364 Y5.3447
G01 X-7.0971 Y5.4544
G01 X-7.0473 Y5.5598
G01 X-6.9874 Y5.6597
G01 X-6.9179 Y5.7533
G01 X-6.8397 Y5.8397
G01 X-6.7533 Y5.9179
G01 X-6.6597 Y5.9874
G01 X-6.5598 Y6.0473
G01 X-6.4544 Y6.0971
G01 X-6.3447 Y6.1364
G01 X-6.2317 Y6.1647
G01 X-6.1164 Y6.1818
G01 X-6.0000 Y6.1875
G01 X-5.8836 Y6.1818
G01 X-5.7683 Y6.1647
G01 X-5.6553 Y6.1364
G01 X-5.5456 Y6.0971
G01 X-5.4402 Y6.0473
G01 X-5.3403 Y5.9874
G01 X-5.2467 Y5.9179
G01 X-5.1603 Y5.8397
G01 X-5.0821 Y5.7533
G01 X-5.0126 Y5.6597
G01 X-4.9527 Y5.5598
G01 X-4.9029 Y5.4544
G01 X-4.8636 Y5.3447
G01 X-4.8353 Y5.2317
G01 X-4.8182 Y5.1164
G01 X-4.8125 Y5.0000
G00 X-4.8125 Y5.0000
G01 F60.00
G01 Z-3.5000
G01 F120.00
G01 X-4.8182 Y4.8836
G01 X-4.8353 Y4.7683
G01 X-4.8636 Y4.6553
G01 X-4.9029 Y4.5456
G01 X-4.9527 Y4.4402
G01 X-5.0126 Y4.3403
G01 X-5.0821 Y4.2467
G01 X-5.1603 Y4.1603
G01 X-5.2467 Y4.0821
G01 X-5.3403 Y4.0126
G01 X-5.4402 Y3.9527
G01 X-5.5456 Y3.9029
G01 X-5.6553 Y3.8636
G01 X-5.7683 Y3.8353
G01 X-5.8836 Y3.8182
G01 X-6.0000 Y3.8125
G01 X-6.1164 Y3.8182
G01 X-6.2317 Y3.8353
G01 X-6.3447 Y3.8636
G01 X-6.4544 Y3.9029
G01 X-6.5598 Y3.9527
G01 X-6.6597 Y4.0126
G01 X-6.7533 Y4.0821
G01 X-6.8397 Y4.1603
G01 X-6.9179 Y4.2467
G01 X-6.9874 Y4.3403
G01 X-7.0473 Y4.4402
G01 X-7.0971 Y4.5456
G01 X-7.1364 Y4.6553
G01 X-7.1647 Y4.7683
G01 X-7.1818 Y4.8836
G01 X-7.1875 Y5.0000
G01 X-7.1818 Y5.1164
G01 X-7.1647 Y5.2317
G01 X-7.1364 Y5.3447
G01 X-7.0971 Y5.4544
G01 X-7.0473 Y5.5598
G01 X-6.9874 Y5.6597
G01 X-6.9179 Y5.7533
G01 X-6.8397 Y5.8397
G01 X-6.7533 Y5.9179
G01 X-6.6597 Y5.9874
G01 X-6.5598 Y6.0473
G01 X-6.4544 Y6.0971
G01 X-6.3447 Y6.1364
G01 X-6.2317 Y6.1647
G01 X-6.1164 Y6.1818
G01 X-6.0000 Y6.1875
G01 X-5.8836 Y6.1818
G01 X-5.7683 Y6.1647
G01 X-5.6553 Y6.1364
G01 X-5.5456 Y6.0971
G01 X-5.4402 Y6.0473
G01 X-5.3403 Y5.9874
G01 X-5.2467 Y5.9179
G01 X-5.1603 Y5.8397
G01 X-5.0821 Y5.7533
G01 X-5.0126 Y5.6597
G01 X-4.9527 Y5.5598
G01 X-4.9029 Y5.4544
G01 X-4.8636 Y5.3447
G01 X-4.8353 Y5.2317
G01 X-4.8182 Y5.1164
G01 X-4.8125 Y5.0000
G00 X-4.8125 Y5.0000
G01 F60.00
G01 Z-4.0000
G01 F120.00
G01 X-4.8182 Y4.8836
G01 X-4.8353 Y4.7683
G01 X-4.8636 Y4.6553
G01 X-4.9029 Y4.5456
G01 X-4.9527 Y4.4402
G01 X-5.0126 Y4.3403
G01 X-5.0821 Y4.2467
G01 X-5.1603 Y4.1603
G01 X-5.2467 Y4.0821
G01 X-5.3403 Y4.0126
G01 X-5.4402 Y3.9527
G01 X-5.5456 Y3.9029
G01 X-5.6553 Y3.8636
G01 X-5.7683 Y3.8353
G01 X-5.8836 Y3.8182
G01 X-6.0000 Y3.8125
G01 X-6.1164 Y3.8182
G01 X-6.2317 Y3.8353
G01 X-6.3447 Y3.8636
G01 X-6.4544 Y3.9029
G01 X-6.5598 Y3.9527
G01 X-6.6597 Y4.0126
G01 X-6.7533 Y4.0821
G01 X-6.8397 Y4.1603
G01 X-6.9179 Y4.2467
G01 X-6.9874 Y4.3403
G01 X-7.0473 Y4.4402
G01 X-7.0971 Y4.5456
G01 X-7.1364 Y4.6553
G01 X-7.1647 Y4.7683
G01 X-7.1818 Y4.8836
G01 X-7.1875 Y5.0000
G01 X-7.1818 Y5.1164
G01 X-7.1647 Y5.2317
G01 X-7.1364 Y5.3447
G01 X-7.0971 Y5.4544
G01 X-7.0473 Y5.5598
G01 X-6.9874 Y5.6597
G01 X-6.9179 Y5.7533
G01 X-6.8397 Y5.8397
G01 X-6.7533 Y5.9179
G01 X-6.6597 Y5.9874
G01 X-6.5598 Y6.0473
G01 X-6.4544 Y6.0971
G01 X-6.3447 Y6.1364
G01 X-6.2317 Y6.1647
G01 X-6.1164 Y6.1818
G01 X-6.0000 Y6.1875
G01 X-5.8836 Y6.1818
G01 X-5.7683 Y6.1647
G01 X-5.6553 Y6.1364
G01 X-5.5456 Y6.0971
G01 X-5.4402 Y6.0473
G01 X-5.3403 Y5.9874
G01 X-5.2467 Y5.9179
G01 X-5.1603 Y5.8397
G01 X-5.0821 Y5.7533
G01 X-5.0126 Y5.6597
G01 X-4.9527 Y5.5598
G01 X-4.9029 Y5.4544
G01 X-4.8636 Y5.3447
G01 X-4.8353 Y5.2317
G01 X-4.8182 Y5.1164
G01 X-4.8125 Y5.0000
G00 X-4.8125 Y5.0000
G01 F60.00
G01 Z-4.5000
G01 F120.00
G01 X-4.8182 Y4.8836
G01 X-4.8353 Y4.7683
G01 X-4.8636 Y4.6553
G01 X-4.9029 Y4.5456
G01 X-4.9527 Y4.4402
G01 X-5.0126 Y4.3403
G01 X-5.0821 Y4.2467
G01 X-5.1603 Y4.1603
G01 X-5.2467 Y4.0821
G01 X-5.3403 Y4.0126
G01 X-5.4402 Y3.9527
G01 X-5.5456 Y3.9029
G01 X-5.6553 Y3.8636
G01 X-5.7683 Y3.8353
G01 X-5.8836 Y3.8182
G01 X-6.0000 Y3.8125
G01 X-6.1164 Y3.8182
G01 X-6.2317 Y3.8353
G01 X-6.3447 Y3.8636
G01 X-6.4544 Y3.9029
G01 X-6.5598 Y3.9527
G01 X-6.6597 Y4.0126
G01 X-6.7533 Y4.0821
G01 X-6.8397 Y4.1603
G01 X-6.9179 Y4.2467
G01 X-6.9874 Y4.3403
G01 X-7.0473 Y4.4402
G01 X-7.0971 Y4.5456
G01 X-7.1364 Y4.6553
G01 X-7.1647 Y4.7683
G01 X-7.1818 Y4.8836
G01 X-7.1875 Y5.0000
G01 X-7.1818 Y5.1164
G01 X-7.1647 Y5.2317
G01 X-7.1364 Y5.3447
G01 X-7.0971 Y5.4544
G01 X-7.0473 Y5.5598
G01 X-6.9874 Y5.6597
G01 X-6.9179 Y5.7533
G01 X-6.8397 Y5.8397
G01 X-6.7533 Y5.9179
G01 X-6.6597 Y5.9874
G01 X-6.5598 Y6.0473
G01 X-6.4544 Y6.0971
G01 X-6.3447 Y6.1364
G01 X-6.2317 Y6.1647
G01 X-6.1164 Y6.1818
G01 X-6.0000 Y6.1875
G01 X-5.8836 Y6.1818
G01 X-5.7683 Y6.1647
G01 X-5.6553 Y6.1364
G01 X-5.5456 Y6.0971
G01 X-5.4402 Y6.0473
G01 X-5.3403 Y5.9874
G01 X-5.2467 Y5.9179
G01 X-5.1603 Y5.8397
G01 X-5.0821 Y5.7533
G01 X-5.0126 Y5.6597
G01 X-4.9527 Y5.5598
G01 X-4.9029 Y5.4544
G01 X-4.8636 Y5.3447
G01 X-4.8353 Y5.2317
G01 X-4.8182 Y5.1164
G01 X-4.8125 Y5.0000
G00 X-4.8125 Y5.0000
G01 F60.00
G01 Z-5.0000
G01 F120.00
G01 X-4.8182 Y4.8836
G01 X-4.8353 Y4.7683
G01 X-4.8636 Y4.6553
G01 X-4.9029 Y4.5456
G01 X-4.9527 Y4.4402
G01 X-5.0126 Y4.3403
G01 X-5.0821 Y4.2467
G01 X-5.1603 Y4.1603
G01 X-5.2467 Y4.0821
G01 X-5.3403 Y4.0126
G01 X-5.4402 Y3.9527
G01 X-5.5456 Y3.9029
G01 X-5.6553 Y3.8636
G01 X-5.7683 Y3.8353
G01 X-5.8836 Y3.8182
G01 X-6.0000 Y3.8125
G01 X-6.1164 Y3.8182
G01 X-6.2317 Y3.8353
G01 X-6.3447 Y3.8636
G01 X-6.4544 Y3.9029
G01 X-6.5598 Y3.9527
G01 X-6.6597 Y4.0126
G01 X-6.7533 Y4.0821
G01 X-6.8397 Y4.1603
G01 X-6.9179 Y4.2467
G01 X-6.9874 Y4.3403
G01 X-7.0473 Y4.4402
G01 X-7.0971 Y4.5456
G01 X-7.1364 Y4.6553
G01 X-7.1647 Y4.7683
G01 X-7.1818 Y4.8836
G01 X-7.1875 Y5.0000
G01 X-7.1818 Y5.1164
G01 X-7.1647 Y5.2317
G01 X-7.1364 Y5.3447
G01 X-7.0971 Y5.4544
G01 X-7.0473 Y5.5598
G01 X-6.9874 Y5.6597
G01 X-6.9179 Y5.7533
G01 X-6.8397 Y5.8397
G01 X-6.7533 Y5.9179
G01 X-6.6597 Y5.9874
G01 X-6.5598 Y6.0473
G01 X-6.4544 Y6.0971
G01 X-6.3447 Y6.1364
G01 X-6.2317 Y6.1647
G01 X-6.1164 Y6.1818
G01 X-6.0000 Y6.1875
G01 X-5.8836 Y6.1818
G01 X-5.7683 Y6.1647
G01 X-5.6553 Y6.1364
G01 X-5.5456 Y6.0971
G01 X-5.4402 Y6.0473
G01 X-5.3403 Y5.9874
G01 X-5.2467 Y5.9179
G01 X-5.1603 Y5.8397
G01 X-5.0821 Y5.7533
G01 X-5.0126 Y5.6597
G01 X-4.9527 Y5.5598
G01 X-4.9029 Y5.4544
G01 X-4.8636 Y5.3447
G01 X-4.8353 Y5.2317
G01 X-4.8182 Y5.1164
G01 X-4.8125 Y5.0000
G00 X-4.8125 Y5.0000
G01 F60.00
G01 Z-5.5000
G01 F120.00
G01 X-4.8182 Y4.8836
G01 X-4.8353 Y4.7683
G01 X-4.8636 Y4.6553
G01 X-4.9029 Y4.5456
G01 X-4.9527 Y4.4402
G01 X-5.0126 Y4.3403
G01 X-5.0821 Y4.2467
G01 X-5.1603 Y4.1603
G01 X-5.2467 Y4.0821
G01 X-5.3403 Y4.0126
G01 X-5.4402 Y3.9527
G01 X-5.5456 Y3.9029
G01 X-5.6553 Y3.8636
G01 X-5.7683 Y3.8353
G01 X-5.8836 Y3.8182
G01 X-6.0000 Y3.8125
G01 X-6.1164 Y3.8182
G01 X-6.2317 Y3.8353
G01 X-6.3447 Y3.8636
G01 X-6.4544 Y3.9029
G01 X-6.5598 Y3.9527
G01 X-6.6597 Y4.0126
G01 X-6.7533 Y4.0821
G01 X-6.8397 Y4.1603
G01 X-6.9179 Y4.2467
G01 X-6.9874 Y4.3403
G01 X-7.0473 Y4.4402
G01 X-7.0971 Y4.5456
G01 X-7.1364 Y4.6553
G01 X-7.1647 Y4.7683
G01 X-7.1818 Y4.8836
G01 X-7.1875 Y5.0000
G01 X-7.1818 Y5.1164
G01 X-7.1647 Y5.2317
G01 X-7.1364 Y5.3447
G01 X-7.0971 Y5.4544
G01 X-7.0473 Y5.5598
G01 X-6.9874 Y5.6597
G01 X-6.9179 Y5.7533
G01 X-6.8397 Y5.8397
G01 X-6.7533 Y5.9179
G01 X-6.6597 Y5.9874
G01 X-6.5598 Y6.0473
G01 X-6.4544 Y6.0971
G01 X-6.3447 Y6.1364
G01 X-6.2317 Y6.1647
G01 X-6.1164 Y6.1818
G01 X-6.0000 Y6.1875
G01 X-5.8836 Y6.1818
G01 X-5.7683 Y6.1647
G01 X-5.6553 Y6.1364
G01 X-5.5456 Y6.0971
G01 X-5.4402 Y6.0473
G01 X-5.3403 Y5.9874
G01 X-5.2467 Y5.9179
G01 X-5.1603 Y5.8397
G01 X-5.0821 Y5.7533
G01 X-5.0126 Y5.6597
G01 X-4.9527 Y5.5598
G01 X-4.9029 Y5.4544
G01 X-4.8636 Y5.3447
G01 X-4.8353 Y5.2317
G01 X-4.8182 Y5.1164
G01 X-4.8125 Y5.0000
G00 X-4.8125 Y5.0000
G01 F60.00
G01 Z-6.0000
G01 F120.00
G01 X-4.8182 Y4.8836
G01 X-4.8353 Y4.7683
G01 X-4.8636 Y4.6553
G01 X-4.9029 Y4.5456
G01 X-4.9527 Y4.4402
G01 X-5.0126 Y4.3403
G01 X-5.0821 Y4.2467
G01 X-5.1603 Y4.1603
G01 X-5.2467 Y4.0821
G01 X-5.3403 Y4.0126
G01 X-5.4402 Y3.9527
G01 X-5.5456 Y3.9029
G01 X-5.6553 Y3.8636
G01 X-5.7683 Y3.8353
G01 X-5.8836 Y3.8182
G01 X-6.0000 Y3.8125
G01 X-6.1164 Y3.8182
G01 X-6.2317 Y3.8353
G01 X-6.3447 Y3.8636
G01 X-6.4544 Y3.9029
G01 X-6.5598 Y3.9527
G01 X-6.6597 Y4.0126
G01 X-6.7533 Y4.0821
G01 X-6.8397 Y4.1603
G01 X-6.9179 Y4.2467
G01 X-6.9874 Y4.3403
G01 X-7.0473 Y4.4402
G01 X-7.0971 Y4.5456
G01 X-7.1364 Y4.6553
G01 X-7.1647 Y4.7683
G01 X-7.1818 Y4.8836
G01 X-7.1875 Y5.0000
G01 X-7.1818 Y5.1164
G01 X-7.1647 Y5.2317
G01 X-7.1364 Y5.3447
G01 X-7.0971 Y5.4544
G01 X-7.0473 Y5.5598
G01 X-6.9874 Y5.6597
G01 X-6.9179 Y5.7533
G01 X-6.8397 Y5.8397
G01 X-6.7533 Y5.9179
G01 X-6.6597 Y5.9874
G01 X-6.5598 Y6.0473
G01 X-6.4544 Y6.0971
G01 X-6.3447 Y6.1364
G01 X-6.2317 Y6.1647
G01 X-6.1164 Y6.1818
G01 X-6.0000 Y6.1875
G01 X-5.8836 Y6.1818
G01 X-5.7683 Y6.1647
G01 X-5.6553 Y6.1364
G01 X-5.5456 Y6.0971
G01 X-5.4402 Y6.0473
G01 X-5.3403 Y5.9874
G01 X-5.2467 Y5.9179
G01 X-5.1603 Y5.8397
G01 X-5.0821 Y5.7533
G01 X-5.0126 Y5.6597
G01 X-4.9527 Y5.5598
G01 X-4.9029 Y5.4544
G01 X-4.8636 Y5.3447
G01 X-4.8353 Y5.2317
G01 X-4.8182 Y5.1164
G01 X-4.8125 Y5.0000
G00 Z2.0000
G00 X-4.8125 Y25.0000
G01 F60.00
G01 Z-0.5000
G01 F120.00
G01 X-4.8182 Y24.8836
G01 X-4.8353 Y24.7683
G01 X-4.8636 Y24.6553
G01 X-4.9029 Y24.5456
G01 X-4.9527 Y24.4402
G01 X-5.0126 Y24.3403
G01 X-5.0821 Y24.2467
G01 X-5.1603 Y24.1603
G01 X-5.2467 Y24.0821
G01 X-5.3403 Y24.0126
G01 X-5.4402 Y23.9527
G01 X-5.5456 Y23.9029
G01 X-5.6553 Y23.8636
G01 X-5.7683 Y23.8353
G01 X-5.8836 Y23.8182
G01 X-6.0000 Y23.8125
G01 X-6.1164 Y23.8182
G01 X-6.2317 Y23.8353
G01 X-6.3447 Y23.8636
G01 X-6.4544 Y23.9029
G01 X-6.5598 Y23.9527
G01 X-6.6597 Y24.0126
G01 X-6.7533 Y24.0821
G01 X-6.8397 Y24.1603
G01 X-6.9179 Y24.2467
G01 X-6.9874 Y24.3403
G01 X-7.0473 Y24.4402
G01 X-7.0971 Y24.5456
G01 X-7.1364 Y24.6553
G01 X-7.1647 Y24.7683
G01 X-7.1818 Y24.8836
G01 X-7.1875 Y25.0000
G01 X-7.1818 Y25.1164
G01 X-7.1647 Y25.2317
G01 X-7.1364 Y25.3447
G01 X-7.0971 Y25.4544
G01 X-7.0473 Y25.5598
G01 X-6.9874 Y25.6597
G01 X-6.9179 Y25.7533
G01 X-6.8397 Y25.8397
G01 X-6.7533 Y25.9179
G01 X-6.6597 Y25.9874
G01 X-6.5598 Y26.0473
G01 X-6.4544 Y26.0971
G01 X-6.3447 Y26.1364
G01 X-6.2317 Y26.1647
G01 X-6.1164 Y26.1818
G01 X-6.0000 Y26.1875
G01 X-5.8836 Y26.1818
G01 X-5.7683 Y26.1647
G01 X-5.6553 Y26.1364
G01 X-5.5456 Y26.0971
G01 X-5.4402 Y26.0473
G01 X-5.3403 Y25.9874
G01 X-5.2467 Y25.9179
G01 X-5.1603 Y25.8397
G01 X-5.0821 Y25.7533
G01 X-5.0126 Y25.6597
G01 X-4.9527 Y25.5598
G01 X-4.9029 Y25.4544
G01 X-4.8636 Y25.3447
G01 X-4.8353 Y25.2317
G01 X-4.8182 Y25.1164
G01 X-4.8125 Y25.0000
G00 X-4.8125 Y25.0000
G01 F60.00
G01 Z-1.0000
G01 F120.00
G01 X-4.8182 Y24.8836
G01 X-4.8353 Y24.7683
G01 X-4.8636 Y24.6553
G01 X-4.9029 Y24.5456
G01 X-4.9527 Y24.4402
G01 X-5.0126 Y24.3403
G01 X-5.0821 Y24.2467
G01 X-5.1603 Y24.1603
G01 X-5.2467 Y24.0821
G01 X-5.3403 Y24.0126
G01 X-5.4402 Y23.9527
G01 X-5.5456 Y23.9029
G01 X-5.6553 Y23.8636
G01 X-5.7683 Y23.8353
G01 X-5.8836 Y23.8182
G01 X-6.0000 Y23.8125
G01 X-6.1164 Y23.8182
G01 X-6.2317 Y23.8353
G01 X-6.3447 Y23.8636
G01 X-6.4544 Y23.9029
G01 X-6.5598 Y23.9527
G01 X-6.6597 Y24.0126
G01 X-6.7533 Y24.0821
G01 X-6.8397 Y24.1603
G01 X-6.9179 Y24.2467
G01 X-6.9874 Y24.3403
G01 X-7.0473 Y24.4402
G01 X-7.0971 Y24.5456
G01 X-7.1364 Y24.6553
G01 X-7.1647 Y24.7683
G01 X-7.1818 Y24.8836
G01 X-7.1875 Y25.0000
G01 X-7.1818 Y25.1164
G01 X-7.1647 Y25.2317
G01 X-7.1364 Y25.3447
G01 X-7.0971 Y25.4544
G01 X-7.0473 Y25.5598
G01 X-6.9874 Y25.6597
G01 X-6.9179 Y25.7533
G01 X-6.8397 Y25.8397
G01 X-6.7533 Y25.9179
G01 X-6.6597 Y25.9874
G01 X-6.5598 Y26.0473
G01 X-6.4544 Y26.0971
G01 X-6.3447 Y26.1364
G01 X-6.2317 Y26.1647
G01 X-6.1164 Y26.1818
G01 X-6.0000 Y26.1875
G01 X-5.8836 Y26.1818
G01 X-5.7683 Y26.1647
G01 X-5.6553 Y26.1364
G01 X-5.5456 Y26.0971
G01 X-5.4402 Y26.0473
G01 X-5.3403 Y25.9874
G01 X-5.2467 Y25.9179
G01 X-5.1603 Y25.8397
G01 X-5.0821 Y25.7533
G01 X-5.0126 Y25.6597
G01 X-4.9527 Y25.5598
G01 X-4.9029 Y25.4544
G01 X-4.8636 Y25.3447
G01 X-4.8353 Y25.2317
G01 X-4.8182 Y25.1164
G01 X-4.8125 Y25.0000
G00 X-4.8125 Y25.0000
G01 F60.00
G01 Z-1.5000
G01 F120.00
G01 X-4.8182 Y24.8836
G01 X-4.8353 Y24.7683
G01 X-4.8636 Y24.6553
G01 X-4.9029 Y24.5456
G01 X-4.9527 Y24.4402
G01 X-5.0126 Y24.3403
G01 X-5.0821 Y24.2467
G01 X-5.1603 Y24.1603
G01 X-5.2467 Y24.0821
G01 X-5.3403 Y24.0126
G01 X-5.4402 Y23.9527
G01 X-5.5456 Y23.9029
G01 X-5.6553 Y23.8636
G01 X-5.7683 Y23.8353
G01 X-5.8836 Y23.8182
G01 X-6.0000 Y23.8125
G01 X-6.1164 Y23.8182
G01 X-6.2317 Y23.8353
G01 X-6.3447 Y23.8636
G01 X-6.4544 Y23.9029
G01 X-6.5598 Y23.9527
G01 X-6.6597 Y24.0126
G01 X-6.7533 Y24.0821
G01 X-6.8397 Y24.1603
G01 X-6.9179 Y24.2467
G01 X-6.9874 Y24.3403
G01 X-7.0473 Y24.4402
G01 X-7.0971 Y24.5456
G01 X-7.1364 Y24.6553
G01 X-7.1647 Y24.7683
G01 X-7.1818 Y24.8836
G01 X-7.1875 Y25.0000
G01 X-7.1818 Y25.1164
G01 X-7.1647 Y25.2317
G01 X-7.1364 Y25.3447
G01 X-7.0971 Y25.4544
G01 X-7.0473 Y25.5598
G01 X-6.9874 Y25.6597
G01 X-6.9179 Y25.7533
G01 X-6.8397 Y25.8397
G01 X-6.7533 Y25.9179
G01 X-6.6597 Y25.9874
G01 X-6.5598 Y26.0473
G01 X-6.4544 Y26.0971
G01 X-6.3447 Y26.1364
G01 X-6.2317 Y26.1647
G01 X-6.1164 Y26.1818
G01 X-6.0000 Y26.1875
G01 X-5.8836 Y26.1818
G01 X-5.7683 Y26.1647
G01 X-5.6553 Y26.1364
G01 X-5.5456 Y26.0971
G01 X-5.4402 Y26.0473
G01 X-5.3403 Y25.9874
G01 X-5.2467 Y25.9179
G01 X-5.1603 Y25.8397
G01 X-5.0821 Y25.7533
G01 X-5.0126 Y25.6597
G01 X-4.9527 Y25.5598
G01 X-4.9029 Y25.4544
G01 X-4.8636 Y25.3447
G01 X-4.8353 Y25.2317
G01 X-4.8182 Y25.1164
G01 X-4.8125 Y25.0000
G00 X-4.8125 Y25.0000
G01 F60.00
G01 Z-2.0000
G01 F120.00
G01 X-4.8182 Y24.8836
G01 X-4.8353 Y24.7683
G01 X-4.8636 Y24.6553
G01 X-4.9029 Y24.5456
G01 X-4.9527 Y24.4402
G01 X-5.0126 Y24.3403
G01 X-5.0821 Y24.2467
G01 X-5.1603 Y24.1603
G01 X-5.2467 Y24.0821
G01 X-5.3403 Y24.0126
G01 X-5.4402 Y23.9527
G01 X-5.5456 Y23.9029
G01 X-5.6553 Y23.8636
G01 X-5.7683 Y23.8353
G01 X-5.8836 Y23.8182
G01 X-6.0000 Y23.8125
G01 X-6.1164 Y23.8182
G01 X-6.2317 Y23.8353
G01 X-6.3447 Y23.8636
G01 X-6.4544 Y23.9029
G01 X-6.5598 Y23.9527
G01 X-6.6597 Y24.0126
G01 X-6.7533 Y24.0821
G01 X-6.8397 Y24.1603
G01 X-6.9179 Y24.2467
G01 X-6.9874 Y24.3403
G01 X-7.0473 Y24.4402
G01 X-7.0971 Y24.5456
G01 X-7.1364 Y24.6553
G01 X-7.1647 Y24.7683
G01 X-7.1818 Y24.8836
G01 X-7.1875 Y25.0000
G01 X-7.1818 Y25.1164
G01 X-7.1647 Y25.2317
G01 X-7.1364 Y25.3447
G01 X-7.0971 Y25.4544
G01 X-7.0473 Y25.5598
G01 X-6.9874 Y25.6597
G01 X-6.9179 Y25.7533
G01 X-6.8397 Y25.8397
G01 X-6.7533 Y25.9179
G01 X-6.6597 Y25.9874
G01 X-6.5598 Y26.0473
G01 X-6.4544 Y26.0971
G01 X-6.3447 Y26.1364
G01 X-6.2317 Y26.1647
G01 X-6.1164 Y26.1818
G01 X-6.0000 Y26.1875
G01 X-5.8836 Y26.1818
G01 X-5.7683 Y26.1647
G01 X-5.6553 Y26.1364
G01 X-5.5456 Y26.0971
G01 X-5.4402 Y26.0473
G01 X-5.3403 Y25.9874
G01 X-5.2467 Y25.9179
G01 X-5.1603 Y25.8397
G01 X-5.0821 Y25.7533
G01 X-5.0126 Y25.6597
G01 X-4.9527 Y25.5598
G01 X-4.9029 Y25.4544
G01 X-4.8636 Y25.3447
G01 X-4.8353 Y25.2317
G01 X-4.8182 Y25.1164
G01 X-4.8125 Y25.0000
G00 X-4.8125 Y25.0000
G01 F60.00
G01 Z-2.5000
G01 F120.00
G01 X-4.8182 Y24.8836
G01 X-4.8353 Y24.7683
G01 X-4.8636 Y24.6553
G01 X-4.9029 Y24.5456
G01 X-4.9527 Y24.4402
G01 X-5.0126 Y24.3403
G01 X-5.0821 Y24.2467
G01 X-5.1603 Y24.1603
G01 X-5.2467 Y24.0821
G01 X-5.3403 Y24.0126
G01 X-5.4402 Y23.9527
G01 X-5.5456 Y23.9029
G01 X-5.6553 Y23.8636
G01 X-5.7683 Y23.8353
G01 X-5.8836 Y23.8182
G01 X-6.0000 Y23.8125
G01 X-6.1164 Y23.8182
G01 X-6.2317 Y23.8353
G01 X-6.3447 Y23.8636
G01 X-6.4544 Y23.9029
G01 X-6.5598 Y23.9527
G01 X-6.6597 Y24.0126
G01 X-6.7533 Y24.0821
G01 X-6.8397 Y24.1603
G01 X-6.9179 Y24.2467
G01 X-6.9874 Y24.3403
G01 X-7.0473 Y24.4402
G01 X-7.0971 Y24.5456
G01 X-7.1364 Y24.6553
G01 X-7.1647 Y24.7683
G01 X-7.1818 Y24.8836
G01 X-7.1875 Y25.0000
G01 X-7.1818 Y25.1164
G01 X-7.1647 Y25.2317
G01 X-7.1364 Y25.3447
G01 X-7.0971 Y25.4544
G01 X-7.0473 Y25.5598
G01 X-6.9874 Y25.6597
G01 X-6.9179 Y25.7533
G01 X-6.8397 Y25.8397
G01 X-6.7533 Y25.9179
G01 X-6.6597 Y25.9874
G01 X-6.5598 Y26.0473
G01 X-6.4544 Y26.0971
G01 X-6.3447 Y26.1364
G01 X-6.2317 Y26.1647
G01 X-6.1164 Y26.1818
G01 X-6.0000 Y26.1875
G01 X-5.8836 Y26.1818
G01 X-5.7683 Y26.1647
G01 X-5.6553 Y26.1364
G01 X-5.5456 Y26.0971
G01 X-5.4402 Y26.0473
G01 X-5.3403 Y25.9874
G01 X-5.2467 Y25.9179
G01 X-5.1603 Y25.8397
G01 X-5.0821 Y25.7533
G01 X-5.0126 Y25.6597
G01 X-4.9527 Y25.5598
G01 X-4.9029 Y25.4544
G01 X-4.8636 Y25.3447
G01 X-4.8353 Y25.2317
G01 X-4.8182 Y25.1164
G01 X-4.8125 Y25.0000
G00 X-4.8125 Y25.0000
G01 F60.00
G01 Z-3.0000
G01 F120.00
G01 X-4.8182 Y24.8836
G01 X-4.8353 Y24.7683
G01 X-4.8636 Y24.6553
G01 X-4.9029 Y24.5456
G01 X-4.9527 Y24.4402
G01 X-5.0126 Y24.3403
G01 X-5.0821 Y24.2467
G01 X-5.1603 Y24.1603
G01 X-5.2467 Y24.0821
G01 X-5.3403 Y24.0126
G01 X-5.4402 Y23.9527
G01 X-5.5456 Y23.9029
G01 X-5.6553 Y23.8636
G01 X-5.7683 Y23.8353
G01 X-5.8836 Y23.8182
G01 X-6.0000 Y23.8125
G01 X-6.1164 Y23.8182
G01 X-6.2317 Y23.8353
G01 X-6.3447 Y23.8636
G01 X-6.4544 Y23.9029
G01 X-6.5598 Y23.9527
G01 X-6.6597 Y24.0126
G01 X-6.7533 Y24.0821
G01 X-6.8397 Y24.1603
G01 X-6.9179 Y24.2467
G01 X-6.9874 Y24.3403
G01 X-7.0473 Y24.4402
G01 X-7.0971 Y24.5456
G01 X-7.1364 Y24.6553
G01 X-7.1647 Y24.7683
G01 X-7.1818 Y24.8836
G01 X-7.1875 Y25.0000
G01 X-7.1818 Y25.1164
G01 X-7.1647 Y25.2317
G01 X-7.1364 Y25.3447
G01 X-7.0971 Y25.4544
G01 X-7.0473 Y25.5598
G01 X-6.9874 Y25.6597
G01 X-6.9179 Y25.7533
G01 X-6.8397 Y25.8397
G01 X-6.7533 Y25.9179
G01 X-6.6597 Y25.9874
G01 X-6.5598 Y26.0473
G01 X-6.4544 Y26.0971
G01 X-6.3447 Y26.1364
G01 X-6.2317 Y26.1647
G01 X-6.1164 Y26.1818
G01 X-6.0000 Y26.1875
G01 X-5.8836 Y26.1818
G01 X-5.7683 Y26.1647
G01 X-5.6553 Y26.1364
G01 X-5.5456 Y26.0971
G01 X-5.4402 Y26.0473
G01 X-5.3403 Y25.9874
G01 X-5.2467 Y25.9179
G01 X-5.1603 Y25.8397
G01 X-5.0821 Y25.7533
G01 X-5.0126 Y25.6597
G01 X-4.9527 Y25.5598
G01 X-4.9029 Y25.4544
G01 X-4.8636 Y25.3447
G01 X-4.8353 Y25.2317
G01 X-4.8182 Y25.1164
G01 X-4.8125 Y25.0000
G00 X-4.8125 Y25.0000
G01 F60.00
G01 Z-3.5000
G01 F120.00
G01 X-4.8182 Y24.8836
G01 X-4.8353 Y24.7683
G01 X-4.8636 Y24.6553
G01 X-4.9029 Y24.5456
G01 X-4.9527 Y24.4402
G01 X-5.0126 Y24.3403
G01 X-5.0821 Y24.2467
G01 X-5.1603 Y24.1603
G01 X-5.2467 Y24.0821
G01 X-5.3403 Y24.0126
G01 X-5.4402 Y23.9527
G01 X-5.5456 Y23.9029
G01 X-5.6553 Y23.8636
G01 X-5.7683 Y23.8353
G01 X-5.8836 Y23.8182
G01 X-6.0000 Y23.8125
G01 X-6.1164 Y23.8182
G01 X-6.2317 Y23.8353
G01 X-6.3447 Y23.8636
G01 X-6.4544 Y23.9029
G01 X-6.5598 Y23.9527
G01 X-6.6597 Y24.0126
G01 X-6.7533 Y24.0821
G01 X-6.8397 Y24.1603
G01 X-6.9179 Y24.2467
G01 X-6.9874 Y24.3403
G01 X-7.0473 Y24.4402
G01 X-7.0971 Y24.5456
G01 X-7.1364 Y24.6553
G01 X-7.1647 Y24.7683
G01 X-7.1818 Y24.8836
G01 X-7.1875 Y25.0000
G01 X-7.1818 Y25.1164
G01 X-7.1647 Y25.2317
G01 X-7.1364 Y25.3447
G01 X-7.0971 Y25.4544
G01 X-7.0473 Y25.5598
G01 X-6.9874 Y25.6597
G01 X-6.9179 Y25.7533
G01 X-6.8397 Y25.8397
G01 X-6.7533 Y25.9179
G01 X-6.6597 Y25.9874
G01 X-6.5598 Y26.0473
G01 X-6.4544 Y26.0971
G01 X-6.3447 Y26.1364
G01 X-6.2317 Y26.1647
G01 X-6.1164 Y26.1818
G01 X-6.0000 Y26.1875
G01 X-5.8836 Y26.1818
G01 X-5.7683 Y26.1647
G01 X-5.6553 Y26.1364
G01 X-5.5456 Y26.0971
G01 X-5.4402 Y26.0473
G01 X-5.3403 Y25.9874
G01 X-5.2467 Y25.9179
G01 X-5.1603 Y25.8397
G01 X-5.0821 Y25.7533
G01 X-5.0126 Y25.6597
G01 X-4.9527 Y25.5598
G01 X-4.9029 Y25.4544
G01 X-4.8636 Y25.3447
G01 X-4.8353 Y25.2317
G01 X-4.8182 Y25.1164
G01 X-4.8125 Y25.0000
G00 X-4.8125 Y25.0000
G01 F60.00
G01 Z-4.0000
G01 F120.00
G01 X-4.8182 Y24.8836
G01 X-4.8353 Y24.7683
G01 X-4.8636 Y24.6553
G01 X-4.9029 Y24.5456
G01 X-4.9527 Y24.4402
G01 X-5.0126 Y24.3403
G01 X-5.0821 Y24.2467
G01 X-5.1603 Y24.1603
G01 X-5.2467 Y24.0821
G01 X-5.3403 Y24.0126
G01 X-5.4402 Y23.9527
G01 X-5.5456 Y23.9029
G01 X-5.6553 Y23.8636
G01 X-5.7683 Y23.8353
G01 X-5.8836 Y23.8182
G01 X-6.0000 Y23.8125
G01 X-6.1164 Y23.8182
G01 X-6.2317 Y23.8353
G01 X-6.3447 Y23.8636
G01 X-6.4544 Y23.9029
G01 X-6.5598 Y23.9527
G01 X-6.6597 Y24.0126
G01 X-6.7533 Y24.0821
G01 X-6.8397 Y24.1603
G01 X-6.9179 Y24.2467
G01 X-6.9874 Y24.3403
G01 X-7.0473 Y24.4402
G01 X-7.0971 Y24.5456
G01 X-7.1364 Y24.6553
G01 X-7.1647 Y24.7683
G01 X-7.1818 Y24.8836
G01 X-7.1875 Y25.0000
G01 X-7.1818 Y25.1164
G01 X-7.1647 Y25.2317
G01 X-7.1364 Y25.3447
G01 X-7.0971 Y25.4544
G01 X-7.0473 Y25.5598
G01 X-6.9874 Y25.6597
G01 X-6.9179 Y25.7533
G01 X-6.8397 Y25.8397
G01 X-6.7533 Y25.9179
G01 X-6.6597 Y25.9874
G01 X-6.5598 Y26.0473
G01 X-6.4544 Y26.0971
G01 X-6.3447 Y26.1364
G01 X-6.2317 Y26.1647
G01 X-6.1164 Y26.1818
G01 X-6.0000 Y26.1875
G01 X-5.8836 Y26.1818
G01 X-5.7683 Y26.1647
G01 X-5.6553 Y26.1364
G01 X-5.5456 Y26.0971
G01 X-5.4402 Y26.0473
G01 X-5.3403 Y25.9874
G01 X-5.2467 Y25.9179
G01 X-5.1603 Y25.8397
G01 X-5.0821 Y25.7533
G01 X-5.0126 Y25.6597
G01 X-4.9527 Y25.5598
G01 X-4.9029 Y25.4544
G01 X-4.8636 Y25.3447
G01 X-4.8353 Y25.2317
G01 X-4.8182 Y25.1164
G01 X-4.8125 Y25.0000
G00 X-4.8125 Y25.0000
G01 F60.00
G01 Z-4.5000
G01 F120.00
G01 X-4.8182 Y24.8836
G01 X-4.8353 Y24.7683
G01 X-4.8636 Y24.6553
G01 X-4.9029 Y24.5456
G01 X-4.9527 Y24.4402
G01 X-5.0126 Y24.3403
G01 X-5.0821 Y24.2467
G01 X-5.1603 Y24.1603
G01 X-5.2467 Y24.0821
G01 X-5.3403 Y24.0126
G01 X-5.4402 Y23.9527
G01 X-5.5456 Y23.9029
G01 X-5.6553 Y23.8636
G01 X-5.7683 Y23.8353
G01 X-5.8836 Y23.8182
G01 X-6.0000 Y23.8125
G01 X-6.1164 Y23.8182
G01 X-6.2317 Y23.8353
G01 X-6.3447 Y23.8636
G01 X-6.4544 Y23.9029
G01 X-6.5598 Y23.9527
G01 X-6.6597 Y24.0126
G01 X-6.7533 Y24.0821
G01 X-6.8397 Y24.1603
G01 X-6.9179 Y24.2467
G01 X-6.9874 Y24.3403
G01 X-7.0473 Y24.4402
G01 X-7.0971 Y24.5456
G01 X-7.1364 Y24.6553
G01 X-7.1647 Y24.7683
G01 X-7.1818 Y24.8836
G01 X-7.1875 Y25.0000
G01 X-7.1818 Y25.1164
G01 X-7.1647 Y25.2317
G01 X-7.1364 Y25.3447
G01 X-7.0971 Y25.4544
G01 X-7.0473 Y25.5598
G01 X-6.9874 Y25.6597
G01 X-6.9179 Y25.7533
G01 X-6.8397 Y25.8397
G01 X-6.7533 Y25.9179
G01 X-6.6597 Y25.9874
G01 X-6.5598 Y26.0473
G01 X-6.4544 Y26.0971
G01 X-6.3447 Y26.1364
G01 X-6.2317 Y26.1647
G01 X-6.1164 Y26.1818
G01 X-6.0000 Y26.1875
G01 X-5.8836 Y26.1818
G01 X-5.7683 Y26.1647
G01 X-5.6553 Y26.1364
G01 X-5.5456 Y26.0971
G01 X-5.4402 Y26.0473
G01 X-5.3403 Y25.9874
G01 X-5.2467 Y25.9179
G01 X-5.1603 Y25.8397
G01 X-5.0821 Y25.7533
G01 X-5.0126 Y25.6597
G01 X-4.9527 Y25.5598
G01 X-4.9029 Y25.4544
G01 X-4.8636 Y25.3447
G01 X-4.8353 Y25.2317
G01 X-4.8182 Y25.1164
G01 X-4.8125 Y25.0000
G00 X-4.8125 Y25.0000
G01 F60.00
G01 Z-5.0000
G01 F120.00
G01 X-4.8182 Y24.8836
G01 X-4.8353 Y24.7683
G01 X-4.8636 Y24.6553
G01 X-4.9029 Y24.5456
G01 X-4.9527 Y24.4402
G01 X-5.0126 Y24.3403
G01 X-5.0821 Y24.2467
G01 X-5.1603 Y24.1603
G01 X-5.2467 Y24.0821
G01 X-5.3403 Y24.0126
G01 X-5.4402 Y23.9527
G01 X-5.5456 Y23.9029
G01 X-5.6553 Y23.8636
G01 X-5.7683 Y23.8353
G01 X-5.8836 Y23.8182
G01 X-6.0000 Y23.8125
G01 X-6.1164 Y23.8182
G01 X-6.2317 Y23.8353
G01 X-6.3447 Y23.8636
G01 X-6.4544 Y23.9029
G01 X-6.5598 Y23.9527
G01 X-6.6597 Y24.0126
G01 X-6.7533 Y24.0821
G01 X-6.8397 Y24.1603
G01 X-6.9179 Y24.2467
G01 X-6.9874 Y24.3403
G01 X-7.0473 Y24.4402
G01 X-7.0971 Y24.5456
G01 X-7.1364 Y24.6553
G01 X-7.1647 Y24.7683
G01 X-7.1818 Y24.8836
G01 X-7.1875 Y25.0000
G01 X-7.1818 Y25.1164
G01 X-7.1647 Y25.2317
G01 X-7.1364 Y25.3447
G01 X-7.0971 Y25.4544
G01 X-7.0473 Y25.5598
G01 X-6.9874 Y25.6597
G01 X-6.9179 Y25.7533
G01 X-6.8397 Y25.8397
G01 X-6.7533 Y25.9179
G01 X-6.6597 Y25.9874
G01 X-6.5598 Y26.0473
G01 X-6.4544 Y26.0971
G01 X-6.3447 Y26.1364
G01 X-6.2317 Y26.1647
G01 X-6.1164 Y26.1818
G01 X-6.0000 Y26.1875
G01 X-5.8836 Y26.1818
G01 X-5.7683 Y26.1647
G01 X-5.6553 Y26.1364
G01 X-5.5456 Y26.0971
G01 X-5.4402 Y26.0473
G01 X-5.3403 Y25.9874
G01 X-5.2467 Y25.9179
G01 X-5.1603 Y25.8397
G01 X-5.0821 Y25.7533
G01 X-5.0126 Y25.6597
G01 X-4.9527 Y25.5598
G01 X-4.9029 Y25.4544
G01 X-4.8636 Y25.3447
G01 X-4.8353 Y25.2317
G01 X-4.8182 Y25.1164
G01 X-4.8125 Y25.0000
G00 X-4.8125 Y25.0000
G01 F60.00
G01 Z-5.5000
G01 F120.00
G01 X-4.8182 Y24.8836
G01 X-4.8353 Y24.7683
G01 X-4.8636 Y24.6553
G01 X-4.9029 Y24.5456
G01 X-4.9527 Y24.4402
G01 X-5.0126 Y24.3403
G01 X-5.0821 Y24.2467
G01 X-5.1603 Y24.1603
G01 X-5.2467 Y24.0821
G01 X-5.3403 Y24.0126
G01 X-5.4402 Y23.9527
G01 X-5.5456 Y23.9029
G01 X-5.6553 Y23.8636
G01 X-5.7683 Y23.8353
G01 X-5.8836 Y23.8182
G01 X-6.0000 Y23.8125
G01 X-6.1164 Y23.8182
G01 X-6.2317 Y23.8353
G01 X-6.3447 Y23.8636
G01 X-6.4544 Y23.9029
G01 X-6.5598 Y23.9527
G01 X-6.6597 Y24.0126
G01 X-6.7533 Y24.0821
G01 X-6.8397 Y24.1603
G01 X-6.9179 Y24.2467
G01 X-6.9874 Y24.3403
G01 X-7.0473 Y24.4402
G01 X-7.0971 Y24.5456
G01 X-7.1364 Y24.6553
G01 X-7.1647 Y24.7683
G01 X-7.1818 Y24.8836
G01 X-7.1875 Y25.0000
G01 X-7.1818 Y25.1164
G01 X-7.1647 Y25.2317
G01 X-7.1364 Y25.3447
G01 X-7.0971 Y25.4544
G01 X-7.0473 Y25.5598
G01 X-6.9874 Y25.6597
G01 X-6.9179 Y25.7533
G01 X-6.8397 Y25.8397
G01 X-6.7533 Y25.9179
G01 X-6.6597 Y25.9874
G01 X-6.5598 Y26.0473
G01 X-6.4544 Y26.0971
G01 X-6.3447 Y26.1364
G01 X-6.2317 Y26.1647
G01 X-6.1164 Y26.1818
G01 X-6.0000 Y26.1875
G01 X-5.8836 Y26.1818
G01 X-5.7683 Y26.1647
G01 X-5.6553 Y26.1364
G01 X-5.5456 Y26.0971
G01 X-5.4402 Y26.0473
G01 X-5.3403 Y25.9874
G01 X-5.2467 Y25.9179
G01 X-5.1603 Y25.8397
G01 X-5.0821 Y25.7533
G01 X-5.0126 Y25.6597
G01 X-4.9527 Y25.5598
G01 X-4.9029 Y25.4544
G01 X-4.8636 Y25.3447
G01 X-4.8353 Y25.2317
G01 X-4.8182 Y25.1164
G01 X-4.8125 Y25.0000
G00 X-4.8125 Y25.0000
G01 F60.00
G01 Z-6.0000
G01 F120.00
G01 X-4.8182 Y24.8836
G01 X-4.8353 Y24.7683
G01 X-4.8636 Y24.6553
G01 X-4.9029 Y24.5456
G01 X-4.9527 Y24.4402
G01 X-5.0126 Y24.3403
G01 X-5.0821 Y24.2467
G01 X-5.1603 Y24.1603
G01 X-5.2467 Y24.0821
G01 X-5.3403 Y24.0126
G01 X-5.4402 Y23.9527
G01 X-5.5456 Y23.9029
G01 X-5.6553 Y23.8636
G01 X-5.7683 Y23.8353
G01 X-5.8836 Y23.8182
G01 X-6.0000 Y23.8125
G01 X-6.1164 Y23.8182
G01 X-6.2317 Y23.8353
G01 X-6.3447 Y23.8636
G01 X-6.4544 Y23.9029
G01 X-6.5598 Y23.9527
G01 X-6.6597 Y24.0126
G01 X-6.7533 Y24.0821
G01 X-6.8397 Y24.1603
G01 X-6.9179 Y24.2467
G01 X-6.9874 Y24.3403
G01 X-7.0473 Y24.4402
G01 X-7.0971 Y24.5456
G01 X-7.1364 Y24.6553
G01 X-7.1647 Y24.7683
G01 X-7.1818 Y24.8836
G01 X-7.1875 Y25.0000
G01 X-7.1818 Y25.1164
G01 X-7.1647 Y25.2317
G01 X-7.1364 Y25.3447
G01 X-7.0971 Y25.4544
G01 X-7.0473 Y25.5598
G01 X-6.9874 Y25.6597
G01 X-6.9179 Y25.7533
G01 X-6.8397 Y25.8397
G01 X-6.7533 Y25.9179
G01 X-6.6597 Y25.9874
G01 X-6.5598 Y26.0473
G01 X-6.4544 Y26.0971
G01 X-6.3447 Y26.1364
G01 X-6.2317 Y26.1647
G01 X-6.1164 Y26.1818
G01 X-6.0000 Y26.1875
G01 X-5.8836 Y26.1818
G01 X-5.7683 Y26.1647
G01 X-5.6553 Y26.1364
G01 X-5.5456 Y26.0971
G01 X-5.4402 Y26.0473
G01 X-5.3403 Y25.9874
G01 X-5.2467 Y25.9179
G01 X-5.1603 Y25.8397
G01 X-5.0821 Y25.7533
G01 X-5.0126 Y25.6597
G01 X-4.9527 Y25.5598
G01 X-4.9029 Y25.4544
G01 X-4.8636 Y25.3447
G01 X-4.8353 Y25.2317
G01 X-4.8182 Y25.1164
G01 X-4.8125 Y25.0000
G00 Z2.0000
G00 X57.1875 Y22.0000
G01 F60.00
G01 Z-0.5000
G01 F120.00
G01 X57.1818 Y21.8836
G01 X57.1647 Y21.7683
G01 X57.1364 Y21.6553
G01 X57.0971 Y21.5456
G01 X57.0473 Y21.4402
G01 X56.9874 Y21.3403
G01 X56.9179 Y21.2467
G01 X56.8397 Y21.1603
G01 X56.7533 Y21.0821
G01 X56.6597 Y21.0126
G01 X56.5598 Y20.9527
G01 X56.4544 Y20.9029
G01 X56.3447 Y20.8636
G01 X56.2317 Y20.8353
G01 X56.1164 Y20.8182
G01 X56.0000 Y20.8125
G01 X55.8836 Y20.8182
G01 X55.7683 Y20.8353
G01 X55.6553 Y20.8636
G01 X55.5456 Y20.9029
G01 X55.4402 Y20.9527
G01 X55.3403 Y21.0126
G01 X55.2467 Y21.0821
G01 X55.1603 Y21.1603
G01 X55.0821 Y21.2467
G01 X55.0126 Y21.3403
G01 X54.9527 Y21.4402
G01 X54.9029 Y21.5456
G01 X54.8636 Y21.6553
G01 X54.8353 Y21.7683
G01 X54.8182 Y21.8836
G01 X54.8125 Y22.0000
G01 X54.8182 Y22.1164
G01 X54.8353 Y22.2317
G01 X54.8636 Y22.3447
G01 X54.9029 Y22.4544
G01 X54.9527 Y22.5598
G01 X55.0126 Y22.6597
G01 X55.0821 Y22.7533
G01 X55.1603 Y22.8397
G01 X55.2467 Y22.9179
G01 X55.3403 Y22.9874
G01 X55.4402 Y23.0473
G01 X55.5456 Y23.0971
G01 X55.6553 Y23.1364
G01 X55.7683 Y23.1647
G01 X55.8836 Y23.1818
G01 X56.0000 Y23.1875
G01 X56.1164 Y23.1818
G01 X56.2317 Y23.1647
G01 X56.3447 Y23.1364
G01 X56.4544 Y23.0971
G01 X56.5598 Y23.0473
G01 X56.6597 Y22.9874
G01 X56.7533 Y22.9179
G01 X56.8397 Y22.8397
G01 X56.9179 Y22.7533
G01 X56.9874 Y22.6597
G01 X57.0473 Y22.5598
G01 X57.0971 Y22.4544
G01 X57.1364 Y22.3447
G01 X57.1647 Y22.2317
G01 X57.1818 Y22.1164
G01 X57.1875 Y22.0000
G00 X57.1875 Y22.0000
G01 F60.00
G01 Z-1.0000
G01 F120.00
G01 X57.1818 Y21.8836
G01 X57.1647 Y21.7683
G01 X57.1364 Y21.6553
G01 X57.0971 Y21.5456
G01 X57.0473 Y21.4402
G01 X56.9874 Y21.3403
G01 X56.9179 Y21.2467
G01 X56.8397 Y21.1603
G01 X56.7533 Y21.0821
G01 X56.6597 Y21.0126
G01 X56.5598 Y20.9527
G01 X56.4544 Y20.9029
G01 X56.3447 Y20.8636
G01 X56.2317 Y20.8353
G01 X56.1164 Y20.8182
G01 X56.0000 Y20.8125
G01 X55.8836 Y20.8182
G01 X55.7683 Y20.8353
G01 X55.6553 Y20.8636
G01 X55.5456 Y20.9029
G01 X55.4402 Y20.9527
G01 X55.3403 Y21.0126
G01 X55.2467 Y21.0821
G01 X55.1603 Y21.1603
G01 X55.0821 Y21.2467
G01 X55.0126 Y21.3403
G01 X54.9527 Y21.4402
G01 X54.9029 Y21.5456
G01 X54.8636 Y21.6553
G01 X54.8353 Y21.7683
G01 X54.8182 Y21.8836
G01 X54.8125 Y22.0000
G01 X54.8182 Y22.1164
G01 X54.8353 Y22.2317
G01 X54.8636 Y22.3447
G01 X54.9029 Y22.4544
G01 X54.9527 Y22.5598
G01 X55.0126 Y22.6597
G01 X55.0821 Y22.7533
G01 X55.1603 Y22.8397
G01 X55.2467 Y22.9179
G01 X55.3403 Y22.9874
G01 X55.4402 Y23.0473
G01 X55.5456 Y23.0971
G01 X55.6553 Y23.1364
G01 X55.7683 Y23.1647
G01 X55.8836 Y23.1818
G01 X56.0000 Y23.1875
G01 X56.1164 Y23.1818
G01 X56.2317 Y23.1647
G01 X56.3447 Y23.1364
G01 X56.4544 Y23.0971
G01 X56.5598 Y23.0473
G01 X56.6597 Y22.9874
G01 X56.7533 Y22.9179
G01 X56.8397 Y22.8397
G01 X56.9179 Y22.7533
G01 X56.9874 Y22.6597
G01 X57.0473 Y22.5598
G01 X57.0971 Y22.4544
G01 X57.1364 Y22.3447
G01 X57.1647 Y22.2317
G01 X57.1818 Y22.1164
G01 X57.1875 Y22.0000
G00 X57.1875 Y22.0000
G01 F60.00
G01 Z-1.5000
G01 F120.00
G01 X57.1818 Y21.8836
G01 X57.1647 Y21.7683
G01 X57.1364 Y21.6553
G01 X57.0971 Y21.5456
G01 X57.0473 Y21.4402
G01 X56.9874 Y21.3403
G01 X56.9179 Y21.2467
G01 X56.8397 Y21.1603
G01 X56.7533 Y21.0821
G01 X56.6597 Y21.0126
G01 X56.5598 Y20.9527
G01 X56.4544 Y20.9029
G01 X56.3447 Y20.8636
G01 X56.2317 Y20.8353
G01 X56.1164 Y20.8182
G01 X56.0000 Y20.8125
G01 X55.8836 Y20.8182
G01 X55.7683 Y20.8353
G01 X55.6553 Y20.8636
G01 X55.5456 Y20.9029
G01 X55.4402 Y20.9527
G01 X55.3403 Y21.0126
G01 X55.2467 Y21.0821
G01 X55.1603 Y21.1603
G01 X55.0821 Y21.2467
G01 X55.0126 Y21.3403
G01 X54.9527 Y21.4402
G01 X54.9029 Y21.5456
G01 X54.8636 Y21.6553
G01 X54.8353 Y21.7683
G01 X54.8182 Y21.8836
G01 X54.8125 Y22.0000
G01 X54.8182 Y22.1164
G01 X54.8353 Y22.2317
G01 X54.8636 Y22.3447
G01 X54.9029 Y22.4544
G01 X54.9527 Y22.5598
G01 X55.0126 Y22.6597
G01 X55.0821 Y22.7533
G01 X55.1603 Y22.8397
G01 X55.2467 Y22.9179
G01 X55.3403 Y22.9874
G01 X55.4402 Y23.0473
G01 X55.5456 Y23.0971
G01 X55.6553 Y23.1364
G01 X55.7683 Y23.1647
G01 X55.8836 Y23.1818
G01 X56.0000 Y23.1875
G01 X56.1164 Y23.1818
G01 X56.2317 Y23.1647
G01 X56.3447 Y23.1364
G01 X56.4544 Y23.0971
G01 X56.5598 Y23.0473
G01 X56.6597 Y22.9874
G01 X56.7533 Y22.9179
G01 X56.8397 Y22.8397
G01 X56.9179 Y22.7533
G01 X56.9874 Y22.6597
G01 X57.0473 Y22.5598
G01 X57.0971 Y22.4544
G01 X57.1364 Y22.3447
G01 X57.1647 Y22.2317
G01 X57.1818 Y22.1164
G01 X57.1875 Y22.0000
G00 X57.1875 Y22.0000
G01 F60.00
G01 Z-2.0000
G01 F120.00
G01 X57.1818 Y21.8836
G01 X57.1647 Y21.7683
G01 X57.1364 Y21.6553
G01 X57.0971 Y21.5456
G01 X57.0473 Y21.4402
G01 X56.9874 Y21.3403
G01 X56.9179 Y21.2467
G01 X56.8397 Y21.1603
G01 X56.7533 Y21.0821
G01 X56.6597 Y21.0126
G01 X56.5598 Y20.9527
G01 X56.4544 Y20.9029
G01 X56.3447 Y20.8636
G01 X56.2317 Y20.8353
G01 X56.1164 Y20.8182
G01 X56.0000 Y20.8125
G01 X55.8836 Y20.8182
G01 X55.7683 Y20.8353
G01 X55.6553 Y20.8636
G01 X55.5456 Y20.9029
G01 X55.4402 Y20.9527
G01 X55.3403 Y21.0126
G01 X55.2467 Y21.0821
G01 X55.1603 Y21.1603
G01 X55.0821 Y21.2467
G01 X55.0126 Y21.3403
G01 X54.9527 Y21.4402
G01 X54.9029 Y21.5456
G01 X54.8636 Y21.6553
G01 X54.8353 Y21.7683
G01 X54.8182 Y21.8836
G01 X54.8125 Y22.0000
G01 X54.8182 Y22.1164
G01 X54.8353 Y22.2317
G01 X54.8636 Y22.3447
G01 X54.9029 Y22.4544
G01 X54.9527 Y22.5598
G01 X55.0126 Y22.6597
G01 X55.0821 Y22.7533
G01 X55.1603 Y22.8397
G01 X55.2467 Y22.9179
G01 X55.3403 Y22.9874
G01 X55.4402 Y23.0473
G01 X55.5456 Y23.0971
G01 X55.6553 Y23.1364
G01 X55.7683 Y23.1647
G01 X55.8836 Y23.1818
G01 X56.0000 Y23.1875
G01 X56.1164 Y23.1818
G01 X56.2317 Y23.1647
G01 X56.3447 Y23.1364
G01 X56.4544 Y23.0971
G01 X56.5598 Y23.0473
G01 X56.6597 Y22.9874
G01 X56.7533 Y22.9179
G01 X56.8397 Y22.8397
G01 X56.9179 Y22.7533
G01 X56.9874 Y22.6597
G01 X57.0473 Y22.5598
G01 X57.0971 Y22.4544
G01 X57.1364 Y22.3447
G01 X57.1647 Y22.2317
G01 X57.1818 Y22.1164
G01 X57.1875 Y22.0000
G00 X57.1875 Y22.0000
G01 F60.00
G01 Z-2.5000
G01 F120.00
G01 X57.1818 Y21.8836
G01 X57.1647 Y21.7683
G01 X57.1364 Y21.6553
G01 X57.0971 Y21.5456
G01 X57.0473 Y21.4402
G01 X56.9874 Y21.3403
G01 X56.9179 Y21.2467
G01 X56.8397 Y21.1603
G01 X56.7533 Y21.0821
G01 X56.6597 Y21.0126
G01 X56.5598 Y20.9527
G01 X56.4544 Y20.9029
G01 X56.3447 Y20.8636
G01 X56.2317 Y20.8353
G01 X56.1164 Y20.8182
G01 X56.0000 Y20.8125
G01 X55.8836 Y20.8182
G01 X55.7683 Y20.8353
G01 X55.6553 Y20.8636
G01 X55.5456 Y20.9029
G01 X55.4402 Y20.9527
G01 X55.3403 Y21.0126
G01 X55.2467 Y21.0821
G01 X55.1603 Y21.1603
G01 X55.0821 Y21.2467
G01 X55.0126 Y21.3403
G01 X54.9527 Y21.4402
G01 X54.9029 Y21.5456
G01 X54.8636 Y21.6553
G01 X54.8353 Y21.7683
G01 X54.8182 Y21.8836
G01 X54.8125 Y22.0000
G01 X54.8182 Y22.1164
G01 X54.8353 Y22.2317
G01 X54.8636 Y22.3447
G01 X54.9029 Y22.4544
G01 X54.9527 Y22.5598
G01 X55.0126 Y22.6597
G01 X55.0821 Y22.7533
G01 X55.1603 Y22.8397
G01 X55.2467 Y22.9179
G01 X55.3403 Y22.9874
G01 X55.4402 Y23.0473
G01 X55.5456 Y23.0971
G01 X55.6553 Y23.1364
G01 X55.7683 Y23.1647
G01 X55.8836 Y23.1818
G01 X56.0000 Y23.1875
G01 X56.1164 Y23.1818
G01 X56.2317 Y23.1647
G01 X56.3447 Y23.1364
G01 X56.4544 Y23.0971
G01 X56.5598 Y23.0473
G01 X56.6597 Y22.9874
G01 X56.7533 Y22.9179
G01 X56.8397 Y22.8397
G01 X56.9179 Y22.7533
G01 X56.9874 Y22.6597
G01 X57.0473 Y22.5598
G01 X57.0971 Y22.4544
G01 X57.1364 Y22.3447
G01 X57.1647 Y22.2317
G01 X57.1818 Y22.1164
G01 X57.1875 Y22.0000
G00 X57.1875 Y22.0000
G01 F60.00
G01 Z-3.0000
G01 F120.00
G01 X57.1818 Y21.8836
G01 X57.1647 Y21.7683
G01 X57.1364 Y21.6553
G01 X57.0971 Y21.5456
G01 X57.0473 Y21.4402
G01 X56.9874 Y21.3403
G01 X56.9179 Y21.2467
G01 X56.8397 Y21.1603
G01 X56.7533 Y21.0821
G01 X56.6597 Y21.0126
G01 X56.5598 Y20.9527
G01 X56.4544 Y20.9029
G01 X56.3447 Y20.8636
G01 X56.2317 Y20.8353
G01 X56.1164 Y20.8182
G01 X56.0000 Y20.8125
G01 X55.8836 Y20.8182
G01 X55.7683 Y20.8353
G01 X55.6553 Y20.8636
G01 X55.5456 Y20.9029
G01 X55.4402 Y20.9527
G01 X55.3403 Y21.0126
G01 X55.2467 Y21.0821
G01 X55.1603 Y21.1603
G01 X55.0821 Y21.2467
G01 X55.0126 Y21.3403
G01 X54.9527 Y21.4402
G01 X54.9029 Y21.5456
G01 X54.8636 Y21.6553
G01 X54.8353 Y21.7683
G01 X54.8182 Y21.8836
G01 X54.8125 Y22.0000
G01 X54.8182 Y22.1164
G01 X54.8353 Y22.2317
G01 X54.8636 Y22.3447
G01 X54.9029 Y22.4544
G01 X54.9527 Y22.5598
G01 X55.0126 Y22.6597
G01 X55.0821 Y22.7533
G01 X55.1603 Y22.8397
G01 X55.2467 Y22.9179
G01 X55.3403 Y22.9874
G01 X55.4402 Y23.0473
G01 X55.5456 Y23.0971
G01 X55.6553 Y23.1364
G01 X55.7683 Y23.1647
G01 X55.8836 Y23.1818
G01 X56.0000 Y23.1875
G01 X56.1164 Y23.1818
G01 X56.2317 Y23.1647
G01 X56.3447 Y23.1364
G01 X56.4544 Y23.0971
G01 X56.5598 Y23.0473
G01 X56.6597 Y22.9874
G01 X56.7533 Y22.9179
G01 X56.8397 Y22.8397
G01 X56.9179 Y22.7533
G01 X56.9874 Y22.6597
G01 X57.0473 Y22.5598
G01 X57.0971 Y22.4544
G01 X57.1364 Y22.3447
G01 X57.1647 Y22.2317
G01 X57.1818 Y22.1164
G01 X57.1875 Y22.0000
G00 X57.1875 Y22.0000
G01 F60.00
G01 Z-3.5000
G01 F120.00
G01 X57.1818 Y21.8836
G01 X57.1647 Y21.7683
G01 X57.1364 Y21.6553
G01 X57.0971 Y21.5456
G01 X57.0473 Y21.4402
G01 X56.9874 Y21.3403
G01 X56.9179 Y21.2467
G01 X56.8397 Y21.1603
G01 X56.7533 Y21.0821
G01 X56.6597 Y21.0126
G01 X56.5598 Y20.9527
G01 X56.4544 Y20.9029
G01 X56.3447 Y20.8636
G01 X56.2317 Y20.8353
G01 X56.1164 Y20.8182
G01 X56.0000 Y20.8125
G01 X55.8836 Y20.8182
G01 X55.7683 Y20.8353
G01 X55.6553 Y20.8636
G01 X55.5456 Y20.9029
G01 X55.4402 Y20.9527
G01 X55.3403 Y21.0126
G01 X55.2467 Y21.0821
G01 X55.1603 Y21.1603
G01 X55.0821 Y21.2467
G01 X55.0126 Y21.3403
G01 X54.9527 Y21.4402
G01 X54.9029 Y21.5456
G01 X54.8636 Y21.6553
G01 X54.8353 Y21.7683
G01 X54.8182 Y21.8836
G01 X54.8125 Y22.0000
G01 X54.8182 Y22.1164
G01 X54.8353 Y22.2317
G01 X54.8636 Y22.3447
G01 X54.9029 Y22.4544
G01 X54.9527 Y22.5598
G01 X55.0126 Y22.6597
G01 X55.0821 Y22.7533
G01 X55.1603 Y22.8397
G01 X55.2467 Y22.9179
G01 X55.3403 Y22.9874
G01 X55.4402 Y23.0473
G01 X55.5456 Y23.0971
G01 X55.6553 Y23.1364
G01 X55.7683 Y23.1647
G01 X55.8836 Y23.1818
G01 X56.0000 Y23.1875
G01 X56.1164 Y23.1818
G01 X56.2317 Y23.1647
G01 X56.3447 Y23.1364
G01 X56.4544 Y23.0971
G01 X56.5598 Y23.0473
G01 X56.6597 Y22.9874
G01 X56.7533 Y22.9179
G01 X56.8397 Y22.8397
G01 X56.9179 Y22.7533
G01 X56.9874 Y22.6597
G01 X57.0473 Y22.5598
G01 X57.0971 Y22.4544
G01 X57.1364 Y22.3447
G01 X57.1647 Y22.2317
G01 X57.1818 Y22.1164
G01 X57.1875 Y22.0000
G00 X57.1875 Y22.0000
G01 F60.00
G01 Z-4.0000
G01 F120.00
G01 X57.1818 Y21.8836
G01 X57.1647 Y21.7683
G01 X57.1364 Y21.6553
G01 X57.0971 Y21.5456
G01 X57.0473 Y21.4402
G01 X56.9874 Y21.3403
G01 X56.9179 Y21.2467
G01 X56.8397 Y21.1603
G01 X56.7533 Y21.0821
G01 X56.6597 Y21.0126
G01 X56.5598 Y20.9527
G01 X56.4544 Y20.9029
G01 X56.3447 Y20.8636
G01 X56.2317 Y20.8353
G01 X56.1164 Y20.8182
G01 X56.0000 Y20.8125
G01 X55.8836 Y20.8182
G01 X55.7683 Y20.8353
G01 X55.6553 Y20.8636
G01 X55.5456 Y20.9029
G01 X55.4402 Y20.9527
G01 X55.3403 Y21.0126
G01 X55.2467 Y21.0821
G01 X55.1603 Y21.1603
G01 X55.0821 Y21.2467
G01 X55.0126 Y21.3403
G01 X54.9527 Y21.4402
G01 X54.9029 Y21.5456
G01 X54.8636 Y21.6553
G01 X54.8353 Y21.7683
G01 X54.8182 Y21.8836
G01 X54.8125 Y22.0000
G01 X54.8182 Y22.1164
G01 X54.8353 Y22.2317
G01 X54.8636 Y22.3447
G01 X54.9029 Y22.4544
G01 X54.9527 Y22.5598
G01 X55.0126 Y22.6597
G01 X55.0821 Y22.7533
G01 X55.1603 Y22.8397
G01 X55.2467 Y22.9179
G01 X55.3403 Y22.9874
G01 X55.4402 Y23.0473
G01 X55.5456 Y23.0971
G01 X55.6553 Y23.1364
G01 X55.7683 Y23.1647
G01 X55.8836 Y23.1818
G01 X56.0000 Y23.1875
G01 X56.1164 Y23.1818
G01 X56.2317 Y23.1647
G01 X56.3447 Y23.1364
G01 X56.4544 Y23.0971
G01 X56.5598 Y23.0473
G01 X56.6597 Y22.9874
G01 X56.7533 Y22.9179
G01 X56.8397 Y22.8397
G01 X56.9179 Y22.7533
G01 X56.9874 Y22.6597
G01 X57.0473 Y22.5598
G01 X57.0971 Y22.4544
G01 X57.1364 Y22.3447
G01 X57.1647 Y22.2317
G01 X57.1818 Y22.1164
G01 X57.1875 Y22.0000
G00 X57.1875 Y22.0000
G01 F60.00
G01 Z-4.5000
G01 F120.00
G01 X57.1818 Y21.8836
G01 X57.1647 Y21.7683
G01 X57.1364 Y21.6553
G01 X57.0971 Y21.5456
G01 X57.0473 Y21.4402
G01 X56.9874 Y21.3403
G01 X56.9179 Y21.2467
G01 X56.8397 Y21.1603
G01 X56.7533 Y21.0821
G01 X56.6597 Y21.0126
G01 X56.5598 Y20.9527
G01 X56.4544 Y20.9029
G01 X56.3447 Y20.8636
G01 X56.2317 Y20.8353
G01 X56.1164 Y20.8182
G01 X56.0000 Y20.8125
G01 X55.8836 Y20.8182
G01 X55.7683 Y20.8353
G01 X55.6553 Y20.8636
G01 X55.5456 Y20.9029
G01 X55.4402 Y20.9527
G01 X55.3403 Y21.0126
G01 X55.2467 Y21.0821
G01 X55.1603 Y21.1603
G01 X55.0821 Y21.2467
G01 X55.0126 Y21.3403
G01 X54.9527 Y21.4402
G01 X54.9029 Y21.5456
G01 X54.8636 Y21.6553
G01 X54.8353 Y21.7683
G01 X54.8182 Y21.8836
G01 X54.8125 Y22.0000
G01 X54.8182 Y22.1164
G01 X54.8353 Y22.2317
G01 X54.8636 Y22.3447
G01 X54.9029 Y22.4544
G01 X54.9527 Y22.5598
G01 X55.0126 Y22.6597
G01 X55.0821 Y22.7533
G01 X55.1603 Y22.8397
G01 X55.2467 Y22.9179
G01 X55.3403 Y22.9874
G01 X55.4402 Y23.0473
G01 X55.5456 Y23.0971
G01 X55.6553 Y23.1364
G01 X55.7683 Y23.1647
G01 X55.8836 Y23.1818
G01 X56.0000 Y23.1875
G01 X56.1164 Y23.1818
G01 X56.2317 Y23.1647
G01 X56.3447 Y23.1364
G01 X56.4544 Y23.0971
G01 X56.5598 Y23.0473
G01 X56.6597 Y22.9874
G01 X56.7533 Y22.9179
G01 X56.8397 Y22.8397
G01 X56.9179 Y22.7533
G01 X56.9874 Y22.6597
G01 X57.0473 Y22.5598
G01 X57.0971 Y22.4544
G01 X57.1364 Y22.3447
G01 X57.1647 Y22.2317
G01 X57.1818 Y22.1164
G01 X57.1875 Y22.0000
G00 X57.1875 Y22.0000
G01 F60.00
G01 Z-5.0000
G01 F120.00
G01 X57.1818 Y21.8836
G01 X57.1647 Y21.7683
G01 X57.1364 Y21.6553
G01 X57.0971 Y21.5456
G01 X57.0473 Y21.4402
G01 X56.9874 Y21.3403
G01 X56.9179 Y21.2467
G01 X56.8397 Y21.1603
G01 X56.7533 Y21.0821
G01 X56.6597 Y21.0126
G01 X56.5598 Y20.9527
G01 X56.4544 Y20.9029
G01 X56.3447 Y20.8636
G01 X56.2317 Y20.8353
G01 X56.1164 Y20.8182
G01 X56.0000 Y20.8125
G01 X55.8836 Y20.8182
G01 X55.7683 Y20.8353
G01 X55.6553 Y20.8636
G01 X55.5456 Y20.9029
G01 X55.4402 Y20.9527
G01 X55.3403 Y21.0126
G01 X55.2467 Y21.0821
G01 X55.1603 Y21.1603
G01 X55.0821 Y21.2467
G01 X55.0126 Y21.3403
G01 X54.9527 Y21.4402
G01 X54.9029 Y21.5456
G01 X54.8636 Y21.6553
G01 X54.8353 Y21.7683
G01 X54.8182 Y21.8836
G01 X54.8125 Y22.0000
G01 X54.8182 Y22.1164
G01 X54.8353 Y22.2317
G01 X54.8636 Y22.3447
G01 X54.9029 Y22.4544
G01 X54.9527 Y22.5598
G01 X55.0126 Y22.6597
G01 X55.0821 Y22.7533
G01 X55.1603 Y22.8397
G01 X55.2467 Y22.9179
G01 X55.3403 Y22.9874
G01 X55.4402 Y23.0473
G01 X55.5456 Y23.0971
G01 X55.6553 Y23.1364
G01 X55.7683 Y23.1647
G01 X55.8836 Y23.1818
G01 X56.0000 Y23.1875
G01 X56.1164 Y23.1818
G01 X56.2317 Y23.1647
G01 X56.3447 Y23.1364
G01 X56.4544 Y23.0971
G01 X56.5598 Y23.0473
G01 X56.6597 Y22.9874
G01 X56.7533 Y22.9179
G01 X56.8397 Y22.8397
G01 X56.9179 Y22.7533
G01 X56.9874 Y22.6597
G01 X57.0473 Y22.5598
G01 X57.0971 Y22.4544
G01 X57.1364 Y22.3447
G01 X57.1647 Y22.2317
G01 X57.1818 Y22.1164
G01 X57.1875 Y22.0000
G00 X57.1875 Y22.0000
G01 F60.00
G01 Z-5.5000
G01 F120.00
G01 X57.1818 Y21.8836
G01 X57.1647 Y21.7683
G01 X57.1364 Y21.6553
G01 X57.0971 Y21.5456
G01 X57.0473 Y21.4402
G01 X56.9874 Y21.3403
G01 X56.9179 Y21.2467
G01 X56.8397 Y21.1603
G01 X56.7533 Y21.0821
G01 X56.6597 Y21.0126
G01 X56.5598 Y20.9527
G01 X56.4544 Y20.9029
G01 X56.3447 Y20.8636
G01 X56.2317 Y20.8353
G01 X56.1164 Y20.8182
G01 X56.0000 Y20.8125
G01 X55.8836 Y20.8182
G01 X55.7683 Y20.8353
G01 X55.6553 Y20.8636
G01 X55.5456 Y20.9029
G01 X55.4402 Y20.9527
G01 X55.3403 Y21.0126
G01 X55.2467 Y21.0821
G01 X55.1603 Y21.1603
G01 X55.0821 Y21.2467
G01 X55.0126 Y21.3403
G01 X54.9527 Y21.4402
G01 X54.9029 Y21.5456
G01 X54.8636 Y21.6553
G01 X54.8353 Y21.7683
G01 X54.8182 Y21.8836
G01 X54.8125 Y22.0000
G01 X54.8182 Y22.1164
G01 X54.8353 Y22.2317
G01 X54.8636 Y22.3447
G01 X54.9029 Y22.4544
G01 X54.9527 Y22.5598
G01 X55.0126 Y22.6597
G01 X55.0821 Y22.7533
G01 X55.1603 Y22.8397
G01 X55.2467 Y22.9179
G01 X55.3403 Y22.9874
G01 X55.4402 Y23.0473
G01 X55.5456 Y23.0971
G01 X55.6553 Y23.1364
G01 X55.7683 Y23.1647
G01 X55.8836 Y23.1818
G01 X56.0000 Y23.1875
G01 X56.1164 Y23.1818
G01 X56.2317 Y23.1647
G01 X56.3447 Y23.1364
G01 X56.4544 Y23.0971
G01 X56.5598 Y23.0473
G01 X56.6597 Y22.9874
G01 X56.7533 Y22.9179
G01 X56.8397 Y22.8397
G01 X56.9179 Y22.7533
G01 X56.9874 Y22.6597
G01 X57.0473 Y22.5598
G01 X57.0971 Y22.4544
G01 X57.1364 Y22.3447
G01 X57.1647 Y22.2317
G01 X57.1818 Y22.1164
G01 X57.1875 Y22.0000
G00 X57.1875 Y22.0000
G01 F60.00
G01 Z-6.0000
G01 F120.00
G01 X57.1818 Y21.8836
G01 X57.1647 Y21.7683
G01 X57.1364 Y21.6553
G01 X57.0971 Y21.5456
G01 X57.0473 Y21.4402
G01 X56.9874 Y21.3403
G01 X56.9179 Y21.2467
G01 X56.8397 Y21.1603
G01 X56.7533 Y21.0821
G01 X56.6597 Y21.0126
G01 X56.5598 Y20.9527
G01 X56.4544 Y20.9029
G01 X56.3447 Y20.8636
G01 X56.2317 Y20.8353
G01 X56.1164 Y20.8182
G01 X56.0000 Y20.8125
G01 X55.8836 Y20.8182
G01 X55.7683 Y20.8353
G01 X55.6553 Y20.8636
G01 X55.5456 Y20.9029
G01 X55.4402 Y20.9527
G01 X55.3403 Y21.0126
G01 X55.2467 Y21.0821
G01 X55.1603 Y21.1603
G01 X55.0821 Y21.2467
G01 X55.0126 Y21.3403
G01 X54.9527 Y21.4402
G01 X54.9029 Y21.5456
G01 X54.8636 Y21.6553
G01 X54.8353 Y21.7683
G01 X54.8182 Y21.8836
G01 X54.8125 Y22.0000
G01 X54.8182 Y22.1164
G01 X54.8353 Y22.2317
G01 X54.8636 Y22.3447
G01 X54.9029 Y22.4544
G01 X54.9527 Y22.5598
G01 X55.0126 Y22.6597
G01 X55.0821 Y22.7533
G01 X55.1603 Y22.8397
G01 X55.2467 Y22.9179
G01 X55.3403 Y22.9874
G01 X55.4402 Y23.0473
G01 X55.5456 Y23.0971
G01 X55.6553 Y23.1364
G01 X55.7683 Y23.1647
G01 X55.8836 Y23.1818
G01 X56.0000 Y23.1875
G01 X56.1164 Y23.1818
G01 X56.2317 Y23.1647
G01 X56.3447 Y23.1364
G01 X56.4544 Y23.0971
G01 X56.5598 Y23.0473
G01 X56.6597 Y22.9874
G01 X56.7533 Y22.9179
G01 X56.8397 Y22.8397
G01 X56.9179 Y22.7533
G01 X56.9874 Y22.6597
G01 X57.0473 Y22.5598
G01 X57.0971 Y22.4544
G01 X57.1364 Y22.3447
G01 X57.1647 Y22.2317
G01 X57.1818 Y22.1164
G01 X57.1875 Y22.0000
G00 Z2.0000
G00 X57.1875 Y8.0000
G01 F60.00
G01 Z-0.5000
G01 F120.00
G01 X57.1818 Y7.8836
G01 X57.1647 Y7.7683
G01 X57.1364 Y7.6553
G01 X57.0971 Y7.5456
G01 X57.0473 Y7.4402
G01 X56.9874 Y7.3403
G01 X56.9179 Y7.2467
G01 X56.8397 Y7.1603
G01 X56.7533 Y7.0821
G01 X56.6597 Y7.0126
G01 X56.5598 Y6.9527
G01 X56.4544 Y6.9029
G01 X56.3447 Y6.8636
G01 X56.2317 Y6.8353
G01 X56.1164 Y6.8182
G01 X56.0000 Y6.8125
G01 X55.8836 Y6.8182
G01 X55.7683 Y6.8353
G01 X55.6553 Y6.8636
G01 X55.5456 Y6.9029
G01 X55.4402 Y6.9527
G01 X55.3403 Y7.0126
G01 X55.2467 Y7.0821
G01 X55.1603 Y7.1603
G01 X55.0821 Y7.2467
G01 X55.0126 Y7.3403
G01 X54.9527 Y7.4402
G01 X54.9029 Y7.5456
G01 X54.8636 Y7.6553
G01 X54.8353 Y7.7683
G01 X54.8182 Y7.8836
G01 X54.8125 Y8.0000
G01 X54.8182 Y8.1164
G01 X54.8353 Y8.2317
G01 X54.8636 Y8.3447
G01 X54.9029 Y8.4544
G01 X54.9527 Y8.5598
G01 X55.0126 Y8.6597
G01 X55.0821 Y8.7533
G01 X55.1603 Y8.8397
G01 X55.2467 Y8.9179
G01 X55.3403 Y8.9874
G01 X55.4402 Y9.0473
G01 X55.5456 Y9.0971
G01 X55.6553 Y9.1364
G01 X55.7683 Y9.1647
G01 X55.8836 Y9.1818
G01 X56.0000 Y9.1875
G01 X56.1164 Y9.1818
G01 X56.2317 Y9.1647
G01 X56.3447 Y9.1364
G01 X56.4544 Y9.0971
G01 X56.5598 Y9.0473
G01 X56.6597 Y8.9874
G01 X56.7533 Y8.9179
G01 X56.8397 Y8.8397
G01 X56.9179 Y8.7533
G01 X56.9874 Y8.6597
G01 X57.0473 Y8.5598
G01 X57.0971 Y8.4544
G01 X57.1364 Y8.3447
G01 X57.1647 Y8.2317
G01 X57.1818 Y8.1164
G01 X57.1875 Y8.0000
G00 X57.1875 Y8.0000
G01 F60.00
G01 Z-1.0000
G01 F120.00
G01 X57.1818 Y7.8836
G01 X57.1647 Y7.7683
G01 X57.1364 Y7.6553
G01 X57.0971 Y7.5456
G01 X57.0473 Y7.4402
G01 X56.9874 Y7.3403
G01 X56.9179 Y7.2467
G01 X56.8397 Y7.1603
G01 X56.7533 Y7.0821
G01 X56.6597 Y7.0126
G01 X56.5598 Y6.9527
G01 X56.4544 Y6.9029
G01 X56.3447 Y6.8636
G01 X56.2317 Y6.8353
G01 X56.1164 Y6.8182
G01 X56.0000 Y6.8125
G01 X55.8836 Y6.8182
G01 X55.7683 Y6.8353
G01 X55.6553 Y6.8636
G01 X55.5456 Y6.9029
G01 X55.4402 Y6.9527
G01 X55.3403 Y7.0126
G01 X55.2467 Y7.0821
G01 X55.1603 Y7.1603
G01 X55.0821 Y7.2467
G01 X55.0126 Y7.3403
G01 X54.9527 Y7.4402
G01 X54.9029 Y7.5456
G01 X54.8636 Y7.6553
G01 X54.8353 Y7.7683
G01 X54.8182 Y7.8836
G01 X54.8125 Y8.0000
G01 X54.8182 Y8.1164
G01 X54.8353 Y8.2317
G01 X54.8636 Y8.3447
G01 X54.9029 Y8.4544
G01 X54.9527 Y8.5598
G01 X55.0126 Y8.6597
G01 X55.0821 Y8.7533
G01 X55.1603 Y8.8397
G01 X55.2467 Y8.9179
G01 X55.3403 Y8.9874
G01 X55.4402 Y9.0473
G01 X55.5456 Y9.0971
G01 X55.6553 Y9.1364
G01 X55.7683 Y9.1647
G01 X55.8836 Y9.1818
G01 X56.0000 Y9.1875
G01 X56.1164 Y9.1818
G01 X56.2317 Y9.1647
G01 X56.3447 Y9.1364
G01 X56.4544 Y9.0971
G01 X56.5598 Y9.0473
G01 X56.6597 Y8.9874
G01 X56.7533 Y8.9179
G01 X56.8397 Y8.8397
G01 X56.9179 Y8.7533
G01 X56.9874 Y8.6597
G01 X57.0473 Y8.5598
G01 X57.0971 Y8.4544
G01 X57.1364 Y8.3447
G01 X57.1647 Y8.2317
G01 X57.1818 Y8.1164
G01 X57.1875 Y8.0000
G00 X57.1875 Y8.0000
G01 F60.00
G01 Z-1.5000
G01 F120.00
G01 X57.1818 Y7.8836
G01 X57.1647 Y7.7683
G01 X57.1364 Y7.6553
G01 X57.0971 Y7.5456
G01 X57.0473 Y7.4402
G01 X56.9874 Y7.3403
G01 X56.9179 Y7.2467
G01 X56.8397 Y7.1603
G01 X56.7533 Y7.0821
G01 X56.6597 Y7.0126
G01 X56.5598 Y6.9527
G01 X56.4544 Y6.9029
G01 X56.3447 Y6.8636
G01 X56.2317 Y6.8353
G01 X56.1164 Y6.8182
G01 X56.0000 Y6.8125
G01 X55.8836 Y6.8182
G01 X55.7683 Y6.8353
G01 X55.6553 Y6.8636
G01 X55.5456 Y6.9029
G01 X55.4402 Y6.9527
G01 X55.3403 Y7.0126
G01 X55.2467 Y7.0821
G01 X55.1603 Y7.1603
G01 X55.0821 Y7.2467
G01 X55.0126 Y7.3403
G01 X54.9527 Y7.4402
G01 X54.9029 Y7.5456
G01 X54.8636 Y7.6553
G01 X54.8353 Y7.7683
G01 X54.8182 Y7.8836
G01 X54.8125 Y8.0000
G01 X54.8182 Y8.1164
G01 X54.8353 Y8.2317
G01 X54.8636 Y8.3447
G01 X54.9029 Y8.4544
G01 X54.9527 Y8.5598
G01 X55.0126 Y8.6597
G01 X55.0821 Y8.7533
G01 X55.1603 Y8.8397
G01 X55.2467 Y8.9179
G01 X55.3403 Y8.9874
G01 X55.4402 Y9.0473
G01 X55.5456 Y9.0971
G01 X55.6553 Y9.1364
G01 X55.7683 Y9.1647
G01 X55.8836 Y9.1818
G01 X56.0000 Y9.1875
G01 X56.1164 Y9.1818
G01 X56.2317 Y9.1647
G01 X56.3447 Y9.1364
G01 X56.4544 Y9.0971
G01 X56.5598 Y9.0473
G01 X56.6597 Y8.9874
G01 X56.7533 Y8.9179
G01 X56.8397 Y8.8397
G01 X56.9179 Y8.7533
G01 X56.9874 Y8.6597
G01 X57.0473 Y8.5598
G01 X57.0971 Y8.4544
G01 X57.1364 Y8.3447
G01 X57.1647 Y8.2317
G01 X57.1818 Y8.1164
G01 X57.1875 Y8.0000
G00 X57.1875 Y8.0000
G01 F60.00
G01 Z-2.0000
G01 F120.00
G01 X57.1818 Y7.8836
G01 X57.1647 Y7.7683
G01 X57.1364 Y7.6553
G01 X57.0971 Y7.5456
G01 X57.0473 Y7.4402
G01 X56.9874 Y7.3403
G01 X56.9179 Y7.2467
G01 X56.8397 Y7.1603
G01 X56.7533 Y7.0821
G01 X56.6597 Y7.0126
G01 X56.5598 Y6.9527
G01 X56.4544 Y6.9029
G01 X56.3447 Y6.8636
G01 X56.2317 Y6.8353
G01 X56.1164 Y6.8182
G01 X56.0000 Y6.8125
G01 X55.8836 Y6.8182
G01 X55.7683 Y6.8353
G01 X55.6553 Y6.8636
G01 X55.5456 Y6.9029
G01 X55.4402 Y6.9527
G01 X55.3403 Y7.0126
G01 X55.2467 Y7.0821
G01 X55.1603 Y7.1603
G01 X55.0821 Y7.2467
G01 X55.0126 Y7.3403
G01 X54.9527 Y7.4402
G01 X54.9029 Y7.5456
G01 X54.8636 Y7.6553
G01 X54.8353 Y7.7683
G01 X54.8182 Y7.8836
G01 X54.8125 Y8.0000
G01 X54.8182 Y8.1164
G01 X54.8353 Y8.2317
G01 X54.8636 Y8.3447
G01 X54.9029 Y8.4544
G01 X54.9527 Y8.5598
G01 X55.0126 Y8.6597
G01 X55.0821 Y8.7533
G01 X55.1603 Y8.8397
G01 X55.2467 Y8.9179
G01 X55.3403 Y8.9874
G01 X55.4402 Y9.0473
G01 X55.5456 Y9.0971
G01 X55.6553 Y9.1364
G01 X55.7683 Y9.1647
G01 X55.8836 Y9.1818
G01 X56.0000 Y9.1875
G01 X56.1164 Y9.1818
G01 X56.2317 Y9.1647
G01 X56.3447 Y9.1364
G01 X56.4544 Y9.0971
G01 X56.5598 Y9.0473
G01 X56.6597 Y8.9874
G01 X56.7533 Y8.9179
G01 X56.8397 Y8.8397
G01 X56.9179 Y8.7533
G01 X56.9874 Y8.6597
G01 X57.0473 Y8.5598
G01 X57.0971 Y8.4544
G01 X57.1364 Y8.3447
G01 X57.1647 Y8.2317
G01 X57.1818 Y8.1164
G01 X57.1875 Y8.0000
G00 X57.1875 Y8.0000
G01 F60.00
G01 Z-2.5000
G01 F120.00
G01 X57.1818 Y7.8836
G01 X57.1647 Y7.7683
G01 X57.1364 Y7.6553
G01 X57.0971 Y7.5456
G01 X57.0473 Y7.4402
G01 X56.9874 Y7.3403
G01 X56.9179 Y7.2467
G01 X56.8397 Y7.1603
G01 X56.7533 Y7.0821
G01 X56.6597 Y7.0126
G01 X56.5598 Y6.9527
G01 X56.4544 Y6.9029
G01 X56.3447 Y6.8636
G01 X56.2317 Y6.8353
G01 X56.1164 Y6.8182
G01 X56.0000 Y6.8125
G01 X55.8836 Y6.8182
G01 X55.7683 Y6.8353
G01 X55.6553 Y6.8636
G01 X55.5456 Y6.9029
G01 X55.4402 Y6.9527
G01 X55.3403 Y7.0126
G01 X55.2467 Y7.0821
G01 X55.1603 Y7.1603
G01 X55.0821 Y7.2467
G01 X55.0126 Y7.3403
G01 X54.9527 Y7.4402
G01 X54.9029 Y7.5456
G01 X54.8636 Y7.6553
G01 X54.8353 Y7.7683
G01 X54.8182 Y7.8836
G01 X54.8125 Y8.0000
G01 X54.8182 Y8.1164
G01 X54.8353 Y8.2317
G01 X54.8636 Y8.3447
G01 X54.9029 Y8.4544
G01 X54.9527 Y8.5598
G01 X55.0126 Y8.6597
G01 X55.0821 Y8.7533
G01 X55.1603 Y8.8397
G01 X55.2467 Y8.9179
G01 X55.3403 Y8.9874
G01 X55.4402 Y9.0473
G01 X55.5456 Y9.0971
G01 X55.6553 Y9.1364
G01 X55.7683 Y9.1647
G01 X55.8836 Y9.1818
G01 X56.0000 Y9.1875
G01 X56.1164 Y9.1818
G01 X56.2317 Y9.1647
G01 X56.3447 Y9.1364
G01 X56.4544 Y9.0971
G01 X56.5598 Y9.0473
G01 X56.6597 Y8.9874
G01 X56.7533 Y8.9179
G01 X56.8397 Y8.8397
G01 X56.9179 Y8.7533
G01 X56.9874 Y8.6597
G01 X57.0473 Y8.5598
G01 X57.0971 Y8.4544
G01 X57.1364 Y8.3447
G01 X57.1647 Y8.2317
G01 X57.1818 Y8.1164
G01 X57.1875 Y8.0000
G00 X57.1875 Y8.0000
G01 F60.00
G01 Z-3.0000
G01 F120.00
G01 X57.1818 Y7.8836
G01 X57.1647 Y7.7683
G01 X57.1364 Y7.6553
G01 X57.0971 Y7.5456
G01 X57.0473 Y7.4402
G01 X56.9874 Y7.3403
G01 X56.9179 Y7.2467
G01 X56.8397 Y7.1603
G01 X56.7533 Y7.0821
G01 X56.6597 Y7.0126
G01 X56.5598 Y6.9527
G01 X56.4544 Y6.9029
G01 X56.3447 Y6.8636
G01 X56.2317 Y6.8353
G01 X56.1164 Y6.8182
G01 X56.0000 Y6.8125
G01 X55.8836 Y6.8182
G01 X55.7683 Y6.8353
G01 X55.6553 Y6.8636
G01 X55.5456 Y6.9029
G01 X55.4402 Y6.9527
G01 X55.3403 Y7.0126
G01 X55.2467 Y7.0821
G01 X55.1603 Y7.1603
G01 X55.0821 Y7.2467
G01 X55.0126 Y7.3403
G01 X54.9527 Y7.4402
G01 X54.9029 Y7.5456
G01 X54.8636 Y7.6553
G01 X54.8353 Y7.7683
G01 X54.8182 Y7.8836
G01 X54.8125 Y8.0000
G01 X54.8182 Y8.1164
G01 X54.8353 Y8.2317
G01 X54.8636 Y8.3447
G01 X54.9029 Y8.4544
G01 X54.9527 Y8.5598
G01 X55.0126 Y8.6597
G01 X55.0821 Y8.7533
G01 X55.1603 Y8.8397
G01 X55.2467 Y8.9179
G01 X55.3403 Y8.9874
G01 X55.4402 Y9.0473
G01 X55.5456 Y9.0971
G01 X55.6553 Y9.1364
G01 X55.7683 Y9.1647
G01 X55.8836 Y9.1818
G01 X56.0000 Y9.1875
G01 X56.1164 Y9.1818
G01 X56.2317 Y9.1647
G01 X56.3447 Y9.1364
G01 X56.4544 Y9.0971
G01 X56.5598 Y9.0473
G01 X56.6597 Y8.9874
G01 X56.7533 Y8.9179
G01 X56.8397 Y8.8397
G01 X56.9179 Y8.7533
G01 X56.9874 Y8.6597
G01 X57.0473 Y8.5598
G01 X57.0971 Y8.4544
G01 X57.1364 Y8.3447
G01 X57.1647 Y8.2317
G01 X57.1818 Y8.1164
G01 X57.1875 Y8.0000
G00 X57.1875 Y8.0000
G01 F60.00
G01 Z-3.5000
G01 F120.00
G01 X57.1818 Y7.8836
G01 X57.1647 Y7.7683
G01 X57.1364 Y7.6553
G01 X57.0971 Y7.5456
G01 X57.0473 Y7.4402
G01 X56.9874 Y7.3403
G01 X56.9179 Y7.2467
G01 X56.8397 Y7.1603
G01 X56.7533 Y7.0821
G01 X56.6597 Y7.0126
G01 X56.5598 Y6.9527
G01 X56.4544 Y6.9029
G01 X56.3447 Y6.8636
G01 X56.2317 Y6.8353
G01 X56.1164 Y6.8182
G01 X56.0000 Y6.8125
G01 X55.8836 Y6.8182
G01 X55.7683 Y6.8353
G01 X55.6553 Y6.8636
G01 X55.5456 Y6.9029
G01 X55.4402 Y6.9527
G01 X55.3403 Y7.0126
G01 X55.2467 Y7.0821
G01 X55.1603 Y7.1603
G01 X55.0821 Y7.2467
G01 X55.0126 Y7.3403
G01 X54.9527 Y7.4402
G01 X54.9029 Y7.5456
G01 X54.8636 Y7.6553
G01 X54.8353 Y7.7683
G01 X54.8182 Y7.8836
G01 X54.8125 Y8.0000
G01 X54.8182 Y8.1164
G01 X54.8353 Y8.2317
G01 X54.8636 Y8.3447
G01 X54.9029 Y8.4544
G01 X54.9527 Y8.5598
G01 X55.0126 Y8.6597
G01 X55.0821 Y8.7533
G01 X55.1603 Y8.8397
G01 X55.2467 Y8.9179
G01 X55.3403 Y8.9874
G01 X55.4402 Y9.0473
G01 X55.5456 Y9.0971
G01 X55.6553 Y9.1364
G01 X55.7683 Y9.1647
G01 X55.8836 Y9.1818
G01 X56.0000 Y9.1875
G01 X56.1164 Y9.1818
G01 X56.2317 Y9.1647
G01 X56.3447 Y9.1364
G01 X56.4544 Y9.0971
G01 X56.5598 Y9.0473
G01 X56.6597 Y8.9874
G01 X56.7533 Y8.9179
G01 X56.8397 Y8.8397
G01 X56.9179 Y8.7533
G01 X56.9874 Y8.6597
G01 X57.0473 Y8.5598
G01 X57.0971 Y8.4544
G01 X57.1364 Y8.3447
G01 X57.1647 Y8.2317
G01 X57.1818 Y8.1164
G01 X57.1875 Y8.0000
G00 X57.1875 Y8.0000
G01 F60.00
G01 Z-4.0000
G01 F120.00
G01 X57.1818 Y7.8836
G01 X57.1647 Y7.7683
G01 X57.1364 Y7.6553
G01 X57.0971 Y7.5456
G01 X57.0473 Y7.4402
G01 X56.9874 Y7.3403
G01 X56.9179 Y7.2467
G01 X56.8397 Y7.1603
G01 X56.7533 Y7.0821
G01 X56.6597 Y7.0126
G01 X56.5598 Y6.9527
G01 X56.4544 Y6.9029
G01 X56.3447 Y6.8636
G01 X56.2317 Y6.8353
G01 X56.1164 Y6.8182
G01 X56.0000 Y6.8125
G01 X55.8836 Y6.8182
G01 X55.7683 Y6.8353
G01 X55.6553 Y6.8636
G01 X55.5456 Y6.9029
G01 X55.4402 Y6.9527
G01 X55.3403 Y7.0126
G01 X55.2467 Y7.0821
G01 X55.1603 Y7.1603
G01 X55.0821 Y7.2467
G01 X55.0126 Y7.3403
G01 X54.9527 Y7.4402
G01 X54.9029 Y7.5456
G01 X54.8636 Y7.6553
G01 X54.8353 Y7.7683
G01 X54.8182 Y7.8836
G01 X54.8125 Y8.0000
G01 X54.8182 Y8.1164
G01 X54.8353 Y8.2317
G01 X54.8636 Y8.3447
G01 X54.9029 Y8.4544
G01 X54.9527 Y8.5598
G01 X55.0126 Y8.6597
G01 X55.0821 Y8.7533
G01 X55.1603 Y8.8397
G01 X55.2467 Y8.9179
G01 X55.3403 Y8.9874
G01 X55.4402 Y9.0473
G01 X55.5456 Y9.0971
G01 X55.6553 Y9.1364
G01 X55.7683 Y9.1647
G01 X55.8836 Y9.1818
G01 X56.0000 Y9.1875
G01 X56.1164 Y9.1818
G01 X56.2317 Y9.1647
G01 X56.3447 Y9.1364
G01 X56.4544 Y9.0971
G01 X56.5598 Y9.0473
G01 X56.6597 Y8.9874
G01 X56.7533 Y8.9179
G01 X56.8397 Y8.8397
G01 X56.9179 Y8.7533
G01 X56.9874 Y8.6597
G01 X57.0473 Y8.5598
G01 X57.0971 Y8.4544
G01 X57.1364 Y8.3447
G01 X57.1647 Y8.2317
G01 X57.1818 Y8.1164
G01 X57.1875 Y8.0000
G00 X57.1875 Y8.0000
G01 F60.00
G01 Z-4.5000
G01 F120.00
G01 X57.1818 Y7.8836
G01 X57.1647 Y7.7683
G01 X57.1364 Y7.6553
G01 X57.0971 Y7.5456
G01 X57.0473 Y7.4402
G01 X56.9874 Y7.3403
G01 X56.9179 Y7.2467
G01 X56.8397 Y7.1603
G01 X56.7533 Y7.0821
G01 X56.6597 Y7.0126
G01 X56.5598 Y6.9527
G01 X56.4544 Y6.9029
G01 X56.3447 Y6.8636
G01 X56.2317 Y6.8353
G01 X56.1164 Y6.8182
G01 X56.0000 Y6.8125
G01 X55.8836 Y6.8182
G01 X55.7683 Y6.8353
G01 X55.6553 Y6.8636
G01 X55.5456 Y6.9029
G01 X55.4402 Y6.9527
G01 X55.3403 Y7.0126
G01 X55.2467 Y7.0821
G01 X55.1603 Y7.1603
G01 X55.0821 Y7.2467
G01 X55.0126 Y7.3403
G01 X54.9527 Y7.4402
G01 X54.9029 Y7.5456
G01 X54.8636 Y7.6553
G01 X54.8353 Y7.7683
G01 X54.8182 Y7.8836
G01 X54.8125 Y8.0000
G01 X54.8182 Y8.1164
G01 X54.8353 Y8.2317
G01 X54.8636 Y8.3447
G01 X54.9029 Y8.4544
G01 X54.9527 Y8.5598
G01 X55.0126 Y8.6597
G01 X55.0821 Y8.7533
G01 X55.1603 Y8.8397
G01 X55.2467 Y8.9179
G01 X55.3403 Y8.9874
G01 X55.4402 Y9.0473
G01 X55.5456 Y9.0971
G01 X55.6553 Y9.1364
G01 X55.7683 Y9.1647
G01 X55.8836 Y9.1818
G01 X56.0000 Y9.1875
G01 X56.1164 Y9.1818
G01 X56.2317 Y9.1647
G01 X56.3447 Y9.1364
G01 X56.4544 Y9.0971
G01 X56.5598 Y9.0473
G01 X56.6597 Y8.9874
G01 X56.7533 Y8.9179
G01 X56.8397 Y8.8397
G01 X56.9179 Y8.7533
G01 X56.9874 Y8.6597
G01 X57.0473 Y8.5598
G01 X57.0971 Y8.4544
G01 X57.1364 Y8.3447
G01 X57.1647 Y8.2317
G01 X57.1818 Y8.1164
G01 X57.1875 Y8.0000
G00 X57.1875 Y8.0000
G01 F60.00
G01 Z-5.0000
G01 F120.00
G01 X57.1818 Y7.8836
G01 X57.1647 Y7.7683
G01 X57.1364 Y7.6553
G01 X57.0971 Y7.5456
G01 X57.0473 Y7.4402
G01 X56.9874 Y7.3403
G01 X56.9179 Y7.2467
G01 X56.8397 Y7.1603
G01 X56.7533 Y7.0821
G01 X56.6597 Y7.0126
G01 X56.5598 Y6.9527
G01 X56.4544 Y6.9029
G01 X56.3447 Y6.8636
G01 X56.2317 Y6.8353
G01 X56.1164 Y6.8182
G01 X56.0000 Y6.8125
G01 X55.8836 Y6.8182
G01 X55.7683 Y6.8353
G01 X55.6553 Y6.8636
G01 X55.5456 Y6.9029
G01 X55.4402 Y6.9527
G01 X55.3403 Y7.0126
G01 X55.2467 Y7.0821
G01 X55.1603 Y7.1603
G01 X55.0821 Y7.2467
G01 X55.0126 Y7.3403
G01 X54.9527 Y7.4402
G01 X54.9029 Y7.5456
G01 X54.8636 Y7.6553
G01 X54.8353 Y7.7683
G01 X54.8182 Y7.8836
G01 X54.8125 Y8.0000
G01 X54.8182 Y8.1164
G01 X54.8353 Y8.2317
G01 X54.8636 Y8.3447
G01 X54.9029 Y8.4544
G01 X54.9527 Y8.5598
G01 X55.0126 Y8.6597
G01 X55.0821 Y8.7533
G01 X55.1603 Y8.8397
G01 X55.2467 Y8.9179
G01 X55.3403 Y8.9874
G01 X55.4402 Y9.0473
G01 X55.5456 Y9.0971
G01 X55.6553 Y9.1364
G01 X55.7683 Y9.1647
G01 X55.8836 Y9.1818
G01 X56.0000 Y9.1875
G01 X56.1164 Y9.1818
G01 X56.2317 Y9.1647
G01 X56.3447 Y9.1364
G01 X56.4544 Y9.0971
G01 X56.5598 Y9.0473
G01 X56.6597 Y8.9874
G01 X56.7533 Y8.9179
G01 X56.8397 Y8.8397
G01 X56.9179 Y8.7533
G01 X56.9874 Y8.6597
G01 X57.0473 Y8.5598
G01 X57.0971 Y8.4544
G01 X57.1364 Y8.3447
G01 X57.1647 Y8.2317
G01 X57.1818 Y8.1164
G01 X57.1875 Y8.0000
G00 X57.1875 Y8.0000
G01 F60.00
G01 Z-5.5000
G01 F120.00
G01 X57.1818 Y7.8836
G01 X57.1647 Y7.7683
G01 X57.1364 Y7.6553
G01 X57.0971 Y7.5456
G01 X57.0473 Y7.4402
G01 X56.9874 Y7.3403
G01 X56.9179 Y7.2467
G01 X56.8397 Y7.1603
G01 X56.7533 Y7.0821
G01 X56.6597 Y7.0126
G01 X56.5598 Y6.9527
G01 X56.4544 Y6.9029
G01 X56.3447 Y6.8636
G01 X56.2317 Y6.8353
G01 X56.1164 Y6.8182
G01 X56.0000 Y6.8125
G01 X55.8836 Y6.8182
G01 X55.7683 Y6.8353
G01 X55.6553 Y6.8636
G01 X55.5456 Y6.9029
G01 X55.4402 Y6.9527
G01 X55.3403 Y7.0126
G01 X55.2467 Y7.0821
G01 X55.1603 Y7.1603
G01 X55.0821 Y7.2467
G01 X55.0126 Y7.3403
G01 X54.9527 Y7.4402
G01 X54.9029 Y7.5456
G01 X54.8636 Y7.6553
G01 X54.8353 Y7.7683
G01 X54.8182 Y7.8836
G01 X54.8125 Y8.0000
G01 X54.8182 Y8.1164
G01 X54.8353 Y8.2317
G01 X54.8636 Y8.3447
G01 X54.9029 Y8.4544
G01 X54.9527 Y8.5598
G01 X55.0126 Y8.6597
G01 X55.0821 Y8.7533
G01 X55.1603 Y8.8397
G01 X55.2467 Y8.9179
G01 X55.3403 Y8.9874
G01 X55.4402 Y9.0473
G01 X55.5456 Y9.0971
G01 X55.6553 Y9.1364
G01 X55.7683 Y9.1647
G01 X55.8836 Y9.1818
G01 X56.0000 Y9.1875
G01 X56.1164 Y9.1818
G01 X56.2317 Y9.1647
G01 X56.3447 Y9.1364
G01 X56.4544 Y9.0971
G01 X56.5598 Y9.0473
G01 X56.6597 Y8.9874
G01 X56.7533 Y8.9179
G01 X56.8397 Y8.8397
G01 X56.9179 Y8.7533
G01 X56.9874 Y8.6597
G01 X57.0473 Y8.5598
G01 X57.0971 Y8.4544
G01 X57.1364 Y8.3447
G01 X57.1647 Y8.2317
G01 X57.1818 Y8.1164
G01 X57.1875 Y8.0000
G00 X57.1875 Y8.0000
G01 F60.00
G01 Z-6.0000
G01 F120.00
G01 X57.1818 Y7.8836
G01 X57.1647 Y7.7683
G01 X57.1364 Y7.6553
G01 X57.0971 Y7.5456
G01 X57.0473 Y7.4402
G01 X56.9874 Y7.3403
G01 X56.9179 Y7.2467
G01 X56.8397 Y7.1603
G01 X56.7533 Y7.0821
G01 X56.6597 Y7.0126
G01 X56.5598 Y6.9527
G01 X56.4544 Y6.9029
G01 X56.3447 Y6.8636
G01 X56.2317 Y6.8353
G01 X56.1164 Y6.8182
G01 X56.0000 Y6.8125
G01 X55.8836 Y6.8182
G01 X55.7683 Y6.8353
G01 X55.6553 Y6.8636
G01 X55.5456 Y6.9029
G01 X55.4402 Y6.9527
G01 X55.3403 Y7.0126
G01 X55.2467 Y7.0821
G01 X55.1603 Y7.1603
G01 X55.0821 Y7.2467
G01 X55.0126 Y7.3403
G01 X54.9527 Y7.4402
G01 X54.9029 Y7.5456
G01 X54.8636 Y7.6553
G01 X54.8353 Y7.7683
G01 X54.8182 Y7.8836
G01 X54.8125 Y8.0000
G01 X54.8182 Y8.1164
G01 X54.8353 Y8.2317
G01 X54.8636 Y8.3447
G01 X54.9029 Y8.4544
G01 X54.9527 Y8.5598
G01 X55.0126 Y8.6597
G01 X55.0821 Y8.7533
G01 X55.1603 Y8.8397
G01 X55.2467 Y8.9179
G01 X55.3403 Y8.9874
G01 X55.4402 Y9.0473
G01 X55.5456 Y9.0971
G01 X55.6553 Y9.1364
G01 X55.7683 Y9.1647
G01 X55.8836 Y9.1818
G01 X56.0000 Y9.1875
G01 X56.1164 Y9.1818
G01 X56.2317 Y9.1647
G01 X56.3447 Y9.1364
G01 X56.4544 Y9.0971
G01 X56.5598 Y9.0473
G01 X56.6597 Y8.9874
G01 X56.7533 Y8.9179
G01 X56.8397 Y8.8397
G01 X56.9179 Y8.7533
G01 X56.9874 Y8.6597
G01 X57.0473 Y8.5598
G01 X57.0971 Y8.4544
G01 X57.1364 Y8.3447
G01 X57.1647 Y8.2317
G01 X57.1818 Y8.1164
G01 X57.1875 Y8.0000
G00 Z2.0000
M05
G00 Z2.0000
G00 Z15.00
G00 X0.0 Y0.0

